MGCheminet/IRB140_Dynamic_Identification/Pruebas_Iniciales/datos_irb140_2025-04-09_LIMITED_2.csv
ID, Vel TCP, Pres, Theta_1, Theta_2, Theta_3, Theta_4, Theta_5, Theta_6
0, 118.22754473696446, 20.969052110126114, 44.94546004082171, 25.339216000644285, 2.749180378135634, 10.049434867213684, 35.47663354676525, 66.85497343690137
1, 156.57929975304165, 15.400838926304559, 71.40856448003377, 99.54610166222166, -66.37717156075688, 26.519052168693015, 107.07234736264184, 25.60348195439091
2, 19.761860039194943, 23.96003320716792, 42.486573139816244, 10.307558110289461, -59.256767138019555, 24.820705510680856, 21.038588966466047, 8.274186366198869
3, 195.1457174451728, 16.520675137625723, 42.93443258623208, 67.60570067931197, 26.325457655998918, 57.20174764156681, 6.674256948827112, 48.373215645641345
4, 168.79852429202504, 21.2934438574057, 79.99660421336905, -3.513310573752724, -56.5604629294797, 14.75250075053262, 42.40582494382814, 45.75471128134139
5, 192.4375212507201, 23.907549376470122, 16.523183303041268, 46.31484605288596, 30.705038133838308, 79.71905083588625, 37.090664893598365, 51.05078667190852
6, 65.96704772002028, 13.372613365438287, 21.304729318426414, 16.54460094284893, 30.6861381489457, 82.00127010979041, 64.85154782997499, 27.739121921282
7, 78.6873246885879, 10.397469867100746, 64.58646340286371, 66.87825469303998, -26.071050680375414, 56.47923715922076, 101.31486343064485, 39.308312619006095
8, 91.74777390914917, 23.206262335794264, 73.22764237297, 58.283518822034125, 16.05388496019981, 73.20576589515785, 53.21294163436422, 46.66321970591001
9, 169.76159392865222, 14.40090557468912, 33.689464441881086, 72.53826841758735, -48.704365531492215, 69.22616771486112, 51.673319082297056, 50.3245674149542
10, 139.2415365780428, 12.473242367936649, 37.02152300725784, 30.76683162369941, -23.072683654471817, 7.482873906021883, 19.07887986273647, 88.63006843959074
11, 156.0426246478649, 19.181469740234576, 67.49363094140242, 108.94891072500148, -2.84459323774027, 52.905697529414475, 28.085299628342845, 6.115512568939635
12, 50.33319143373809, 28.387653987826493, 30.987846083971736, 0.7390370915185844, -32.53698047828332, 83.31852288437396, 105.03041032667018, 40.22947419353455
13, 178.9623199927979, 28.148005722616002, 83.29062944557573, -4.594448269090052, -18.3245224130321, 25.506776911992013, 29.89704912057717, 0.6863992232766049
14, 184.11296804238913, 17.704877251306037, 17.662403638272245, 71.55206688957317, -24.702833766986235, 67.51726505588084, 87.92400301138042, 66.42015594752732
15, 98.1517606200457, 22.398512586501713, 41.67957267393199, 18.81522565149443, 22.471701415159547, 55.17322658187752, 11.606643369923322, 15.913576019634144
16, 124.9221708852637, 19.039040826209863, 25.658944387627475, 46.510513756290656, 5.276534462930584, 20.2546152421886, 47.74780651646155, 56.392963968220705
17, 97.08505820628035, 19.229069567828226, 53.41654718052207, 57.3504469770461, -58.167368200802805, 25.289861385999185, 63.685834909744024, 15.959422991991378
18, 75.97894091750292, 15.732386495895543, 31.239453681276373, 89.245578180913, 45.911485677216376, 79.69701714778517, 93.7741059708056, 59.470400609055105
19, 41.645575095851854, 13.100129321178768, 22.770255752401777, 64.42497484064754, -33.03167993358079, 7.230187962390905, 32.59926229653789, 80.72421572456105
20, 195.69494319515834, 11.26702665018028, 38.95336204590339, -6.237223901568794, 20.899812100048194, 18.409420736500525, 36.63691100891976, 0.28716587877488764
21, 107.70746329507669, 22.545192325590943, 4.269095780897873, 41.61344377684505, -38.970893938541536, 57.29716483386357, 72.03326615339293, 30.107117674980675
22, 144.01715374314276, 17.49053000130577, 29.06808274438616, 32.935105807580065, 19.69845175234337, 1.8790940243221177, 73.4043758323033, 43.90557025707002
23, 88.02202709196925, 19.954966782913754, 51.9257311603282, 92.00052100398324, -42.51894833958962, 73.16360953777506, 106.439115945599, 27.396830097255414
24, 137.98753445397426, 20.76126778589429, 6.5399545457424715, 12.336153962971004, 47.29733620503873, 69.54933497178399, 2.095278456777367, 29.866293878579604
25, 142.0328131713953, 18.016728218485127, 8.011215950093192, 57.57475840445477, -57.106010481518865, 14.809168675703377, 78.99090553050846, 83.749621206031
26, 115.78686759331258, 12.458224754163167, 4.025994719382073, 82.92695368550048, -69.21565771866241, 40.96011661574739, 107.20809647377307, 20.11912419334972
27, 104.78998195561725, 14.217774523594953, 20.056448203857276, 92.90926439650515, -72.6548222409452, 58.430197616535224, 76.89932126837391, 19.56952157402534
28, 162.64042894433908, 15.855342175903644, 76.64798487508118, 77.1569860806588, 41.554238562887065, 7.259298058121677, 97.04967994888733, 31.075418540904575
29, 24.813309237808, 16.22504407177742, 81.22009332186052, 16.422523839452523, 36.67551916738279, 51.6827743072023, 17.594068353728925, 3.5810510180934694
30, 12.425417704921408, 21.017776473674964, 50.748813738095365, -5.201950484334657, 38.971631504535935, 1.3777999469673552, 57.90258216030021, 59.34017811516879
31, 22.172586186736417, 15.022602120198856, 63.81150668967643, 74.09577098793042, -26.080425858848386, 45.27990049563491, 78.82456502434655, 88.42644042246197
32, 146.92917181003105, 26.418458766391886, 45.37071397677164, 41.9503713932788, -10.874574573191055, 15.379305913208496, 21.70783042551803, 47.02674685793233
33, 152.20356918505612, 22.95737924382808, 6.580943183714542, 34.400994929510134, -70.27973774644678, 74.50604967731465, 55.91279606776987, 82.00210680911937
34, 129.47148835555953, 21.941086726387283, 16.77382311280238, 30.714009858359837, -61.9365068057352, 43.7464103815022, 102.68764358811968, 58.646045181893484
35, 137.64760669972466, 16.61722942251162, 37.06749496536182, -10.926299200535547, -15.995539127615745, 0.22543837141051684, 104.04007476676296, 27.57584404588283
36, 195.16769775294247, 10.424286165484673, 28.739754359907884, 24.436330572248337, -23.074491853753727, 70.37835888772314, 8.476202060118164, 68.78865793776208
37, 153.02034132322748, 16.155075690168754, 1.748096285727192, 42.743891766333384, -73.76586826797006, 6.503278070517639, 33.56721671978337, 74.24287588989601
38, 150.26567057021722, 11.241184363385495, 21.062338859231428, 29.1367007126981, -83.83897642778732, 67.21499480300822, 38.70646594599684, 44.570183917215175
39, 95.74766277662361, 11.488861945658662, 50.86853167974624, 51.040242498918566, -20.292200663826467, 53.303910214617844, 74.67703635064909, 21.69871431440426
40, 72.0898527144173, 26.92736288838857, 64.36761508610311, 36.968110593325434, 32.226244295182774, 41.70744158329242, 96.88200062718433, 32.68549762472448
41, 155.13836140543188, 14.901664218826465, 15.965757641958096, 71.01636138382821, 29.196032284726446, 69.9973484079836, 80.58762419712649, 88.69015443673801
42, 46.68566456744891, 20.651676604375446, 10.07163711632369, -10.486603907596137, -14.194410393192245, 17.95567238020662, 74.93674328936521, 31.30503011028285
43, 15.611885838886838, 18.086440730380964, 89.14797433234338, 27.466214107727737, -40.5555233849057, 86.83408790706596, 90.99343104388939, 1.0942546410463516
44, 182.20620013225093, 25.10733960311876, 46.83985629354212, 3.1342812062046015, -34.27970777850302, 33.24172943340465, 44.23271404439733, 26.901883232280724
45, 20.139563543375964, 24.597609973257303, 38.53856647020009, 73.25205075868331, -60.83822547026495, 13.406803249739918, 34.916351761762016, 48.79369793596731
46, 74.7767008093218, 25.15370360912332, 84.56357869551827, 54.8647691749964, -63.92230136899216, 87.4639779174406, 28.726193362486175, 38.20001566925623
47, 62.84732213582981, 25.51697328609842, 79.8116428180786, 5.765164991759157, -88.15762438410238, 18.128228167364767, 24.409800081810378, 27.659412630107088
48, 142.01461574160484, 20.3995598330521, 77.71982970643991, 93.91494942942542, -44.720475809916785, 60.992136447881386, 14.133273915639245, 45.58684906536991
49, 78.9152133913515, 23.81727744820946, 1.9247978462828355, 26.186071677284176, 24.580129289164788, 66.87881704622478, 16.107822687509756, 47.99470257500243
50, 58.62121820826181, 23.67986920165426, 56.12384759477151, 34.477637760221015, 27.84971256147981, 38.728949921470495, 78.48362074720953, 86.92415425015521
51, 145.81136221413604, 17.215280436815384, 31.900654553738796, 22.947311322421093, -1.7694340109794953, 37.438878346893695, 54.20528138953166, 9.992442785337968
52, 69.28629785901173, 12.167440003545186, 31.89035755799916, 55.29576948310023, -36.90013178476186, 21.514995114275845, 10.791286635248591, 0.8525949024881674
53, 100.40151915955146, 27.281869628862786, 14.735512335210446, 99.20339402689447, -21.820613516183627, 71.00962781677384, 7.217171044869613, 19.379741165017
54, 188.91151362374774, 12.002711717285068, 87.3846043392163, 100.2058960612362, -80.79555973911302, 68.46652095942022, 0.5992496417245374, 5.1184675745025014
55, 184.80411646746958, 10.5062279317106, 14.063266871331708, 13.941460375089541, -28.346056588510507, 33.47477387709492, 68.5768532253959, 69.03421793935587
56, 163.15055379983937, 21.527909697824896, 5.331285521546179, 85.28282697352454, -52.963825834295385, 2.4974641955623498, 21.346721027132947, 12.122042378391843
57, 166.19558378327898, 12.039166293638907, 57.90033660622628, 93.86417699536719, -22.06367519656446, 7.427549493813546, 74.72227533052772, 82.09878250384986
58, 114.71811133501112, 19.16536389961225, 82.67418954438322, 38.534503926267114, -69.70869113884774, 18.935470461588263, 31.748500639375486, 55.577682512047566
59, 144.47855813898343, 20.8951416328619, 86.25175276289784, 2.1852702622962266, 43.783003658236424, 26.659557296620868, 4.211698572934475, 34.17703662645213
60, 112.00632627866204, 28.675010757099166, 2.723849937972056, 56.83503096203387, -19.084163935593796, 37.86076209620216, 82.0816012056339, 22.382061852069025
61, 82.65236970762571, 11.619490312838174, 69.75457091351925, 46.30782953243343, 40.61681405881424, 64.48804448514234, 108.37835297035664, 0.988328494387909
62, 133.9443508837981, 14.479509006575952, 15.541315239231373, 24.1277232483138, -17.171182330643315, 52.11099908454118, 78.7472846816174, 70.44804038826334
63, 39.36912686282172, 13.590476756910038, 80.15950630472739, 36.3697525226248, -46.113562519343844, 83.7489915918981, 82.05525895777657, 62.86836405345099
64, 41.01226341001886, 10.302659299314673, 89.47739462665344, 32.01593448690084, 4.098056049582511, 88.26972680089892, 62.362372847712265, 37.781049246753824
65, 111.20501826582411, 19.30213668274221, 77.78940283051402, 91.54855737872273, -56.44183895144501, 0.010959810799644476, 39.06144272869253, 30.29246127089862
66, 23.977018311751458, 19.02904182377805, 17.563767235759578, 70.02875767424146, -39.26022522612367, 50.34252606806472, 67.97899349995743, 73.12541138937543
67, 167.3817534661968, 28.14843212202417, 69.8220351979743, -5.491054963119966, 43.64792089530713, 69.13722420881135, 21.3097193952635, 53.95311404647966
68, 147.7961559504737, 26.333000468600115, 41.28347398843991, -7.926486918381175, 5.032282706855412, 9.529642034056737, 64.2554245812308, 75.6253106317074
69, 110.50126243094091, 27.47420726161615, 88.3008809565145, -5.071984033404517, -10.431401431343701, 51.75258392922715, 86.00684141747206, 8.123157233450778
70, 120.74808705457356, 29.91604831306732, 81.05438812235379, 72.90320258358808, 29.323459985419664, 7.560302527166654, 105.3724295366026, 0.7000954683975268
71, 143.04004190491764, 20.34368538029811, 27.102260336326907, 15.30650327029488, -24.445689763560026, 39.59452997400572, 20.802490157570123, 16.621176626942628
72, 156.73370713788935, 27.99362728456822, 54.738009207218035, -11.524428685553909, 40.41437079011351, 24.280567061999186, 22.335852416779463, 43.325332030885185
73, 46.90218384313067, 25.83106418365865, 67.760460711549, 0.00010174383680627841, 13.114259732763301, 37.26685579745101, 0.46532708799526534, 85.4440369915001
74, 147.9331819790623, 21.935849480589198, 2.6272432813214817, 81.4462539465222, -9.828584956667683, 10.523198539764572, 46.097456687701396, 14.549966925465323
75, 70.4772455645728, 21.438528213365757, 56.37893617458729, 98.6109863004501, -89.71731641311808, 31.092118512349195, 29.206242382453354, 5.4393942647205415
76, 146.82781293294082, 15.538817364311049, 41.791917525812956, 58.978474888432004, -49.607429093804605, 63.855395090363686, 67.65695093049536, 46.07306825920623
77, 179.71048677314886, 16.795523387036745, 45.88396473607216, -4.658717708400149, 7.920493261264413, 34.02376867416596, 25.46606811548634, 26.23643940090702
78, 17.699495694722792, 21.61313213419049, 60.3651834513291, 6.735461271887189, 21.92516478306655, 9.16057514220191, 97.24232202778715, 51.06477732574718
79, 65.84863156193424, 24.807867108992625, 26.79644585475664, 26.900169554323575, -38.488383459006165, 81.90309232793562, 1.5224980691965782, 49.762341335704754
80, 122.53345196119226, 26.58294750825869, 24.59587960011392, 85.47927866361847, 29.346100293611716, 80.33558461333195, 109.11203276190548, 65.10222534926339
81, 19.712747410580313, 27.233628510504605, 2.3496592642490235, 37.436649004682, -56.70107087061686, 68.77550018704332, 50.00204414011755, 10.955061492178006
82, 95.86421143054294, 17.004372841873156, 56.02196781836788, 77.74290521654264, -26.60736255693805, 57.936980685402666, 83.99156983488967, 77.70325777679545
83, 109.89220235653423, 28.668274573629073, 81.50405483550176, -0.4649484589786148, 13.23518305877515, 40.56627972980161, 98.67473597780015, 44.4226030629058
84, 125.76219723045362, 21.173938590735222, 24.378820317270524, 13.671654383045897, -12.453553146668595, 43.65143713913147, 18.727053513483188, 34.18864308210605
85, 132.30837841757932, 21.906009000571842, 75.2577137578549, 81.28717503490897, -31.012582417553162, 3.593745055268088, 94.88640154505113, 44.953307891799696
86, 109.9803205629091, 23.503080244150702, 54.787021352625736, 53.316316395381534, 47.5172214367976, 25.56588927127983, 42.63619744083812, 6.1346769239225925
87, 169.17637666944395, 18.744493805683046, 73.80365556707103, 20.43703206117224, -49.93835398347285, 25.722056263902303, 49.03155961893268, 70.83809259938899
88, 60.39235406018582, 13.232441985215551, 22.19626960806429, 74.69870305306883, -48.278380278979064, 45.31320761310387, 82.25133622087681, 50.87886091992728
89, 65.50537253700438, 27.92123218151553, 66.612278646434, 98.18661182072516, -44.94096008348345, 67.42608540037726, 18.760636131202507, 43.64340103677792
90, 70.63837955970568, 16.756048911405692, 8.274371797675505, 33.594977624177844, -0.9986801441782944, 40.39960054007811, 45.52737796604628, 75.79405483205635
91, 174.8676343815605, 24.12811839639477, 41.05957875610692, -4.33299702144965, -4.661662687115353, 17.8108069672909, 43.327333954327095, 66.26148659205536
92, 164.60444877434384, 20.20485409406851, 67.13762162685842, 74.85321357271972, 8.441477135180222, 3.025384459792715, 63.58330959757473, 37.615657426132564
93, 18.727748390372838, 18.298175414025415, 39.83405924731636, 83.40016804061617, 33.38409221141867, 66.5017203731472, 27.32607724500221, 40.809223561385416
94, 194.05311526002234, 13.054776637486732, 45.60599301934254, 21.42033364167837, 29.632318644845014, 14.431740888400546, 13.109136325244723, 3.5512840243631003
95, 117.92070118826027, 24.771216629113088, 76.29715333543714, 1.976000556657203, 14.247792398145421, 18.273098484903723, 36.84319646094163, 47.47858526589143
96, 101.98161663542739, 29.40110800345597, 68.52604363849761, 60.9675553983731, -23.836133444496284, 53.749220257767924, 44.266876192022536, 55.501881534729925
97, 52.02703549181565, 29.79740594201268, 81.4359359234772, 73.96091726499472, -83.61637981319028, 33.250724899736404, 56.63933843715997, 9.01608570996203
98, 145.74899760386938, 27.073029739741635, 75.9323090843885, 5.822827238028449, -70.23375071238978, 78.45284736632642, 73.1696051329559, 0.9615269466255749
99, 72.77451812918831, 17.36994015572833, 15.537670363304674, 77.3753501798666, -75.16542428635437, 8.23824524792583, 61.54240979520395, 40.64085300205801
100, 80.85200281182675, 19.71497166718341, 19.565816367415355, -9.814055655918532, 17.23745723849136, 28.17315584679931, 72.54027429395123, 48.2017775645159
101, 115.21105907922824, 24.473363509096536, 25.963820732705344, 15.951183941166164, 5.399052189911828, 28.302077048583893, 26.538435042754216, 41.20789510065094
102, 69.57922440676305, 15.07516364115261, 20.19441154448071, -3.797743560051078, -4.7024696769484535, 83.44365207707025, 85.24694348154384, 41.14267182927964
103, 174.91914494046839, 21.387041097288794, 32.59578590491701, 32.37764522475521, 27.38780182257699, 10.59537613262751, 29.068057365528276, 57.48273790015176
104, 59.84129947521031, 25.868534494782185, 5.484029676871105, -6.5407929861040985, -5.636600929206963, 51.53687098530357, 41.032341991942, 54.98994145984557
105, 27.52793289464266, 15.3479635697836, 2.7177598580183506, 2.2291619072629736, -1.6318626914468979, 71.25082247161777, 105.41864926220748, 83.84399791242757
106, 36.87668625526393, 29.255640009949598, 6.030355537473137, 63.14764847551383, -83.67238450988657, 47.17872391828076, 59.51234990927111, 40.809881609348345
107, 99.22490877129084, 26.08331119851915, 60.95513354761198, 31.06612485211108, -10.992698296855934, 6.572621447490966, 81.48279145932524, 79.2165226329245
108, 33.044597247134206, 12.354584508698114, 63.98724042639342, 33.38959429080712, -83.7878902703651, 83.45890160516406, 42.940978617844316, 74.85842790693654
109, 113.00226155919928, 18.67445452498631, 6.496702037871207, 10.750265372956909, -73.43324746281128, 42.79381662963653, 103.30879017203057, 62.44227059170206
110, 44.18625125583179, 23.277429932445713, 2.932536122600488, 105.08969115825059, -60.95561372483669, 59.74791909616223, 108.37853575498056, 52.39578596340084
111, 134.81152614063734, 23.023769731227265, 28.295481817710353, 83.0883455794893, 46.13626579046456, 37.61271661535381, 13.31383763390431, 44.89475130148351
112, 19.165365270671348, 29.418166484363503, 78.36592247418251, 105.2623261399603, -79.57842997008257, 72.5994598520956, 42.124135363038526, 0.4735860631295574
113, 60.08854236959883, 19.16370590559088, 10.642796601828856, 45.44642766403329, 26.68081485391924, 64.02675121447527, 39.596347695292025, 2.8023098226812113
114, 51.26211128847588, 12.769250040619259, 31.352058392186525, 57.34950016581632, 33.40193490001099, 51.76602270959869, 2.122722703432771, 66.85049635342155
115, 140.76000841581143, 28.862034805382077, 21.212471215358153, 62.15381675195691, 35.42189574211915, 11.579454214921563, 108.55034317409125, 52.8466301648928
116, 105.81503310421809, 10.299025348737473, 78.21902901941168, 6.24842178705655, -17.237333109255303, 69.27667247987866, 47.25766648124433, 71.55545570886702
117, 104.64701475243346, 24.305283909446374, 3.20134843293733, 108.34945411734739, -26.03574148624594, 1.0661049387329324, 1.0331638493375614, 84.73099789688841
118, 100.45635252281775, 20.915303600384547, 53.484750333765106, 55.22570651040212, 30.30538881823503, 43.43673528699467, 44.83592968910769, 20.251509151685177
119, 11.52837186015531, 27.259882297655796, 6.648332504294846, 19.205035723336927, -87.77778999179966, 38.94465256138051, 106.13292690091546, 82.48114215249159
120, 167.7687113105472, 29.83325529621283, 9.877765914120035, 77.97470837152271, -14.099968312036452, 73.98609989657396, 23.040394209321164, 48.25792199876687
121, 11.162671109054044, 11.80385206491078, 34.721203516230055, -3.0034269270352727, 1.7126478775817873, 50.77573934067372, 48.41754816560266, 17.140720771711614
122, 39.764919224910884, 14.743763742512675, 53.592307473309376, 40.35251526845925, -29.637105563832492, 74.02056720130419, 51.81491998877339, 82.02909717030332
123, 108.7084048900533, 14.707142529712252, 10.924923165251855, -7.061368405185298, -19.895207260135734, 8.903401085426534, 70.40213926881279, 81.39395252326587
124, 171.13876800542707, 18.19490278383342, 38.634599055662015, 25.41100183024939, 48.92069809321282, 32.0340363588564, 10.859720938650431, 47.67507179060012
125, 39.86059815192762, 17.857849555484986, 23.08483963480973, 72.81140518876836, 16.889434000494134, 70.04344030867671, 69.22668338129189, 18.032538505903027
126, 118.93984130008205, 26.458557506594577, 30.83888165915703, 85.44196754338346, -26.741986266555948, 65.15748115343388, 32.63456816450614, 84.37945003490456
127, 83.79310528839291, 12.067504851365808, 57.35837356098155, 19.93102287784243, -87.13891231340952, 44.63101900148818, 48.57222333954852, 13.359743665493424
128, 184.81711438160394, 13.388237834833996, 6.137840463450822, -9.433414090922184, 35.63571809253202, 10.584994940216658, 12.586030968349732, 3.078586095934126
129, 22.573697959742773, 13.107495068507752, 20.93222618893526, 49.20467734535646, -8.114533797569237, 82.38000163543815, 94.28169477948505, 26.9774289497558
130, 20.36944343104199, 14.646523318630283, 53.55050049070466, -11.018709445096036, 25.58098613822324, 60.5677307735305, 90.85695304316938, 34.49718232896399
131, 199.3964651977245, 19.722138463739743, 16.876153369687398, -9.229435032256795, -13.705691710925748, 7.4539747546571355, 51.78234556352806, 78.81960236213449
132, 35.31174746666613, 28.8122134155872, 67.58757870836779, 92.92913775554541, -52.151494576515546, 87.29477525495795, 89.94315270348731, 49.26260718559469
133, 33.062369739065, 28.275380601042986, 39.02750101660912, 14.302518227883553, -86.95722986058402, 88.88133691547895, 4.10497449440283, 44.83245944154174
134, 75.21790850523139, 20.090099959175195, 55.646511848722945, 22.30045287200329, -63.084390685988325, 29.178065711293357, 16.438730078735077, 8.664004355037505
135, 101.50094785004342, 22.56302987938103, 23.81672909240126, 96.85591916657248, -64.89727336723398, 52.93733410502652, 99.21848432680868, 30.708980355351393
136, 148.44806896681231, 16.171279255325814, 33.15170285233735, 81.4423140011574, 22.507577466919372, 59.600715783171296, 33.602120246277714, 3.160573776770354
137, 132.8380036841879, 28.391114281434685, 40.15330700969254, 8.915605843940149, -1.538797505130361, 61.187485525318365, 45.07975617970968, 17.464405271081734
138, 122.55483438516946, 19.077052560938178, 72.54230150110081, 31.061601136827484, -27.16152649825276, 49.37687029700801, 16.59690643900434, 26.367291421651004
139, 35.80407874718292, 25.889297909493923, 64.51805150240335, 101.88441616220034, -34.53159958183896, 25.95114958324123, 85.87491330164238, 55.62510075793056
140, 28.31128604328421, 16.32787261396363, 55.04637238733449, 80.65866384500283, -56.48237673945877, 8.966241434887577, 79.73744546832606, 35.1779917753543
141, 149.55627790758194, 26.533318310576284, 13.96883391411883, 70.209846855057, -41.924722311836696, 76.67447596566636, 83.74110459712341, 89.71149550719424
142, 48.90554767053955, 25.527246802874235, 35.170732581959484, 109.20221070070896, 2.298001999010495, 71.74421221511953, 99.60273533256112, 50.24060770949202
143, 44.9317524060426, 18.89254382704641, 42.06554944141456, 107.92624305312863, -38.663974782481176, 31.845076084855414, 50.25818495046067, 38.03345353699106
144, 184.0715541297632, 21.672279644340477, 19.476623077980978, 24.389768827306575, 5.139859385956256, 2.8531996235367165, 99.89237280579758, 18.583661463403118
145, 132.04071849535336, 26.376069313735023, 29.797094468122076, 65.74361129764388, -86.09736418594008, 36.708810646917016, 18.280598435853214, 26.41740564205052
146, 185.78138252363402, 15.3990244012912, 85.65481705197634, 70.01760164344685, 33.97931400520863, 10.674924684289183, 18.83042737593353, 43.05537933759376
147, 158.54444200788984, 18.7624803081316, 66.77541067040187, 96.25279405244217, -23.595843684359863, 44.027497284818665, 77.42626463112559, 79.68563592162826
148, 171.33453123059823, 10.7108831252478, 5.74709659413717, 49.00487375761582, 30.2350307448702, 9.757075041100846, 34.00768708996122, 73.55087120234147
149, 112.85414625065157, 15.301511326833019, 2.0500145877577625, 17.390885799902787, -56.86569777048746, 12.800935723611637, 2.3458444810802384, 70.76853243869797
150, 82.86774932639527, 27.42569521999573, 14.937593026357824, 41.22689074875875, -53.88533611717971, 30.235137656841573, 5.425262955836473, 32.557841610607234
151, 106.40207407609651, 13.763254634493345, 42.17194146141102, 16.61865615301206, -81.43357607035333, 18.164137508004064, 8.381877693733742, 55.3114398869182
152, 107.9582182887682, 14.224154848241879, 34.158139949960905, -10.295412977446299, -48.68903651298706, 84.25487459667274, 77.5449114286523, 72.22535210157051
153, 22.934774121264013, 28.19566855206058, 29.650767137170426, 75.39909627648998, 19.66842640518037, 50.52596437324026, 102.63493581011792, 87.38819088536628
154, 67.04437094684394, 12.981043438650183, 73.54489659036088, 21.94002676316698, -34.09895560646581, 77.68461262243241, 93.25057574620942, 65.6592897912638
155, 44.060826154886215, 14.482248154101105, 69.44045180491956, 62.903385970993526, 36.725352237214096, 81.35795404410489, 39.797764593558426, 49.004999755645585
156, 185.953251689825, 14.130972710632548, 78.12617935837406, 10.086193960800184, -48.572956385889796, 6.175193889595645, 7.023842279256507, 88.49466177632779
157, 70.04515567342142, 20.094239605101745, 87.11494501981102, 71.18688245958488, 21.275062019872138, 50.82768187743567, 55.408750804636774, 15.879225757452632
158, 96.36882807341318, 15.148738340703696, 83.52157781004927, 3.449217816049819, -31.416723141152413, 55.85861518495536, 50.73977717279737, 42.89805814998918
159, 156.97584993706263, 11.827013181881803, 76.24999487039224, 21.60108342544006, 46.12959251046203, 39.634774813966864, 47.03590381907754, 0.5348882362510821
160, 168.1802747058157, 25.85600735839987, 9.20026220529834, 55.487952186609476, -65.06794384449947, 62.48843313501002, 99.1520770679745, 62.274731663431055
161, 120.29906001728872, 19.815381575524803, 53.030482491998924, 11.843600858842462, -54.94821243588706, 4.204647760371575, 32.34854014637188, 18.475878145466414
162, 155.8084756766404, 27.507959424881193, 69.30576167141591, 15.373724931940664, 35.99374592987121, 69.79104726933491, 75.6231688848843, 73.21758141061649
163, 109.70630337976485, 13.909233369277791, 48.776527921257106, 64.00758789856688, -29.04906775702614, 76.37863581205636, 88.24584193271697, 21.801599740535075
164, 145.0727244022993, 27.52115916081905, 81.42177850664996, 20.141281528534364, -0.6837246611471954, 23.283993479873793, 51.58148118794463, 4.9145908861047936
165, 123.6647839902744, 23.686323668901466, 74.49705332470782, 82.14103457728118, 21.91429541210154, 81.1596983614502, 88.99471178867127, 53.54515894579715
166, 19.748077295253157, 15.977341186759746, 63.63853905103302, 63.15604168735702, -11.096213013910685, 82.31686888631218, 69.29707741950256, 65.18389726108275
167, 47.749836681214084, 17.28070663109404, 32.58055805531142, 31.9803678343757, -69.29209909186973, 58.43674849505628, 38.75415141463442, 77.65166263132203
168, 65.30772846579855, 14.481943927777209, 39.466355876278165, 76.67325556700358, 24.534770268798184, 34.57909574066531, 40.197231857886436, 50.75245251294421
169, 61.90684532640648, 27.68813915609724, 64.42200221424761, 32.079156301971736, -3.7700358448140032, 39.813619522769244, 85.22516232254891, 70.73089168785053
170, 163.1066250753853, 19.638246309662243, 47.45058315071183, 65.31210484237936, -86.94117273999922, 66.98772578310731, 33.07602307835623, 3.986966931972934
171, 80.52941692448594, 25.096338585282247, 67.8730053471805, 4.914800598361335, -49.01776055391757, 72.1564703786115, 68.54233859066292, 8.896125414262821
172, 107.58576865843719, 11.03217857714937, 40.878002329513535, 27.793745782624036, -76.69832856805456, 11.68652778083954, 52.83921735915956, 77.2612198551371
173, 49.7031833440851, 23.374907483538962, 77.94164192832227, 71.03711288576929, -35.335242373177664, 40.51540416444175, 15.155245824641264, 79.87065982499756
174, 172.0177089265247, 26.577491250103577, 0.6504936256385463, 93.0911942412956, -57.18869451636215, 37.43503328584726, 6.453550483212461, 36.11439067010654
175, 66.00408535445513, 26.0533978854398, 21.329594360348302, 79.47531287092028, -63.50577597447305, 79.32850373971343, 42.536287720203255, 30.711528949728134
176, 85.43165885941806, 22.102083175902187, 80.66358197738921, 32.36429133294177, 25.189828237819146, 50.63036573721984, 66.012889439884, 21.277241569263662
177, 131.20235390038522, 26.211868910516376, 45.75825206186975, 96.92011806078959, 32.567107176039855, 29.132197492670574, 33.39077389619227, 47.120676737592625
178, 96.44455777928425, 18.681905575519885, 64.25839836576935, 108.14482150205129, 37.67461996426081, 5.1965648856993045, 17.838049474527214, 30.643846033381976
179, 89.88298680979328, 26.0717418596292, 36.61340410824599, 66.6941094261332, -60.284869904928215, 77.81841845730828, 102.079935873248, 82.30905677912831
180, 164.18699133210754, 11.346068025530672, 84.12566773363089, 3.1365864780479904, -61.34071280887058, 11.138631653881616, 1.7724153799531406, 38.0970980265183
181, 126.19542820858123, 21.748609462818962, 18.96982900608341, 91.07782007252794, -14.425123267735174, 70.71895673917338, 100.23219168904068, 23.37790372696934
182, 133.07654496493043, 18.66173342763482, 76.1549963868527, 79.12118822049317, -81.71700006466091, 64.1951966300088, 78.28739614626629, 57.412837815058296
183, 119.14316647188522, 27.04865853774703, 60.47818873241862, 42.477223306468304, -63.01403988404362, 19.389598469565087, 77.5964028789507, 12.506645293911403
184, 150.83483945475254, 29.978281134483055, 71.30310702814202, 32.46342319741598, -25.975391603250603, 35.59551820684426, 15.867132947432815, 48.5723586674514
185, 47.00213779059208, 19.526447541590564, 28.941142965679663, 96.3479672072382, -69.61364722755923, 3.2916220116237946, 105.63111158970719, 84.35931460993811
186, 118.02112392887753, 14.923804964467562, 37.218655039668306, 64.91404711573745, -61.76207081927715, 7.887514988640143, 60.67017702143952, 53.73743281847361
187, 99.57953283968395, 22.598498587459712, 64.61458912164251, 95.21848642964831, -81.95147974602433, 89.40544228781528, 91.3735077608447, 14.464595887532823
188, 74.05628157982044, 28.09644714344392, 53.40189379395792, 27.72161474663831, -64.04005953628075, 62.412100702563464, 81.87466278178442, 53.91593369130158
189, 129.97590556680527, 20.280014160383566, 30.18154215306475, 15.815911148800904, -57.64231643382947, 58.537473758886485, 91.08470117927192, 12.942465113873789
190, 174.60678990788412, 25.04697764692549, 82.94142214381786, -1.8167137253796444, -69.11461205083884, 7.242919601518275, 71.0184813358413, 7.155653630299587
191, 190.4806317291555, 19.876739323191725, 64.68278876311008, 86.75513582013879, -79.20256393415802, 18.75341729456063, 89.01571958943296, 59.86574735907717
192, 75.56699475962026, 12.26792225961182, 45.02519487425064, 95.3875918824194, -69.73204274111453, 73.01686554999473, 102.29503882853736, 52.35277049193691
193, 181.88163631362508, 15.564464342703213, 18.548230779484612, -3.5217158375511857, -28.170971752048306, 14.4330476838243, 58.86886222293337, 44.86925749838109
194, 182.2289577370464, 16.24794933550294, 7.9615307128335955, 41.30040622820749, -84.26600707149295, 41.92453349088246, 73.77892443740306, 31.953350050606772
195, 107.89493627392865, 16.714091092041308, 13.373667281041142, 88.22736912597678, -7.029151064491714, 12.597104658418663, 6.169507355355926, 20.82294840612777
196, 147.18970106213933, 18.05395008709594, 27.96590079042751, 14.774040198809073, -67.86385942440228, 38.45661559761048, 52.30595625762425, 6.343596082344551
197, 199.5269237822039, 22.173861427413698, 49.838493386622396, 5.72665750345034, -29.116109086468228, 38.63864708146471, 100.16162119006934, 28.504074964349602
198, 190.65184766261544, 23.220691162197582, 43.946162216574415, 83.37093297425002, -53.3232348734324, 61.9683709232262, 106.09038711397127, 50.93856870279683
199, 168.6162035707083, 24.484893246186257, 61.36763099449907, 59.52431618320044, 0.500517102761961, 12.40261166355422, 57.16776637719937, 48.506137482844096
200, 175.13233472650825, 22.603675500823115, 59.16247346440938, 22.761929811997874, -82.04371723822523, 83.7287758224752, 65.78501818670902, 79.17968585598715
201, 189.63003019834045, 21.34002590361667, 59.93322657901314, 8.422671484429209, 15.904609716459506, 18.952779150947368, 50.93746472903148, 52.60171421582031
202, 129.99571008633416, 20.757880587210007, 75.58096168760112, 43.10044238483595, 39.912853784809954, 25.877418099438902, 86.73783167326374, 19.379958346447356
203, 191.90249284238095, 24.33085094959921, 63.65198718214524, 30.289492908225753, -44.70033510554013, 41.04267713904155, 75.09386593939705, 74.47149909629547
204, 80.66400477068643, 25.92468064207368, 44.67419659878219, 98.78707148648047, -16.5381881741518, 71.74856103880781, 2.1450936340785107, 67.02509948046345
205, 92.12974223746119, 19.57201726242458, 77.49474036292091, 35.632384941605665, -76.44344753781581, 83.48081969312113, 57.49950709964713, 3.0524605496457404
206, 198.2477924614486, 27.894834871525237, 51.403608412146504, 76.8787022628387, -86.14071727875803, 29.671816233498475, 98.63199212236317, 10.953983675232632
207, 19.60246452308425, 13.786897381274269, 88.98279750541788, 74.99345323281948, -54.35755148381835, 27.308431033038623, 1.211563347544098, 11.3892104636115
208, 91.62212366580953, 29.030580285533794, 85.67145869587543, 42.242592172441135, -47.96627851836992, 86.20740275742634, 6.940429480564365, 19.492743432418745
209, 160.35247664292345, 29.314210268750756, 29.362725358666584, 106.19935527240581, 23.278202309284126, 59.26080483904663, 17.84206179391276, 66.32483245097453
210, 108.64827016077592, 18.59599926690084, 0.7051109315198822, 17.455757330065143, -18.219735618442243, 86.66389678888123, 22.07873220301044, 55.878763638052824
211, 33.06469943300672, 13.617406646383316, 86.22915920884309, 59.66171797149429, -10.20208923992061, 65.51826707953802, 43.248611713605044, 43.426270767783585
212, 92.14466276906128, 18.6269993902611, 53.53220725907937, 63.40913567017863, -8.076874750054174, 35.86702067091866, 55.21011706738605, 74.30840080120501
213, 155.342630272324, 23.073591143883533, 29.339710356277177, 60.96342756746296, 27.857879248892278, 42.66159323750995, 102.07658936606543, 75.1379200631242
214, 53.60756365036808, 25.664745672830648, 8.975769074957572, 36.50374154195208, 4.324207678975284, 65.37552245385582, 42.452003183002134, 85.35834134577168
215, 56.414652759765424, 29.344257069868533, 11.275570221520416, 58.57259983131759, 45.344195692407375, 1.3795817750059616, 70.70644212807163, 40.80147430207583
216, 32.18495851869574, 22.61840806564711, 70.68091201665811, 60.03535920072028, -65.27319867833202, 60.581812453203625, 20.646568786256562, 6.7775612869937465
217, 111.44336312381728, 23.212104511315342, 11.575596702123143, 39.9354713052796, 41.38670710118012, 13.691468750519894, 62.59920671445351, 12.780257599069087
218, 157.58973482284821, 13.0635545841169, 49.13650893267992, 63.17229721905497, -20.912957036222934, 24.714698600747806, 54.69145903693692, 24.37279188720075
219, 92.90241351225713, 27.747181457252253, 54.70158306188688, 105.10381968255548, -36.85475861542361, 42.750558320311995, 54.223229460437736, 13.884606664904942
220, 33.30073948014967, 17.515283598832095, 0.9716357184204315, 79.18283337685585, -32.701993855193535, 32.4273919880575, 23.212918240811142, 78.03198319976046
221, 179.30948365237953, 21.767217442542133, 51.479006286557805, 10.457357066538233, -6.195479185964587, 70.14643214874782, 51.39795435478315, 70.3538124700477
222, 128.9119712585514, 20.61243522698512, 27.657637011071145, 55.98598041892099, -0.6630221278034867, 18.889086018956572, 89.87573526003595, 30.719865496756928
223, 103.59626383699907, 24.372563614710124, 71.26348745995367, 51.19801827685196, 25.86358558165759, 42.38682653675887, 93.6622723971475, 58.04672704683401
224, 107.38889323839993, 14.976283779576695, 66.19760018867534, -1.6849408503243364, -36.22660042464671, 57.755047187839985, 55.47808582734583, 65.20013212032742
225, 171.01464956224723, 11.968494574207934, 44.714449375146806, 62.42138983688483, -51.03028816186439, 78.14867721183393, 59.41589120309765, 31.95953433815611
226, 54.489644744641495, 17.1241521548202, 8.584338693980593, 24.311824306065084, -79.69009676738658, 61.87014966017842, 72.41668428275986, 16.284764453050265
227, 122.85585987142734, 18.48711500846642, 36.84831670510935, -4.987816857599027, 16.92279551486547, 0.47343484313210327, 99.67848833051634, 13.166236579073134
228, 118.28994422311922, 29.02704472733679, 60.140550804646026, 6.252964310220801, -9.191192429860664, 34.97928806127957, 93.67145179555514, 23.88154682574556
229, 189.8280242941265, 16.840048911908404, 45.21083259645439, 31.608585255182255, 2.1159232633438445, 31.285210003812402, 10.613743452145664, 26.795006601295867
230, 75.38520206197651, 29.88501639312403, 16.38600790400053, 18.17594577916438, -21.780469587609076, 18.640515968618132, 95.60781946659415, 59.23998776390821
231, 177.98175028487472, 26.688761540119856, 8.385463707001392, 50.35485852199508, -15.655914996843594, 77.70675922592703, 69.76848870412476, 55.38154275072342
232, 29.687895679348525, 16.416617315678636, 3.402102668774617, 103.34433913227278, 42.16966637198099, 42.85524132183284, 102.88986877333494, 88.77886912307193
233, 194.56676613744608, 13.628007143353841, 13.314888729833129, 33.862917641421426, 32.74103862365695, 24.757168097807952, 58.537474660768886, 12.04483227013122
234, 83.68584080297954, 23.30872430719296, 28.01123955906412, 84.01363951545682, -41.543849196658286, 87.76081748517946, 35.62890791511427, 39.950499589544975
235, 69.0149325657207, 28.52450297277455, 73.23405311769017, 67.31991275671356, 7.169154189664894, 89.9690042891049, 56.91295588349245, 50.09709873675797
236, 32.591536311285836, 27.507919668310628, 72.19071439512413, 13.510066258221304, -48.32694604231409, 86.06677254747154, 41.41681789230024, 75.96877472235539
237, 32.17402219467087, 16.13312031757721, 43.89112780067915, 3.743617770540581, -60.81532039346918, 55.75504934549803, 79.74774837532534, 53.926144940413415
238, 156.6112026264836, 24.817103874620184, 44.03783997083758, 106.11891813417844, -22.68220672743, 60.118792130211304, 26.90611066896161, 53.55507129270622
239, 84.38999879688306, 26.396722079908926, 77.21131600944948, 96.95454402161748, -31.009129334366595, 65.72774578154116, 20.259073055672214, 82.6957778030177
240, 183.99324913787393, 19.960998753127722, 7.381949658630597, 0.4339552911147919, -27.375910645395756, 9.371891263333577, 103.98749591362106, 47.32514302775856
241, 144.82356948842778, 17.589379341348405, 31.48880511638872, 80.16213305499771, 10.943698410462432, 87.39551532014161, 103.62427773265517, 30.34690360518263
242, 42.34257538679675, 10.941953578634344, 76.87706976152309, 56.240782102212485, -72.13974338851185, 53.37607919071963, 49.9092166114815, 32.27294626372197
243, 75.65538403249212, 26.12593455289114, 39.775046947598454, 20.5969532289241, 12.919483928376055, 50.84415065390292, 56.305168648111064, 58.30103541961527
244, 189.8272205248242, 21.41189429315439, 63.731347111426054, 66.782405448744, -77.36005359242095, 4.597163987882063, 71.62123071483484, 75.56638114146472
245, 60.46314322853239, 15.370941636309388, 84.0182714936203, 36.40684675950297, -9.794627417729188, 63.88384998883702, 101.37922875928612, 84.98321499031957
246, 114.69010270295453, 19.34218340189659, 61.152500608801326, 63.524111026792646, -19.811440549900567, 27.752750113531214, 21.38010575996975, 77.17160494161296
247, 44.92809333721182, 15.136423022181527, 35.22639804072462, 98.95266935959756, -61.85961888776542, 8.436151938888361, 3.493192758529861, 39.88223857665615
248, 154.67341665155695, 18.951670197440706, 41.8602767181985, -10.66659939188189, -20.5497693751836, 62.63632932582885, 103.84628667855746, 28.16169872963238
249, 150.3837190202828, 15.90342100590741, 47.77493870270616, 27.49234205541986, -11.941459336538346, 56.493540401413476, 104.00904285657174, 1.0070824578864512
250, 24.61701843815382, 26.36327874854439, 46.02289465579186, 76.34458724542883, -77.85836735925608, 86.44144958498778, 48.94687220144829, 60.70751846435499
251, 67.7894683921177, 14.98659890465814, 11.3582448862082, 102.53363541277959, -56.394526344433544, 84.6091023994252, 51.55796905855146, 68.4394584485682
252, 46.260674384119376, 16.73579844996954, 13.307581162709454, 106.3468854810133, 13.89278366694839, 83.32003194667996, 92.82312560700012, 33.1350011150115
253, 87.61564298111436, 21.898631384231546, 40.50245506184611, 18.56934241333309, -30.366510060147476, 44.03491037496929, 60.03184237515184, 1.7863543986395947
254, 109.49711031834612, 14.078889167462325, 46.465492920500985, 74.17504037652186, 3.9392085436543742, 83.26410782477456, 103.85820125097509, 78.88684582410828
255, 116.92633931159848, 28.8678249463714, 34.34393419369498, 19.612865015545648, 37.69543793838516, 14.733317778084471, 96.94969353956071, 83.78910074333527
256, 75.94840040946147, 26.679065278016832, 10.739664281071827, 0.5252827738909254, -79.86453499169275, 71.09773094449733, 48.86460009880151, 88.97298850343645
257, 193.32495335398286, 23.44106779340009, 76.74354851025764, -8.926158387095768, -2.708604832976832, 20.3343375736081, 76.11741348191829, 10.99601187867051
258, 88.6286596570278, 28.01419538592156, 83.33653254738428, 75.73618434719225, -44.55785198771391, 49.16460089487247, 85.95662596710682, 28.04946119380347
259, 41.51215678946402, 17.14349673816904, 2.191028289527895, 27.377526500840254, -1.8599293503871053, 49.44714648104797, 79.82661216518365, 2.9559678919270804
260, 128.1446318859548, 11.606043844655014, 38.88813341307801, 19.39208722429207, -10.596691452673667, 14.340809665656028, 79.09994684398298, 9.148610047114843
261, 44.54178070512725, 22.177641202032742, 50.02813340962792, 87.7439797158645, -71.60113033229645, 10.894974594519294, 17.28560470725119, 73.56387102871575
262, 88.78411731110985, 23.635977113464204, 14.138314567491859, -9.298657248924837, -29.954281176593508, 23.62388349416495, 15.527422182116688, 62.39472183958968
263, 52.55401602540591, 16.37824286529571, 50.14506632391866, 45.01787585002852, -58.97166804456161, 45.99096113738047, 33.15837844390171, 52.32812367628628
264, 97.75892835299337, 20.504361534134553, 69.83426157048292, 102.3594089237502, -46.8257797534352, 15.237622774358224, 27.94763843182207, 0.2614641923374794
265, 59.8026528087848, 15.424946209664244, 47.038578424904856, -6.761388401919062, 15.613552750533017, 53.65324929973596, 80.39333611965296, 67.00442514825775
266, 58.82301484905747, 26.046143696129434, 50.780248954480655, 12.310317740163427, 2.2517242919133196, 89.44056045743332, 78.02533843555322, 5.994537499868972
267, 195.90227977885647, 10.035698236153006, 68.31588496604293, 91.06812252970929, -29.33038924679181, 60.230675030263214, 66.34253014997896, 38.47320888044454
268, 121.19300524396759, 10.352286777804657, 42.37759204993344, 52.838118503132506, 11.137749682841331, 57.59096906537286, 6.8580463872284545, 64.69711322381922
269, 113.66891856136671, 11.228091370995896, 76.56885042398113, 69.4118328185396, 0.8200862176467182, 36.399170860612195, 54.578222098552814, 79.9014677218703
270, 196.22284064277179, 10.287628140744058, 22.802669373683813, 43.625267640738606, -23.7798187061278, 85.81794077880895, 32.629584944306536, 83.82559962079522
271, 103.31086886958597, 24.518031288771514, 85.0676726361469, 72.91537943437564, -43.73269978837766, 13.964471846330932, 67.96226682573985, 54.49111431246026
272, 126.32894680464405, 24.668158111919368, 60.0331322102811, 87.57903698632184, -39.44603170427603, 42.57630851678014, 19.604310428617843, 47.96119077321293
273, 53.312708517520676, 13.09792855377719, 73.5710325650905, 59.44185304106976, -6.709884656498716, 44.7943860210393, 58.34597397006872, 75.97544377536246
274, 179.7609320842071, 25.240831786666682, 7.662339652947972, 8.874537029096587, 41.05278098715408, 2.8571359727373813, 56.0844610598731, 68.0041822590032
275, 28.369159959072995, 26.77792154222321, 77.27025433982743, 98.45678383051674, -64.1760163674463, 73.9137228831834, 33.90172830343787, 24.14158487282866
276, 66.86042641966117, 22.342103054088913, 88.91887945863861, 86.96234031898274, 9.434899441890677, 32.848406598085376, 107.25556203726012, 3.580730614153129
277, 88.96866675769651, 28.18588431626306, 20.183198919512172, 41.24652444280217, 10.383862075056568, 70.45989583949604, 3.8006674043436846, 78.36462900456553
278, 153.23474396563202, 18.913993148796386, 55.54357751714757, 14.579049124563161, 10.319816815622545, 49.03519128381842, 36.49686254476211, 25.192620915992542
279, 144.69197140683872, 16.952779796771914, 58.033380200831, 97.43338323570704, -81.05687962518284, 14.468750627772737, 85.42293769199088, 41.67108835276048
280, 61.65900324810748, 18.669117575772773, 38.560256161923995, 67.34159605929779, 4.8043128779168995, 46.26659924851564, 8.651034666370451, 8.522720638105334
281, 98.50837126600797, 14.060218434613827, 1.5147964219260048, 99.05999276290451, -84.54333524754371, 83.32581309328513, 19.19108461741062, 53.91442079737751
282, 117.99018756116142, 17.710475709583505, 8.553442116592734, 56.4223140027987, -39.41624218851056, 76.4273296975741, 84.619447674061, 78.1018302415242
283, 118.99321607006611, 26.836076006074503, 66.52357845811439, 10.585157257792922, -69.51980360047799, 58.03273874372161, 101.3138824248472, 16.840168573221657
284, 171.61929948697343, 25.242193439485504, 32.922760400181176, 26.588725022759235, -5.637377553615522, 19.75631521301065, 2.483945786798917, 36.788880359305594
285, 184.65305646816793, 11.909905568683934, 4.4210786937495925, 57.54230246757267, 28.998645243416433, 11.10083930150687, 103.49756411058796, 6.659726189377731
286, 152.52529978567128, 26.263238325511672, 55.839607104738036, 99.24517372971144, -76.75293484770373, 49.454385096503216, 34.35671113169093, 31.627531345829254
287, 147.4774235451536, 19.614981474312646, 16.33334730861992, 12.296713500121133, 26.243375485149627, 59.02818633166928, 71.02960586924634, 26.551451538458064
288, 63.372972838262754, 28.95187770471845, 27.907069299268834, 54.93123095361909, -42.480361644598844, 44.82605797281474, 105.32417431593312, 32.394846193697305
289, 191.0518170159544, 19.179685601087378, 14.99851936152658, 42.875861614548555, -49.78249252554385, 86.91530299174714, 67.4712918229645, 71.38218890987402
290, 145.66053072093752, 24.736949107830327, 9.552029650999613, 101.43867295031774, 26.374050354768855, 14.272644933889358, 87.49973984963249, 88.09369523915795
291, 196.87074142709716, 22.269737857888448, 21.651248242390018, 35.728532216359596, 27.0384673471317, 14.575629740221974, 98.36162718767653, 24.35468099633453
292, 198.08713766203394, 10.416570197097347, 42.83449026859303, 40.005160786682026, -72.31945470811121, 20.99203163675967, 35.848494974685266, 15.18683992680892
293, 126.44765873745445, 20.380545502635066, 81.7964868537262, 92.32714964465343, -28.65686403263445, 54.7397221144648, 86.21219346779499, 54.89017211953316
294, 46.38189119877167, 16.18161663101788, 24.920869616637262, 39.90541590730686, -37.96851521478263, 42.02209099502594, 75.27917610263503, 55.301230852749924
295, 58.42219685979691, 23.173933033527753, 26.750530586672703, 96.15809367896634, -88.56772234272385, 79.67052072459316, 39.0110050180651, 27.329610011531198
296, 173.09919851054917, 28.77757941823458, 72.67543808355433, 26.872657340414833, -68.67864195289104, 48.943757371253305, 108.4663042612548, 86.8551007540118
297, 101.81442811849351, 12.934691849606255, 9.5239371086208, 0.9479611015804037, -34.960795427656656, 47.32333291864412, 41.29730661274714, 81.37631299588361
298, 17.519012914838086, 19.655609546242374, 56.422064300658974, 8.872196242906066, -87.53111631642074, 55.748935545069216, 16.115296140997565, 26.832156089867965
299, 95.65710514611831, 19.704286549339265, 13.738195541303352, 61.32728278230355, 22.79437459735944, 84.3316949578847, 49.06569300089432, 20.68278640803598
300, 195.70769297159876, 23.545062668083197, 30.05710839593847, -7.729349399109247, -74.47400007762064, 86.05724749101937, 80.06478387728798, 77.81502162832251
301, 51.37247898291135, 12.326280168492437, 13.935709914281905, 76.19413748780467, -69.53944765201753, 35.00150743038334, 9.012235865205868, 84.49647454272386
302, 132.12722582815366, 12.487625465688815, 1.3904726872598372, 24.813587254246414, 26.087312125996817, 81.95434022120625, 95.17284839240166, 40.43379263782011
303, 164.11871832999586, 14.09870725278502, 56.6011441326291, 48.84008266235736, -87.74666298291565, 22.51287216057124, 107.56333979781485, 24.455713371330436
304, 180.6407565044267, 14.6508352309295, 14.557566215518342, 80.53724820194613, -21.571130799730966, 49.110715200556875, 99.6525944230633, 60.89555082016223
305, 60.62879788253902, 16.43263046123293, 88.13256211420443, 31.24467361689739, 7.289242273317711, 57.86683033771173, 28.224806761456637, 37.59690864171879
306, 12.298806432953047, 17.784663127535605, 36.69079108103409, 12.2745110789987, 0.3747554834541944, 50.99430333847557, 78.06066376748174, 36.05723401310555
307, 76.28867965830847, 24.923726782638283, 59.86772452586491, 30.53515582649967, -79.83524379177773, 72.11048008610277, 16.25774383454228, 50.078611644601345
308, 18.927700592021854, 16.1326316696344, 3.5881561725575803, -2.1887300597438286, 46.5006997812543, 55.93554510609132, 65.07731344901289, 84.25119028038883
309, 18.818012041787505, 12.816282040476285, 29.01072167448953, 87.44175536192883, -11.786602481079811, 24.655604779300077, 36.27647524253677, 17.401228327061286
310, 18.93859438915672, 22.28665337365786, 67.24983113949398, 11.97808898818253, 46.3006644106304, 79.81053619679788, 102.17777658504109, 73.91883145388395
311, 91.18494093769878, 11.073767932333588, 7.500497357888385, 20.589316463803588, -27.18845384747345, 12.225471553081714, 44.94561910738627, 0.8394483657800644
312, 137.06125081456744, 10.969634038525498, 84.95217896526333, 74.71791398175235, -74.30138258379458, 44.494242919466565, 25.818169117881926, 33.26286035740115
313, 178.8965284453526, 18.050081567185114, 85.47704925157616, 10.558015353556357, -63.10582607317917, 71.7094832966506, 29.969128451388062, 86.21642026708726
314, 179.7050221699569, 29.378412953234417, 6.176360235346686, 42.303978764727105, 34.16225626561997, 36.0095305254766, 8.752079905245617, 66.9835267154127
315, 198.74909400839468, 11.611922435296488, 15.852632956048108, 73.20496719161213, -77.05713222734951, 7.846415015067426, 90.87267830554876, 30.68936185419979
316, 138.39763312412816, 12.971995950499553, 49.45089682832742, 7.993059789906625, -47.888741938372874, 11.191939882407755, 18.482672723165035, 59.18154037294592
317, 91.6717367757853, 17.457341593375222, 3.109636344592953, 92.7650534463855, -56.06833927515017, 82.00953177744968, 75.15193555111033, 14.600453135575107
318, 154.34651360821337, 24.146912644955624, 73.64926434977609, 0.950084695931629, -12.579027596838486, 82.93633378843832, 9.364369617929126, 27.119563575098688
319, 184.88269692767653, 10.442520343311044, 9.692338922563788, 40.667579958093896, -37.05705460678521, 2.3152140748013745, 15.189155976460244, 46.817610478003125
320, 67.26637781641261, 27.758599679745707, 72.4625297387359, 90.93970012573011, -80.98359109854337, 80.40229196018905, 1.1654320129077667, 56.11261738717227
321, 88.7323764529889, 10.200268932111594, 55.577846614584445, 5.71530041946498, 26.645104978499276, 31.068363706536303, 73.78384426148475, 8.674975737377336
322, 198.09573219610442, 29.88048714593223, 22.409201268874014, 21.26661574031798, 8.590447183292198, 47.3084683095257, 5.176598382088534, 34.646744506786824
323, 44.379997614620194, 27.987600773388817, 78.02109760126545, 67.07892366570407, 5.49723029872132, 35.99320279598306, 49.134427592662824, 1.4153596820783887
324, 12.157616642172929, 20.484331533769904, 68.36626836648988, 65.36785101107023, -2.061094021356027, 66.927188326202, 48.880061427029, 7.16620397682864
325, 21.458388425447495, 22.382317541119832, 72.52930118033684, 90.53284621037659, 0.5067584090057267, 36.487464018200775, 89.30930525872228, 79.50121287410018
326, 106.69689966814049, 12.235856427688132, 26.354863497621494, 33.000319371623654, -45.833113679478146, 33.231877702660846, 96.0164470654245, 8.357176344826224
327, 44.23481584591263, 10.42961957792963, 43.63257466533945, 37.43442553519195, 29.842689599703743, 71.43218748741621, 70.4652882082446, 48.039854811900625
328, 85.4539604072974, 28.60900621204292, 48.648352318682306, 100.26353547455685, -85.78725120344176, 52.47262461854096, 55.95806961522074, 0.9618304353128058
329, 137.16598121679112, 13.519065651890195, 48.77420341400549, 88.97570825847463, -52.30883375051915, 36.87575076667105, 58.9446100495137, 64.14939386868484
330, 118.47489365147243, 17.836705770881487, 49.038860610491774, 1.5512237817690655, -36.21137326872527, 1.8645975470633114, 38.331018542961, 37.35894257935754
331, 137.14265736860585, 12.85580928702101, 26.991938333617956, 31.848705688034944, 21.2055081925706, 44.92419091844477, 40.13928214117475, 32.52487048418988
332, 38.46045351787331, 17.99257393300687, 74.50869309841711, 1.9340202931494392, 32.32556350948791, 65.06466250253669, 79.10526561711434, 15.982268772665138
333, 62.85510637251829, 24.98992818727298, 57.24920046719873, 34.21367522716118, 48.09195018209263, 80.83465630185194, 44.22585260254669, 57.70047513222743
334, 32.559638742506415, 10.818039471663862, 84.91494856384061, 22.31301224631271, -17.480377476069233, 18.92092501895416, 32.048163502655946, 57.429472837868694
335, 193.8265068835437, 25.615711922689442, 49.83451230722606, 49.00532722366332, 26.389056882006457, 47.06785991430088, 44.76769659297466, 36.66902726942452
336, 156.7542508280462, 12.800507504852572, 3.7491335319966805, 31.283996348037203, 2.8916506828586677, 23.57780874465372, 0.5011493756465445, 88.38595938057301
337, 137.25289039994914, 16.64915239005865, 45.17285276505924, 14.598170121748005, -1.888829849441791, 22.975943089258248, 58.08510356435338, 7.858340392057871
338, 191.67849775121883, 18.518486218697866, 67.25655339661952, 77.38332942836163, -65.33320078438642, 70.9059558932564, 7.462873780909091, 65.78406007121315
339, 67.61293287608086, 18.2694356166029, 9.509155611644754, 75.76410349738671, 47.77252436250242, 22.375709659877824, 1.6236492640462719, 29.949958303274663
340, 175.75393534753192, 17.821883858278007, 8.516606098088182, 106.03183392855107, 34.96105061562821, 79.87586675822841, 83.90171673922582, 12.299905154264886
341, 126.0832738471778, 16.1015433016537, 42.11742232885117, 41.742684431132865, -1.0093484943119648, 8.410728841987632, 103.03415319512497, 68.0476672794286
342, 26.341785333961646, 22.115024362400494, 64.86407284710428, 80.0702497916792, -37.235614837923265, 85.26499969754515, 10.663907980089856, 66.5525266641761
343, 144.26435939481993, 22.9257142998141, 45.481495844190164, 22.410749921281493, 44.79226313384075, 56.02542922150845, 75.70150265507813, 56.51983427906247
344, 166.56966720515126, 17.630191762685023, 2.9649397016410637, 8.324913271356671, 1.2082150108852119, 49.60833129558698, 108.4499831795018, 62.00558521331374
345, 82.03492015340348, 19.83287894163274, 71.79357073285875, 5.6428546157524515, -12.64611751182845, 33.98882166417962, 18.674241558889317, 35.29575258670912
346, 52.5736675628893, 20.982781720618537, 36.49633696937806, 51.82566444263087, 7.429113269503871, 52.42855368600945, 75.91188438618019, 54.355911190171604
347, 198.4909370348643, 28.943648162715615, 86.6130515707168, 24.219925144644705, -78.88539341603669, 22.078291210043112, 65.13096731472773, 45.213752652364
348, 79.0893658143816, 20.016467742820666, 50.230857060037366, 12.607539903711412, -6.706361793329904, 72.79360501709172, 53.74393418928253, 62.219257692334324
349, 143.43614367698564, 27.091988575464253, 5.969756368160649, -5.299498254102342, -2.501907174038081, 13.574113913120703, 12.868851157396165, 49.81496033767396
350, 187.877022757764, 23.23109305708448, 40.73388792917133, 36.35474979340312, -41.098245479203584, 31.771703356550105, 50.914024719040775, 55.146933426085226
351, 142.08554166824194, 14.644768385878644, 43.58919044315321, 28.04083401262264, -73.82217643763484, 53.32588043534132, 67.13182108337021, 31.55768364860313
352, 37.91380937432384, 19.277142165562513, 15.434484700673478, 109.60655062462997, -19.89649882191972, 69.40540249704657, 50.523011255830674, 44.037960155859786
353, 130.86464546151598, 27.205644925930926, 36.51203303962058, 44.238824718473786, -53.53465987841698, 66.56577935929465, 109.10934843107512, 46.817308237139265
354, 120.12003219312379, 28.326724209203064, 76.98706640120133, 91.02208362154383, -7.615150816807471, 5.403900883136805, 49.57062784794613, 26.597720601470805
355, 198.73666076505953, 20.005775024801135, 8.924527111713518, 53.23532123283424, -17.386240185060558, 58.163553995089735, 63.75687938434351, 47.76860506835821
356, 25.54288083260168, 28.27000306960491, 22.40441952366306, 1.2566377540425842, 30.78660756997313, 56.87673126744162, 24.602845865676215, 56.947299224774056
357, 156.34779638316337, 28.180737852633364, 4.641246443028163, 89.20093042137118, -75.74915042002146, 21.763712988593653, 88.66259244215884, 35.956381423440774
358, 65.29987192028918, 20.09586855946329, 56.299868615676964, 109.03368431815683, -77.78206819460749, 84.2301800390585, 14.606688467777769, 54.68823957769992
359, 159.27891638224415, 16.030346834933695, 70.0703929724678, 104.17105420016038, 36.316984123221665, 74.23230599738925, 66.1619323177489, 80.16583470155145
360, 65.97344201480189, 17.88634179453531, 10.48751371822038, 80.00071775223914, 28.639539286770173, 53.19129152059032, 83.3281090704565, 10.814146908542442
361, 122.67302780991814, 27.89157705105863, 50.97648899679852, 72.05410700498489, -13.987054266944526, 2.7056237206045792, 68.62495665945858, 50.82237296810042
362, 126.85825625460606, 12.486517961702397, 12.590796405595956, 103.46292063419918, -60.97527453062077, 46.114291859274445, 27.752769065490742, 84.87277974313999
363, 128.25713783988024, 29.700142873531952, 64.42872990839973, 11.136653257737184, 15.141268172963663, 32.47499781398211, 103.01590771205433, 86.81011603109424
364, 190.23631063471942, 26.037938653837912, 84.15596970715389, 103.97047874170043, -0.9360253007142346, 89.00216346650717, 101.73899313087743, 22.58857958881458
365, 169.2062786397378, 15.654174887384082, 62.99236969957947, 44.3928829637126, 3.5841428685355226, 11.35244189680203, 10.4748272648943, 86.70033442247886
366, 56.017954634651346, 25.38067588138344, 64.63236278123048, 60.85109380303654, 36.041867980657905, 34.80833828080015, 37.902947613091506, 29.588081636832168
367, 162.71889799323725, 21.43724797388797, 68.27616162803595, 107.94864753983477, 41.58188403602662, 39.450968069238264, 84.2436260651832, 49.53404983144749
368, 53.36943308361818, 21.318304313989707, 29.249184785742607, 50.50797555392364, 32.752015825317265, 71.14493212053522, 68.44185331302559, 23.983221314163224
369, 53.40654880239091, 14.027875780919178, 8.997197336271112, -4.811193260939104, -11.724781458845214, 22.114565630102813, 88.23120090966069, 50.7286840855405
370, 162.50400611683642, 18.3511886637071, 11.964059926884445, 75.52825355298376, 6.693121481012227, 42.67304427891252, 90.1401513570071, 65.83619161969321
371, 155.0726714084016, 22.972878792448796, 55.07361236924384, 85.08618228196953, 36.05040060485571, 1.1391973199344696, 17.239372525208953, 72.63491993280152
372, 177.18911715352777, 18.168231131520617, 0.603491308947649, 51.706158665625594, -29.23345897228544, 31.532696878869693, 77.06957280751213, 55.17769852191325
373, 34.92531790296143, 21.14161498055327, 62.734470171936444, 97.58811805734027, -7.481880907379008, 43.48089579157531, 30.018244827715726, 29.249248054146094
374, 51.93498313054044, 25.540078070943235, 19.498780842180903, 38.794757031329574, -13.501118410422421, 83.86118922680015, 63.865013504779434, 11.683238790694567
375, 13.961848150047395, 28.551010011342154, 79.5906813240444, 46.672128409381955, -20.341568116645675, 89.85304906410845, 101.8037643473467, 21.39863383748485
376, 131.51719868002328, 18.346297036825874, 50.38019104041843, 41.441804077921134, -53.71237058079324, 82.47839737017358, 16.306178789012996, 19.325192922781564
377, 183.87009466494897, 15.755104139947791, 62.29498658997941, 44.136466687385976, -3.279884442232955, 18.263054222694365, 105.50215085780917, 28.09210673553951
378, 189.53470715802817, 22.18193098411044, 32.38576961792535, 82.90610815336805, 4.389977529606227, 39.73083365512475, 109.00372881627354, 71.26781392966754
379, 154.17988884375123, 12.13102714764796, 86.52001642813262, 88.36698541926002, -29.904202836808146, 75.472071185522, 71.79528534322434, 15.117035894166014
380, 20.772023674752045, 27.97909116903847, 8.230153201934948, 109.77767848701647, 16.19466907914912, 23.23701816686117, 46.306730458546795, 68.51236046439375
381, 22.605506522610007, 28.671897176251942, 43.16550191016746, 13.979172143709421, 35.487227167232646, 9.550822735133874, 44.89618371162804, 65.54819399146106
382, 112.82788202831449, 18.619103052253383, 46.84592536024819, 96.13873370151833, -83.0394104902621, 58.84806177221674, 74.96465420754883, 69.9366550860379
383, 24.70373806351803, 14.70817832936971, 87.22154479714963, 104.69980966155795, 45.022152290844666, 74.31897598869175, 64.62360942786333, 19.924670687237338
384, 68.82211996091465, 22.041890573185256, 7.580547178502325, 70.9893258378913, 1.0796764877612617, 53.46518773418372, 22.781678866639194, 42.55351202320188
385, 79.74897144628422, 18.673620628076513, 20.931142053612884, 96.67995052402883, -25.62410276592618, 64.23914620455565, 76.87371278844219, 89.25866753225665
386, 80.17696105102802, 17.28352040522409, 76.24164724276201, 20.460773549556052, -10.19799469843663, 41.21027677852208, 68.3677993497448, 46.521926554591694
387, 32.443644890313095, 10.001003620082095, 83.69005733430893, 6.775967740892572, -63.21795753750902, 50.58994738086757, 94.55035788848173, 23.93385041309594
388, 68.55065496862312, 17.80659014780063, 68.00947210078391, 69.15533021599624, 12.775506254920572, 44.86152044042846, 31.80176780592723, 51.64615289990027
389, 163.7076326332887, 10.605702662438345, 55.56443263421647, 4.397451327086216, -68.87772452659026, 20.675875344037344, 45.96038510539549, 71.65718141022494
390, 63.344835175044686, 10.135800034941905, 80.15848816418071, 15.6143452975548, 22.958872089406, 87.289951042016, 36.85066631134862, 63.77900289982553
391, 167.1967020167729, 20.575409150567758, 61.42879264176554, 2.393602203650433, 24.7259859175184, 10.425683036139539, 2.796475909353768, 81.19589287741924
392, 23.71255092930819, 23.497698493039714, 6.14132903596108, 100.00337319446344, -20.746358621203754, 20.618761128429224, 6.700927750304362, 13.965872518240857
393, 99.95565991919158, 27.72599728021936, 29.34082903378119, 98.031021827966, -88.5935841161258, 33.03807685030024, 106.86208844846962, 74.09482208331099
394, 61.33225198620424, 26.48581393954162, 73.32528330900728, 59.57880809164915, 27.708922288247592, 83.0119870290092, 21.74619773385239, 70.14116647166318
395, 169.51782792701573, 10.537195308099601, 79.61557924704219, 107.0467466729006, -47.82190588107368, 44.50690197265843, 37.286205852286784, 74.10465541587276
396, 171.55687849598232, 27.510596868147882, 38.40400957926091, 60.414469592172935, -62.654330897412066, 26.14777556932913, 59.75472948772384, 13.194233322673158
397, 142.97793452367753, 12.905868101502517, 50.815382707801454, 30.48085069142021, -10.574662307555926, 68.24311906242231, 13.466400790303817, 87.48205603572131
398, 61.16092836507188, 10.49157606464181, 28.08461839283528, 64.18593393596744, -59.34303856964442, 23.401052806758432, 64.8451443809104, 38.74417506208759
399, 109.53763301387096, 23.730392709781455, 84.10082626720245, 76.10765179317465, 44.98143756804771, 79.15291136926324, 59.30084486127114, 75.97005971478562
400, 79.80220251782174, 26.320673542413978, 48.37140817202482, 31.062135907277963, 0.7569174623431252, 24.90451944097976, 36.27557275029905, 4.30267532314645
401, 25.652781311886557, 19.27904184052411, 88.97622890697004, -0.16530944118222557, -70.22522172485121, 35.24040226677186, 100.3331808019917, 23.74546777899722
402, 75.7233698561234, 15.0559180053021, 83.80737484200347, 106.49523412958852, -28.766818209972904, 22.150035509414035, 31.62768205033322, 61.547123991724575
403, 80.12411679854172, 22.196847237794785, 55.10584766910781, 43.062711096319646, 0.3555616388622411, 25.128676486669892, 61.9516102585814, 70.79304704598972
404, 51.60233255204422, 23.508356974565917, 74.57878317402181, 70.66913936690736, 5.7787264956842535, 81.96599270766418, 4.716663028209959, 19.970532208580337
405, 182.43944091358534, 18.09576866878887, 58.52064408673359, 17.54573517118568, 17.57540212922834, 88.65496089472578, 54.74146638540767, 67.75480849834358
406, 133.52727811937058, 13.45712355390146, 46.410014956294866, 2.2179593307123855, -87.48180720386942, 79.83599737876348, 87.84404334435222, 60.48557285768971
407, 17.679300091860714, 27.44204402705611, 72.89946028182908, 58.61940951117823, -83.48535922515435, 88.2378963070395, 8.48166472396352, 79.97565875842207
408, 102.50414079598809, 18.753234805957828, 57.32142486757306, 10.389197218765927, -76.82781200090417, 11.632668907004462, 25.310570247508576, 75.7674447672221
409, 162.30593500923055, 12.440668653314344, 38.168696022643914, 38.363009400375006, -43.36813392235827, 49.68988987239507, 18.37824541796789, 57.46061281249363
410, 173.00576313559483, 26.760532253656, 71.40367045298979, 16.28589592578125, -18.55417958865685, 87.00986329171793, 45.45242564075468, 42.166650807931134
411, 17.15619719162571, 27.482795494599113, 68.62984559716219, 94.65155810478035, -53.447058015137124, 75.90378013369022, 35.936555578747175, 51.50927724041495
412, 185.1886837185364, 17.67857430742152, 15.258709809973706, 49.24966753031478, -86.71868165176186, 37.62252013075344, 23.116705134471996, 14.71509644374425
413, 68.45039061797888, 24.30981819884515, 47.204425342979555, 87.38350073041751, -87.59169384186985, 75.93023722213118, 66.7427088996462, 51.248308482004695
414, 104.38705623354718, 28.525892513767655, 46.91889154319386, 2.763445970343396, 21.838832509436273, 47.29581614601586, 74.13572348713522, 84.1542429425516
415, 104.21030446074694, 16.952786418316226, 5.010638179180448, 20.24535903000083, 7.912637337529219, 49.9144273708439, 65.1489465330053, 39.264828141414206
416, 124.4363557422768, 29.158163169040353, 56.7742698778504, 94.42404664494022, -33.607775610976496, 18.081050907296664, 26.064617053383163, 24.35525112598422
417, 24.004882142097365, 15.565428006263888, 77.71061137349132, 48.45489390665209, -70.48835473706454, 64.44584359104773, 109.78367439308238, 69.02914355568997
418, 35.92336499567068, 26.6719300629345, 54.94988352345468, -6.545626384031347, -84.032216127877, 23.367399882905215, 36.260982222765215, 51.071689961759056
419, 97.39125234486167, 10.649067074245801, 74.56535138016599, 10.27676408094434, -4.353189045407034, 73.76736806317678, 78.78246887336822, 31.256856359515787
420, 84.99847948969774, 17.68737399936546, 82.61841288545244, -6.399542436118023, -71.86576970649165, 10.924397907246405, 65.56347501358067, 30.627829811646567
421, 152.96836833128492, 28.050289298138875, 30.045827878514462, 30.99660207042252, -29.70926979805084, 62.74896559559942, 30.328634812993332, 65.69291913666642
422, 112.55257443275332, 10.756972194134205, 53.47972068892766, 87.08910833333402, 28.806820087828015, 63.88719965995554, 47.163769297367466, 52.38244012755193
423, 195.83253447069364, 11.166533001244579, 64.25022335498288, 56.185744586582956, 7.779328427969787, 64.92728662043173, 91.20900687536007, 87.05528586580664
424, 108.80660292042772, 14.621559411650582, 10.29203620248618, 51.73460400218531, -55.02290815009675, 79.0362676099784, 36.222275076840866, 77.60605122349887
425, 33.67210557543976, 24.405139992215144, 57.67866551072419, 59.89213386683629, -7.840438508434204, 66.05672276602716, 88.45730089257465, 83.34548830066443
426, 23.95261203723131, 13.608861558527696, 80.01273931059264, 79.84290264943661, -89.68444241282697, 45.93950685120102, 90.09925792316952, 13.144302908679887
427, 164.89951048429648, 20.548746108853614, 67.17741337316352, 64.73253544022768, -1.9987796706102332, 80.39755866208259, 68.69393229820632, 39.1633496320377
428, 189.97252597389775, 24.456337226110023, 80.4426036970279, 85.03856918106139, 43.00781854354212, 23.483478039678477, 48.523319575504146, 80.27060138893229
429, 184.63989630931434, 25.986360821901, 89.47059000374043, 105.64215119279221, -32.30388143662274, 12.443899822046216, 66.22398341895152, 39.079097666342065
430, 152.63497526741068, 21.14335079887729, 28.552925099929652, 44.41033203816724, -64.61540446028327, 48.2942265232756, 8.750934540941076, 38.08426122169685
431, 23.366518448460653, 11.87297966531242, 87.88824620365658, 25.680634414440235, -80.57929923215714, 48.87939784133394, 73.11322273049822, 36.624980266904245
432, 67.9652996975122, 10.636983793311126, 11.179507932171656, 45.05400150332774, -21.311889719758327, 23.88807557135367, 67.87593032643568, 24.336196133267713
433, 149.6996898277433, 23.395285772432512, 74.87011867346789, 51.845408181885, -66.48755865725447, 72.59087008749876, 57.51319994573042, 65.61636586245507
434, 199.17142433090459, 15.333040254161226, 89.07323780821731, 90.6885228207287, 22.813207842455512, 55.65428688878237, 104.3967272942164, 34.43078225975811
435, 77.95848482195271, 18.271973786085237, 21.896187301845725, 51.586886893946925, 43.79003386567442, 37.27777226026277, 54.08718549689068, 49.24525263347966
436, 183.67600725365924, 19.943143084128447, 85.55605466436174, 76.45698824346562, 25.578550198131154, 41.79799987764669, 8.45791595883156, 64.67921144090064
437, 187.52898212874499, 13.414828352120892, 39.11401797351087, 57.03564009494323, -36.6268075969916, 26.3326128759902, 28.24008003533249, 39.71741931398908
438, 102.90883462115994, 10.571550749499817, 10.486425250984007, 81.30878091511183, 2.956047265841207, 10.004566489070344, 75.28683058184637, 52.46679728298281
439, 15.696033106764347, 18.072955738126698, 77.56225258336568, 18.15802608912908, -85.21224241094662, 39.82564636995613, 82.81010645286992, 70.42842282636325
440, 197.5238712770769, 23.024583561816073, 6.981549010069726, 49.736699896599035, -82.55085313228031, 56.78026998366754, 34.7466133767816, 86.46745439138756
441, 100.87954165114094, 12.589694446320628, 72.03096575578147, 26.747970307507686, -59.54047859083637, 43.378814016747654, 66.30448750525527, 28.805461113461018
442, 121.86473290745907, 26.480967607362572, 4.32913189878124, 53.34024123234572, -3.352716880484863, 41.20830180438819, 74.48371328025989, 16.20810496829981
443, 137.46434816852374, 12.906981128480489, 7.873738648247457, 96.66026051282438, -69.43045799461133, 61.21513741201951, 18.260675678982018, 18.242017585453937
444, 144.4160174395263, 23.517830916536724, 29.601184501046248, 14.41700280980317, 38.09396850110004, 84.46936328853555, 63.38431325111233, 43.2226853132555
445, 88.04730590342169, 27.936592102156684, 3.573483361679438, 45.33308663537536, 7.219348113203396, 76.9746385537573, 20.423696922690734, 88.043974826217
446, 170.05557405607473, 24.539621929235754, 62.45652763347325, 69.36219637845836, -64.79945512855141, 89.75312680381717, 76.04883337610164, 37.66722931843085
447, 159.9458978320244, 25.838731687654537, 2.423312239507376, 83.86748321435078, -73.95320068651438, 10.293719328594175, 7.013381650948053, 10.812716077706382
448, 54.124003956327755, 13.362851306354974, 36.813735088371146, 105.2566571154663, 27.72245082693898, 52.82466153297459, 64.42265262725161, 60.75371870513109
449, 89.79523064383146, 13.340033013886764, 14.726352813705642, 72.66359214322425, -13.835439472898969, 2.000225234126942, 97.13251811421507, 46.37901662812521
450, 110.23713019300412, 28.139032353928403, 21.433526792080013, 85.48405609777632, -47.68712490356103, 9.987147963816069, 39.677185964625096, 38.791256473422116
451, 161.5216680655194, 10.750002396590268, 64.24648158098556, 5.768048431567229, 37.82264289328404, 36.89291699819171, 43.149813339913884, 22.59060347370457
452, 54.74991315842605, 20.430270844686895, 13.912837659224897, 19.022907097673958, -37.37692244271266, 81.90192163833038, 16.991754243452437, 86.74389708923718
453, 161.92364035205466, 10.457503118654596, 15.20252249785814, 80.18309443547726, -24.300296047831807, 27.701215603290446, 55.03111972439027, 58.60411271711414
454, 12.686353864259544, 10.63237248908962, 70.75068051373702, -6.693692640966103, 8.518550691061876, 44.376503873083855, 107.95480696999321, 39.25923341632917
455, 146.54359938445214, 27.5260772491825, 34.06439109183547, 104.97700745001316, -48.08739659951298, 16.908830530796433, 87.7810401306798, 69.11964183836712
456, 139.86442524472494, 24.97438542390634, 80.21096155053588, 61.681318609211274, -88.56281967189696, 81.79186749148582, 18.47557306298359, 87.49225226015403
457, 44.24735624550809, 11.280576410249184, 73.18265508518382, 47.67854767575451, 33.64112061635403, 52.678166492869195, 4.848066562513695, 47.23703464740756
458, 46.83361709842301, 16.486163554666728, 34.93461446836227, 55.51311178515553, -56.15134229223858, 34.82765160846136, 21.406327681778833, 89.5008090745048
459, 34.76490380262296, 20.334112702185138, 75.44937048341002, -5.515403641953305, -54.942345155238385, 73.69524802139188, 106.54170616606855, 78.01187277271774
460, 118.28807233583352, 24.657115004291263, 44.364914159264956, -10.068475419206163, -47.757354546211694, 33.8682521588477, 104.83992591730447, 25.363665727325618
461, 175.23292563996475, 27.229156934979784, 35.21463776390515, 44.49302113865461, 10.659172670234964, 19.136406396978376, 77.77411884057257, 7.8664283485983155
462, 47.71444407553431, 25.71933510238267, 23.791842876885543, 12.152195963791662, 19.217505955785217, 77.23924984089267, 88.79972036544737, 41.679281274775796
463, 179.9844793232175, 24.78889041246686, 70.47288090625965, 39.7887729697983, -37.500075485959094, 15.079908926603627, 77.80118117938072, 32.83413104546034
464, 90.84097794241305, 27.32830810957897, 51.32499327413645, 33.35029466036606, 25.5693795943873, 82.05498864670275, 25.797398168931448, 87.2241974526452
465, 78.41772410858063, 13.431543504659022, 57.114432720854644, 63.16849654800189, -19.890538235471013, 71.16984290383971, 48.82903405076709, 23.551225246230334
466, 103.30916074548402, 24.490965334291623, 21.201811301802223, 104.89971013886006, -28.09856003421342, 74.58468372621837, 9.23588658094286, 65.49257572033852
467, 177.8226973623765, 18.920773344487152, 48.59792732393983, 76.99394666860923, 34.338774882030556, 33.71890064903111, 100.31319485096647, 47.76975722538134
468, 176.59866874917662, 25.824247234897825, 8.812756154804019, 62.14948765036645, -67.78262059448826, 19.63324511501209, 18.162130546617185, 5.0582507729407755
469, 116.96377021565718, 27.388286938193055, 10.339119518084704, 61.12333636045703, -83.72302990201271, 58.84865899203706, 29.158627489728705, 56.82846412599063
470, 146.03334689013468, 26.132615339520513, 25.784235030852223, 6.030015298417356, -82.52046231486464, 84.16384434240429, 46.921278725565394, 14.97094497342499
471, 18.15602933806452, 10.045570696402235, 85.14707788689147, 28.389458748258292, 36.247741836060484, 14.172645285904968, 44.490552501778915, 33.865153621548174
472, 173.23223578298573, 23.419089126367215, 53.14658332325668, 97.69896740606126, -16.522243807385617, 43.8807955743776, 90.77539821111034, 88.01691132307414
473, 101.97163293249625, 27.463334732880718, 19.6669517692397, 39.60128478915834, -56.00634283441479, 10.044947697418094, 35.273327449431804, 9.436933221964322
474, 121.92780695287733, 25.57936995160286, 9.971243147092073, 9.8108342822213, -71.79784387125576, 24.25130274112614, 1.5833521622706535, 54.689314528791556
475, 147.88056783144145, 28.68201282099883, 6.0883237753232375, 98.63481771817463, -35.776552356524775, 65.46558367548644, 45.35331881661637, 66.42393300089505
476, 138.7860421965633, 18.85168532249111, 24.784745207428028, 35.33458624640647, -84.39963180763743, 48.059082711329495, 94.89269235737227, 6.651933038224469
477, 136.98287599588076, 19.86389870079739, 27.41937115207893, 42.36946049738796, 22.238216128893114, 69.32997803586419, 85.62009276158405, 35.807597844300844
478, 30.703143311455115, 16.55768612117069, 8.32677072667477, 12.007899612380449, -83.71206206189119, 63.23055435934464, 43.881021163930065, 10.117019646608382
479, 102.75324199894108, 29.955649255545456, 12.434899532893116, 26.686083281010532, -75.23495618905835, 80.89418069799562, 29.12731665416992, 64.94619781396572
480, 192.2372232107149, 12.749322604819422, 33.627989217793804, 42.41949214533664, 18.42310685937069, 47.72540403079509, 76.12891165650237, 42.23304010607921
481, 177.82215999596764, 23.043098408061855, 39.15107595637432, 75.29613539143267, 38.66470210199091, 65.63920521539215, 0.4099882081725592, 55.33884142176223
482, 114.81864873636114, 21.868114987815385, 7.90314338291126, 77.90500082245923, -58.132518982100095, 5.780894771972961, 58.23928767237967, 6.649789519562182
483, 15.214667945618574, 25.393986669172683, 55.08805333024322, 79.16768440779214, 9.573031563865383, 39.642503627610836, 87.75280794293063, 38.46738926036403
484, 32.867889922420716, 12.931274274099376, 89.53823277876232, 31.43638665049111, -42.039615591220866, 11.719338996725526, 51.770451781929594, 4.053140828469249
485, 25.844221387256383, 23.638728131100116, 17.1158749291212, 47.69414857039219, 5.903279504794185, 40.18067349939362, 96.23770383883722, 61.84079341610065
486, 64.22361252130625, 26.196219046407116, 58.902626605251996, 103.77530544635023, 29.023828567054117, 9.74409122783658, 99.59536375523086, 32.92512413384989
487, 143.50881206019457, 13.316030835406439, 61.70792886078436, 55.91969682626406, 33.43984948803971, 72.97952117716464, 99.84190955205239, 89.93137605900246
488, 57.30752320861671, 17.114633570955277, 46.10186352540085, 73.90141144732657, -8.332792589664194, 13.738620784579703, 69.32974005085991, 10.118907679603977
489, 150.34055114706896, 11.514900922244799, 78.99514057000938, 45.452434330812984, -13.03234449434062, 42.949006199155114, 91.6995211990257, 56.00744205741207
490, 60.256512904356, 13.789673597705757, 22.655629376157766, 2.0374364933218185, -30.27080267427756, 79.28153960697924, 11.594371375984947, 70.86789522465675
491, 139.09140470225668, 22.401939274929674, 49.810299067121754, 29.470348711059913, -17.889518114446147, 41.9110267947961, 26.89373800213854, 44.41657100146431
492, 141.99405620098548, 16.684162625499457, 36.78198255939383, 58.4584673116488, 0.6452503499733524, 42.792451485495405, 4.898276451245456, 44.813675280734536
493, 178.19362348479197, 20.39495686527374, 32.325777477693585, 89.61933996919488, 32.212483783095294, 64.82892440900972, 101.18320528853887, 71.17175264607609
494, 124.03919651954885, 12.455419983431522, 18.198948660084643, 88.79561697321435, -66.39825384132317, 71.06632607057611, 63.83485269477346, 57.08923764382759
495, 150.94320071185604, 21.881931267490682, 38.878449708282794, 21.91390437096991, 23.682441834767886, 51.573578408555704, 93.39481352904511, 42.39339797051155
496, 147.4317077201385, 16.53204323875539, 45.10054986179368, 60.480995146384096, 16.91529385486515, 63.078495880792296, 15.723903179790792, 1.2261948162918768
497, 90.67114264500681, 14.57284736910716, 21.323696985678446, -9.139211657966573, -21.609548843540438, 52.097268969536884, 4.939782216910587, 29.190749158005712
498, 29.458912261782917, 20.282955812378376, 11.452855904371162, 37.87307937388703, 0.4108657037771337, 89.66638698514132, 108.14055211363767, 44.0152601322779
499, 138.27492167180438, 28.896388804989538, 49.1949533113499, 100.22218073984115, 27.04465953851256, 6.684421443044028, 109.7584142053234, 56.142457563610904
500, 40.640493121678226, 27.45435806484621, 13.883108125142304, 43.40904940601469, -2.788714937270541, 69.5564355077491, 69.36329280357513, 30.806131155574793
501, 83.69754543612355, 29.464297538641897, 50.49965746190898, 5.4753458722555735, 33.43701862939651, 42.81522903768642, 81.83152375952662, 4.3368488000923815
502, 19.519563808389172, 18.004322200047827, 87.86652801023702, 16.53393105956098, -84.0307210646414, 16.721899182117024, 45.65045525145089, 23.136726212155622
503, 82.8846049307634, 18.679720343264027, 39.29469613360339, 32.08160482639841, -59.06714409192324, 43.08478015733811, 49.00803877508048, 82.6111554187508
504, 162.16285600294373, 21.898457786629077, 15.734848021304144, 21.443559710066737, 40.509233949269884, 1.3764312385760102, 100.84626161993512, 61.506032663014715
505, 27.77081122664275, 17.9428323136869, 46.70812601801755, 71.18270364561857, -89.78056508209332, 75.43020860191858, 75.05967036433621, 70.11923078770981
506, 32.7489383381777, 29.49855058762012, 76.01416649906136, 55.377693258391034, -12.134935436475075, 41.407316453175326, 9.305845461715771, 4.533060575288966
507, 165.52283363706547, 29.40565435591472, 44.86284024747292, 11.083676429028792, 9.0330717551753, 10.725485196377594, 88.12320193285981, 4.692453028941344
508, 81.20089466967234, 14.717917399080578, 86.30944495723206, 92.15740132035535, 4.937034481815985, 34.25225240226484, 63.537571805023916, 43.792742257098254
509, 102.29607888013457, 29.257839335353427, 33.459505424288174, 87.22540591119497, 22.683248510386747, 74.93463958450207, 72.13726191935515, 53.33113600388912
510, 128.4886301918209, 14.920975813239705, 45.20377401072309, 5.310973114310929, 31.287159177311125, 51.861084419552085, 19.35323394935362, 70.31466448370928
511, 146.13272519590913, 13.553029710659812, 61.53359385983271, 12.742195289367675, -71.10961425526257, 52.500595656947986, 40.41906728428341, 82.13770921134724
512, 38.016827339832304, 28.32594610490416, 15.004313086161643, 72.53110047596482, -89.56142109677546, 52.9417062143432, 81.12360394906652, 66.43941996563602
513, 139.97042110153274, 14.183551007423532, 56.99690879781657, 99.77630376269161, 33.593111520112465, 27.85499502223743, 65.56390728952142, 64.58451145889671
514, 155.6582268744788, 14.81085864807008, 17.72561140847242, 62.71143396964233, -71.58582224217055, 27.016952492352402, 44.34231260568861, 58.916222406640166
515, 56.2447452419468, 17.77970342699906, 70.37578817230961, 16.498819664343323, 47.12538828972066, 85.63804643826631, 81.15578815658648, 29.15932053070284
516, 68.74114350824388, 27.1027782091117, 16.040614511991187, 12.739737392342205, 9.49202737224873, 38.536223123038724, 40.610845729158186, 71.73474953267706
517, 141.79660476796238, 15.973928403627195, 58.049633303119485, 39.702955951981124, 18.13001591558873, 2.1101899723761344, 61.8338687189287, 30.437426361426724
518, 30.565850218460156, 19.366154937166712, 16.692620445844362, 55.57217365971579, -81.63581195033616, 78.78730273690627, 61.000728915206444, 57.82418120707048
519, 19.96968331050161, 12.27937363311774, 55.99785967844951, -6.825556764761257, -67.60964599345725, 57.93287104470488, 11.122304281003814, 55.78170614950732
520, 162.56787070880023, 20.38179409460577, 32.089937808620576, 59.197616870706916, 8.002424209132784, 44.5267055182971, 17.021783617262713, 10.073568332787374
521, 88.93591477616637, 11.37368998074755, 82.54848052673061, 67.31363974003408, -35.2670530030777, 3.1915802725954654, 34.72407676808389, 12.331297009273314
522, 53.64220647099888, 21.198333212944842, 55.85691956316788, 92.71884059466473, -13.015521013051469, 76.31384029693191, 4.901886845583047, 28.73806014256185
523, 12.213943565801479, 24.29965798820604, 83.36235560257457, 87.358390793366, 46.92082997775182, 21.32633257435187, 29.282598956477937, 57.964284416612635
524, 48.66597862565825, 14.897386236593224, 4.1811052010441685, 86.04780873580293, -31.483270412348247, 16.033889180472972, 49.30941288790734, 88.28015377219096
525, 172.3510175429354, 27.02947386689876, 20.481108297754577, 65.07676200963617, -73.78379691704069, 46.112014384009335, 48.21968597885978, 0.21248778690136083
526, 94.46191261383998, 24.064595557259537, 20.605016448775906, -8.5146297867935, 16.74483592657212, 13.078459042818622, 18.87839414661519, 4.7394586897933095
527, 110.94611403927037, 20.03867247243199, 23.93422143057081, 81.78629345528611, -61.28499758146103, 5.7602773238492695, 22.980766185166328, 67.39167856307039
528, 35.44081928771315, 18.496570417501538, 46.06646474796793, 59.125961146478545, 35.47282836448448, 79.83907179970663, 106.12679269201395, 6.627713846406565
529, 146.8765453872892, 21.7229376834092, 11.083294649700754, 109.40210537182617, -15.632952389024283, 29.07402146504174, 39.115848285716595, 39.86239132006373
530, 44.39645045286457, 16.748778205456865, 36.146182949159105, 104.9026524804416, 13.292835552630237, 52.574015498370215, 54.00709916133405, 76.62138097092182
531, 91.87529391739196, 18.91639545808254, 80.03515312743625, 32.77018833674625, 12.404806763682274, 74.8888629681437, 0.7455343929550241, 6.268802485691624
532, 171.09411149589474, 17.74766089294696, 61.972317019127445, 71.26125639960694, -84.47466443210182, 23.1704662928311, 56.046000923487945, 63.15081137276963
533, 178.64573550687615, 24.62925056030935, 19.521983407820034, 42.7000727583534, 2.323882777936035, 17.964865387548308, 67.82087063585264, 42.111538910168136
534, 111.48437174690949, 21.887486826985096, 77.73683827465203, 96.1017859209033, -3.26901750724862, 41.47424660381357, 78.14813916243777, 43.10825630283634
535, 190.7695091583435, 11.483099379129207, 21.925983621850968, 64.95262026033839, 39.11249541758775, 65.38375096780014, 55.25958312829873, 84.41187345751484
536, 52.686435895540754, 24.885665829011153, 11.481825845451459, 103.7177860416416, -18.226033911728905, 67.3377428914937, 14.889727263996829, 12.4795754977163
537, 55.09125844568885, 26.562295762301527, 35.45699462356286, 47.82743914003066, -54.69588841410316, 88.71158982468893, 44.84176903833227, 73.64310913632025
538, 33.3853766735651, 15.122865566757662, 57.54207766556084, 76.7246469068834, -6.8729034884933355, 6.777166952913467, 94.06671734747641, 88.20161142496646
539, 19.453771514962682, 27.65133692364454, 14.484012898617655, 36.47440811327897, -13.582137783779158, 61.252826061301235, 92.7778150091631, 70.11536362391745
540, 181.12727793105262, 29.68505289957068, 47.30420528109335, 37.140637449993065, 10.969526646836144, 63.270400605738935, 11.084439887362898, 45.21743879257563
541, 166.0832393634783, 22.829287241623014, 1.4539671977413937, 25.535491870502277, 0.36336331531445865, 62.46686718838534, 19.697513388335164, 13.404401645071545
542, 52.94731746574972, 19.277666248455084, 12.235946932195635, 14.0455047778988, -3.6968592997624516, 79.16161674666617, 1.4573198309299153, 75.34448787701692
543, 146.5513342292795, 15.982769306626032, 5.487344190928724, -11.70049601402902, -73.31316753566249, 26.420787154819017, 85.81609324078414, 88.9391510091621
544, 161.13581793017352, 14.484799217811723, 88.09331599538949, -6.079433784730718, -49.676087870747374, 21.9254919372312, 18.981803974816227, 54.28039049925919
545, 154.57299406539332, 16.14297393921572, 73.24407698539602, 51.61956863595014, -10.618618985073496, 72.29253426557727, 100.86397280744194, 28.24223645197144
546, 160.45154872615873, 19.141254526755, 43.833847099863995, 51.90799156738265, -20.088329039511112, 60.01007113513685, 82.45287302413512, 22.17539083069786
547, 27.5074891911636, 18.845604612846323, 84.55882450433492, 11.686812337794414, 12.801024165948022, 82.35701889091963, 53.22091112995088, 60.84627234689193
548, 85.31748209963814, 25.392167769947505, 66.22732629510108, 8.16912619661225, -50.26605110365365, 87.73330801549527, 23.361113273209266, 79.9385695682675
549, 142.62670505373183, 21.982626655324516, 18.125928957132132, 64.50399131230382, 19.280757769907638, 79.25756444370934, 27.148607288292812, 18.78542286954769
550, 198.0145632283114, 26.133029381576037, 35.7767446565846, 38.90648416825082, -54.20307474058342, 28.29018187429873, 94.59119212557778, 57.20416735669678
551, 107.92203827242001, 15.796161123104538, 82.40073736700904, -9.943266251375809, 0.07365313786155525, 50.57756598533899, 80.22652922592408, 84.96110607629932
552, 153.74051770477516, 23.350175084208544, 37.713306446326406, 57.54970082018782, -26.661762103831393, 28.353613758436264, 33.56663468965515, 73.55726868395388
553, 82.77291913400728, 18.029308404448713, 11.746031479611439, -4.790267583152537, 14.1356364553738, 53.14316140574466, 91.96871101134249, 64.75759686424618
554, 79.67701198103227, 13.936121401391098, 49.182089992792235, 68.98402076339765, -39.53974288206967, 37.330556284346336, 23.13152672326685, 24.201316770132838
555, 99.67100568245148, 21.206832705310667, 27.334328001811254, 51.607565379731525, -0.07455168407049939, 56.94649020355185, 86.20379519445997, 77.78810915014135
556, 65.76828726602184, 17.496718730593315, 21.541209022222812, 70.21649940560093, 21.80860381070319, 44.27384352718516, 60.3955683852055, 44.9045045330226
557, 170.8084303561334, 24.011768818875204, 13.627364448073575, 2.722792807346714, 41.851857368688115, 49.66253178616938, 35.98067705935048, 27.474117822255515
558, 45.62512564194999, 23.697166230380574, 19.43178360202923, 91.89413602001298, -69.7718439815703, 35.55964457162996, 98.93145839333837, 84.01055754987692
559, 153.418965118856, 10.720822531214434, 57.96807653924295, 75.20716763087746, -41.37076269954556, 8.620658708405678, 36.068810511751344, 43.8365868424317
560, 83.28493689170539, 20.670341375797356, 15.882744783173724, 45.782849631964424, 35.97598039929492, 61.427385961193906, 85.99644542438269, 10.360839354135061
561, 131.09990252407306, 27.541047020232558, 5.9312728899205265, 1.965858229183072, -64.00653193066378, 49.23240126031377, 31.03868723894298, 59.87508090434767
562, 53.88524298669214, 29.078465601191667, 33.54883343158903, -10.410779410951687, -26.44452635265815, 3.423236603808898, 3.032438389532831, 36.211112463418345
563, 194.58764093175887, 28.06569409918487, 75.1475515189077, 42.910539865670806, -53.24957852473114, 54.088928259606426, 108.71928219611914, 62.69071320098815
564, 59.24566840787068, 10.76791780747324, 57.192408451170344, 66.34263343631721, -16.497233171027958, 17.987690203714457, 69.9032113500311, 82.58504532791551
565, 23.644467066769586, 20.493944304037285, 62.145620660581606, 23.348281674757672, -53.239005052477346, 89.50818372389062, 79.18903796929108, 40.214866477041596
566, 164.92910326936487, 11.689742066341744, 63.01190563599449, 7.318144985978167, -21.7052317093502, 69.9206057085457, 61.09749720253665, 11.178499741370373
567, 14.20433745118839, 25.279760635899745, 40.44101160534114, 94.63851175097201, 2.9158983950417934, 22.203603562871095, 20.52643930346815, 9.31525234631181
568, 111.834672364934, 10.10045288044967, 55.11245724068848, 91.69724485606613, 28.008317411530882, 23.998074287072754, 49.94038233530187, 74.73232955082611
569, 109.67362373656974, 21.27469526654342, 31.155643125661765, 103.14471178858827, 34.58560893089987, 35.225334124682306, 67.87115555265271, 64.34355759694363
570, 197.38409788742413, 21.80082511187475, 11.053017966980452, 80.86935831671775, -35.517517710436266, 4.7653813886752525, 75.5221866494638, 56.55707842612402
571, 86.30184194810916, 20.449330267820685, 76.98391820990634, 65.04190131573023, -26.946956195978256, 76.51747176871113, 1.7677039533505767, 73.52141254367375
572, 183.00896118575747, 28.829773912919702, 39.04719859030506, 83.60878011399123, -3.4011898657302457, 5.909068559309062, 42.78224572368929, 39.73914575554658
573, 52.463005838941726, 10.241670906281879, 87.62150732879759, 42.57195741846817, -15.408940041903806, 4.702012141721177, 9.472883671407907, 16.7786839906812
574, 70.18109165322467, 16.787244426618976, 60.140354969606236, 46.83459340821571, -46.01939811590494, 56.10822987165665, 12.860218720002013, 26.39531213999169
575, 14.22742836327406, 27.560677353188304, 50.97941907312838, 6.1084396201703255, -7.637801781192935, 21.5813521302254, 19.381667859254073, 1.4604252855834023
576, 57.884387193394716, 21.739514688490228, 18.127313696531058, 89.44167519260114, 21.80044535474035, 54.953166749324225, 37.35536519894318, 14.250457155694539
577, 128.21934829691827, 24.826908270805447, 88.29405162658024, 51.89923653585607, -17.213622452955192, 53.63657499597706, 60.65395175210834, 78.66336739612433
578, 101.39053514825115, 19.443025878078693, 25.39078322496849, -5.003246223139885, 46.04164141134436, 42.76094197011417, 60.542570996267386, 67.24121465434645
579, 142.91378587648924, 12.539247919933082, 57.571296463306616, 44.92142650606079, -39.936199157671126, 43.59223311662874, 72.42745523356612, 57.25884203835035
580, 172.323765209967, 21.42346164326746, 52.20952028834811, 89.90973541727254, -75.61068105188052, 89.74260484600022, 65.23909597094784, 19.412269655925204
581, 198.496654419429, 25.500277223292812, 83.76275750732084, 75.96209291160758, -47.97320843360325, 59.47218261831171, 64.95527306911941, 0.0022750098799417806
582, 46.61094396406671, 28.424383687278475, 44.972589302871455, 15.461889592223999, 6.746851227880654, 1.7372431124064547, 52.31748883064163, 75.31596544651413
583, 117.4100571949365, 20.481526586471315, 46.7989121291328, 62.19113818665467, -74.61754938235649, 40.492156848706294, 11.202734331017774, 45.1753013680338
584, 66.4478256987357, 25.495070906000137, 68.92310775197952, 88.10652474203192, -40.623061353337725, 7.480955104958615, 27.15576577459499, 79.7496246286872
585, 158.60261247542087, 13.773569367795133, 69.48723340705607, 102.13931077899835, -11.19843140568986, 79.53247985499108, 89.71657134872052, 51.653784322950855
586, 94.4825783283383, 13.02343282354988, 3.72722884046881, 89.86446009406275, -73.9972732484322, 64.08491797005105, 27.45087044965161, 84.43405179295945
587, 19.283400728889, 20.945329118642373, 77.39008296371789, 98.03700666507775, -36.83817676855568, 24.9693266300572, 106.24988982446703, 51.87123204614526
588, 172.44205682045978, 10.661327425676388, 34.85696800616004, 41.579916325900996, 31.74758388312694, 88.0447342933853, 5.097511402935596, 48.078048532292286
589, 122.07498545184141, 16.29678659361244, 87.09475762037182, 80.9414726892112, 38.69679012411231, 37.77092533179675, 81.03306627209234, 29.451817146325958
590, 98.961421947933, 10.948311668854426, 79.14192326372327, 73.47265062612028, 23.377209839229213, 74.52792275284807, 98.69393324683006, 73.18908956574825
591, 55.57696077455015, 26.13367164684517, 34.96218533583836, 52.383654497522116, -25.79190597442695, 33.75090435835328, 4.576146734038503, 83.32056747963482
592, 67.48641114856477, 20.486393531200353, 19.583238662490437, 69.4214135182296, 49.02791752850899, 66.50360756539494, 65.01850494217312, 29.878963114774415
593, 73.40624157213972, 18.64170494201675, 40.5470448110433, 55.6908461322935, -63.55688136705063, 3.0330135361127564, 0.3217877403183411, 23.287916548575716
594, 189.74108213058256, 13.577440408026224, 49.81294352263047, 83.05721514174077, -69.77632839468947, 1.1463021675711182, 11.476796765835573, 89.26061976135645
595, 84.27438379940116, 11.693388097840431, 60.80675716197502, 96.02977724613119, -22.33541335291696, 60.08868773566814, 48.481932938790955, 6.2161836768025225
596, 68.797708099831, 28.59538185445883, 31.40819857413281, 104.07226346598232, -63.45197240595343, 54.06088630268193, 10.845264782346419, 31.873872192432362
597, 127.98536852433406, 22.20861784821747, 12.400195608103616, 53.367853848184424, -73.19894608201477, 13.664322092406284, 85.37735575125633, 53.408244182922516
598, 29.720151897383545, 15.004337956599013, 67.00619384640243, 93.98626016657892, 11.142644829290148, 43.037554504255404, 91.11567698211911, 44.165562043970354
599, 191.4356805690565, 18.505864227822954, 15.456189850690745, 8.456853523553471, -19.35420025536972, 83.66355826610308, 28.594250408747957, 7.074436377144959
600, 90.78710961863091, 19.52620129561743, 81.00335584637916, 54.42328533455285, -67.01876348647734, 21.123925270754935, 102.80317442723396, 83.06253787457086
601, 15.550819836119711, 23.46156979250197, 38.263119769692, 75.25790677339434, -20.449175730756735, 88.86469812698985, 45.81092668148336, 58.613407634903865
602, 146.77642956572387, 26.154868636117882, 16.832373562910085, 90.97565322037133, -19.510539339309897, 13.459032766738375, 81.00774053408395, 84.80338227110023
603, 32.446897117243964, 17.040894956183756, 57.61455798393183, 95.2219719315684, 6.399738755130301, 7.46642201055653, 56.60521486807747, 74.7979745437789
604, 160.3501967494278, 12.968013897711838, 19.870251078452746, 72.99220213282904, -81.33328981042362, 57.38184469732869, 51.862300159281695, 28.439970071193386
605, 42.74228011622421, 17.224663427892125, 16.139490673965504, 36.4831357957422, 48.970697481334525, 15.482996042308438, 78.19651133146874, 68.49186386677444
606, 161.28807640089636, 20.468581009354253, 69.04956610623299, 107.07549453066063, -39.44976837848588, 48.99599379354148, 31.94917501999947, 68.29715895123691
607, 172.82529634008105, 28.528165212053757, 48.659742186638624, 2.3989240436103114, 34.76369920098699, 32.605345144351205, 79.11562028776844, 67.83899127458419
608, 52.82185012685819, 12.67918410471177, 67.75372080346334, 12.743904960208088, -15.800383460389881, 3.9803303552752602, 1.0643610594740924, 1.8762865515709615
609, 188.7460767973121, 29.305643548907568, 87.50704968820196, 105.31230587236303, -8.305308802393512, 42.10590299549435, 65.98220655202171, 33.23376649820626
610, 15.605552663140053, 21.842639540387143, 78.68006473114283, 90.88779921617228, -7.561357620790403, 85.36626725506596, 102.04651778576122, 70.09623901230046
611, 73.40203175140292, 10.84120001978019, 75.29826790359573, 91.62810075133562, 11.997218287611119, 73.3851574105739, 16.2261965772519, 54.268427620724715
612, 136.8994972618741, 12.014774166130234, 31.97356894984046, 100.88468929393667, -76.94909384271693, 49.400160919663236, 41.94511017232359, 71.47627156474958
613, 128.58798816799654, 18.041108192456406, 89.07281499591922, 95.80793848583433, -67.63765905410096, 68.44958587286492, 5.658603603811044, 42.776023628472565
614, 163.66238374985122, 25.9931094804224, 81.88484562234758, 95.9910861178392, -39.68013710971076, 33.31743973119354, 40.2668019571294, 56.56875784464631
615, 182.3339045730642, 26.638623404243948, 83.10168889027895, 97.85960774122144, -50.749050580048106, 21.640590983919434, 34.018246556628455, 62.72068041081842
616, 141.9334624011449, 24.543524328399723, 35.10542781743999, 83.39689739962508, 41.54137285394765, 49.554847887040715, 2.8841438435701994, 27.600093566879277
617, 109.38380504980698, 19.76650629528651, 62.80711104715623, 100.3633305748713, -48.58324456481306, 7.974050412248996, 1.8245505495420165, 44.59643369144028
618, 37.037747138040416, 19.827872372867496, 62.98072324189417, 11.97374239469395, -29.737712057348105, 75.42278452501871, 94.94230412820866, 51.6978159928984
619, 182.17661201024353, 18.47958930207066, 42.43509793993863, 58.29064271633739, -62.514927117307, 89.2811055510335, 37.805387304575525, 30.263637206210227
620, 79.48637014193847, 29.33838753695036, 76.78926905918749, 58.65930931332931, -5.740492446787627, 61.63616035453816, 34.51408704730801, 55.57069500569725
621, 48.03873252430975, 13.58470380940046, 38.20148258653546, -11.390458635713426, -7.0857166235084454, 37.43249674348043, 98.61223656963254, 30.242250248250667
622, 89.3424595985339, 14.749589377874926, 62.17462963784309, 9.68883748876078, -26.828122291507047, 39.29598902358982, 1.6824830696464865, 59.04552777460149
623, 58.28375498733779, 13.057266698245675, 54.620765140499465, 26.253135909880456, 23.550594875508736, 43.249804025401666, 38.9617583627413, 84.70560046747
624, 194.69574453940072, 16.27810677826975, 15.716833756424844, 31.91743234634091, 24.683412591207457, 21.5030775561578, 42.58340109187067, 14.731620769689526
625, 54.098975340890334, 13.483542424517799, 89.03580602628982, 62.59980423311703, -0.4917534275825232, 77.68481395130239, 37.708605524747405, 0.604998740435464
626, 76.64257078692627, 16.346636876423602, 39.60216676649691, 6.8539372739019155, 42.23236653571101, 61.135382491181616, 8.286128135055622, 18.85687182726558
627, 50.95153133172959, 14.817429325704195, 55.99600475873392, 55.141491122902494, 38.58704747252577, 75.97189237584651, 54.95318978330216, 67.4968977271448
