MGCheminet/IRB140_Dynamic_Identification/Pruebas_Iniciales/datos_irb140_2025-05-10_LIMITED_2.csv
ID, Vel TCP, Pres, Theta_1, Theta_2, Theta_3, Theta_4, Theta_5, Theta_6
0, 169.7902095912052, 11.611578106670763, 31.918867230921332, 65.33940311196464, 46.38716118552361, 38.61095525168229, 18.898193369227634, 70.8132679629014
1, 159.017105314924, 29.8316315356491, 19.307541454930497, 16.094988211053348, -0.6863308646601496, 62.21339447114006, 50.979187633841704, 37.98670789467534
2, 85.1425035939102, 15.167282535310655, 37.96673499838408, 90.83463103825602, -55.93537932304332, 88.64723292805569, 79.86216032787603, 73.5951373322753
3, 172.12445093762236, 12.302836753519596, 0.8572735916800001, 88.62812897815347, 17.264553884650596, 16.45160285445059, 8.137886881040181, 22.24773043419576
4, 132.9592247031248, 25.964444347343434, 40.23842768980225, 54.83777670003023, -76.60556506097313, 42.77684727478327, 101.78308644393623, 18.530807714025844
5, 53.396534505162634, 29.53144222217115, 9.307901570835297, 100.38983670172875, 26.189605764309317, 31.80404141754207, 51.238907275878724, 50.14975663403181
6, 143.23875113022743, 15.390750689434025, 84.18207643412384, 109.22332178617349, -4.557091826629261, 60.8178234492369, 79.36469203819176, 85.4178666079267
7, 118.44518895974089, 24.75680577576422, 88.97870007726755, 8.73853715823741, -46.571883431113136, 34.38322402057921, 69.7836912425006, 0.17658487572356663
8, 42.186577370753575, 17.97085587194167, 5.5810728984506275, 102.23147480736861, -59.9504908404053, 83.31991952512038, 27.14395952331848, 29.38717982714383
9, 115.31706562765254, 22.549909403825538, 81.79808252064134, 18.890113552118162, -52.78377055729877, 3.5316689261633716, 55.797103098467446, 34.40155964656378
10, 174.7946733916391, 15.356721227111006, 80.42054784306993, 92.09421770609273, -40.13460081852983, 31.175533466316438, 26.686140882622244, 53.51050730633745
11, 66.77184907869952, 16.69213756509512, 16.196057004834042, 87.5315402292572, -39.35288529728369, 89.4626878893179, 36.907319819198214, 54.97033984016174
12, 179.2306732864192, 23.012170960370874, 41.98712631965759, 91.06406064125126, -66.12024375759812, 81.75522585566681, 66.54634718588198, 20.00570621596334
13, 85.18122959105848, 29.12557186647223, 21.625759532526985, 59.18285714482276, 39.13527930458952, 77.97527967361047, 35.618801395651715, 46.19494961815196
14, 160.2282862561324, 15.481685843049595, 69.36736480596736, 35.24876877917578, -79.71401178599976, 16.340962712190937, 4.7207051061331065, 70.6491256249445
15, 84.09413966379975, 20.292988337116753, 0.4724144858803225, 81.56061933088783, -56.33640426790051, 31.85733966226759, 65.22118079779047, 83.41944194048958
16, 137.9783023114186, 23.85573495518937, 4.205100417124945, 42.37890752797544, -2.3420214850449383, 17.19952643493143, 57.475142928068394, 18.90773220996564
17, 119.82681112985844, 13.052789474554281, 66.0016724145804, 94.36182143086027, 33.52629754614284, 78.67315630396658, 32.66748513656896, 39.77326928714101
18, 106.67057176643742, 17.297144852040912, 45.14914443086095, 57.35106015906315, -6.862997076871907, 73.04155662705696, 64.49554108317214, 53.9865543788253
19, 184.6428878041144, 20.648556943883495, 46.48487523222991, 48.89614878340462, 13.570571337275792, 15.001649285797061, 18.5529933815198, 78.19783606737538
20, 73.6709503117207, 19.187286514260858, 83.07968678750974, -0.31432374731069856, -40.39713453435786, 3.380288881796485, 30.060198549671313, 2.997473821195289
21, 16.91911585681082, 10.684697360775298, 14.987466712355154, 62.73018062161801, -87.99995304961914, 22.538438660656993, 60.646731872862205, 43.35339385832363
22, 15.735229327502626, 18.898135466739664, 46.73519036493969, 18.813685809029494, 0.5475640125184498, 55.2475203779414, 66.24661733620958, 30.104248705576268
23, 126.59090765822899, 16.29616231195203, 3.6803748534358394, 73.9125150736385, -66.29762984261676, 3.487375733227384, 107.04943230177699, 43.31361234282946
24, 177.56523283621473, 17.768278537975622, 29.45597950610999, 18.1142852483228, -18.013870441620934, 26.847236165241945, 74.25851906167169, 72.41310597316796
25, 126.03883263497173, 16.316707630657824, 73.77332644614631, 75.04352551379601, -45.10689970762478, 23.64962910133436, 46.76746517443988, 18.73174407910383
26, 157.72077650092893, 18.062815188772795, 15.931230088785206, 69.794096157467, 10.415842647341222, 84.859950828823, 29.826310324332628, 5.1682153428037525
27, 82.30504433373315, 17.080902709060226, 50.826002774345106, 34.35525530160301, -47.528973947195034, 18.449198658725773, 100.06381005816839, 1.9499574258811847
28, 114.62554753174084, 24.870240413311002, 32.36989836822106, 27.999766107798884, -52.81147644713546, 20.422167800772023, 105.98046455369838, 39.27298749608973
29, 109.17198108860154, 21.77759996184335, 49.073082574682985, 4.2553993047371605, -3.5202966577898422, 41.45874290950054, 66.89861583260854, 47.761290298847356
30, 111.08906856014463, 20.85806730414491, 86.83563621323778, 9.491785869412833, -39.06928652517365, 43.223432437104165, 98.91054219980981, 48.5653337712525
31, 157.7257827578728, 19.645841947282364, 82.5742130349497, 106.19989366422311, -33.793648784171765, 36.990993724073405, 109.97689705739833, 57.35291360689791
32, 88.28701237604103, 28.527846166347103, 45.583015612288655, 80.5173441152236, -29.66812536838286, 7.248237974508171, 69.03586155435882, 46.42506804430602
33, 145.2392722345697, 26.28968624844328, 27.935359656744332, 21.07643881309358, -75.55418727776542, 82.0673123177554, 87.24234714298905, 41.886029551408186
34, 103.49184075078216, 20.07954310627634, 70.64019756003451, 70.15707490500755, -47.57875447706448, 56.403117997374345, 34.72726753609692, 55.24714457010736
35, 69.63507707780002, 23.742671022476536, 61.0042899151152, 86.32847497894696, -47.135889961699554, 38.4194918142904, 49.83567882817214, 31.286854844484598
36, 185.95985991050716, 23.459024898040205, 73.02774344873696, 12.186852809619793, -55.655760925891286, 49.19341644559456, 68.75028579083192, 62.60533056890832
37, 51.02309532719846, 15.706952272908108, 66.63808413744974, 60.42795084979131, -28.96876452890201, 1.3258087707915056, 88.535590501144, 43.41230381645328
38, 139.0498095163234, 23.468214831725007, 42.21397169791244, 94.66876351274949, -52.893542160808614, 33.939120913398426, 44.68679454367019, 9.83893825838303
39, 68.36816807792503, 24.188877301676033, 66.56872944234695, 23.680099164398875, -68.09472391538117, 58.30678880193509, 5.78841542062187, 70.47184315762489
40, 74.74188859680082, 10.359336247320334, 72.44288899347315, 105.12806835692469, -4.836219006469776, 27.48215067913879, 11.066895326864472, 9.07864848972329
41, 130.6503178873662, 27.89291391054806, 59.684353559333715, 104.09742474123233, -43.91985278792274, 23.457197676632322, 69.71499657951179, 67.36781680932147
42, 161.99565278758453, 17.60408825627967, 37.935529263088895, 97.89219151028422, 48.698723885796085, 16.89269297326102, 36.95525397917812, 19.656797599703246
43, 179.59738540191682, 23.310629062309165, 3.0716378516541303, 63.0955966783512, 22.648850441029296, 70.8280857394435, 100.3965201524008, 26.339284795128066
44, 152.57910690501393, 16.486931777289882, 78.23842301489502, 59.012112289429695, -25.020045398348174, 36.43168388788092, 73.74583327711434, 70.68404747958276
45, 173.70123996484858, 15.66133508728786, 72.230716023353, 29.114969695858427, 45.41000555135136, 78.38989688983047, 41.09408396503338, 23.249645261812102
46, 102.06141627968859, 15.742773509561172, 85.20253198209517, 89.12094527525836, -38.960768845953254, 67.79750822886824, 1.35507008612716, 8.11868058191332
47, 157.89212587409762, 28.569039385278458, 46.62210571022768, -4.373701751564602, 28.594664505448804, 2.422132312001155, 18.304598219883097, 21.674141832916423
48, 150.16227245226912, 16.291455863374324, 20.79466547347666, 33.76009578278105, -21.267806063168848, 2.0783573469327687, 39.32296660835912, 78.44861646451069
49, 189.56552110997677, 28.43406294728886, 23.15558641754223, -3.0443148586967954, -76.2739658279392, 68.40260342087029, 8.1332286906959, 10.212917549372175
50, 124.57765985433971, 24.239689739562937, 52.00808905046591, 89.07570075660846, -71.65736988296388, 81.21895224987647, 87.12442033655371, 26.95639107882076
51, 38.72612779230157, 21.57756711713745, 34.5359049672094, 2.9844387900817786, 47.08806614282497, 14.87392205193506, 31.999698169843274, 84.81054975136536
52, 78.74416139552059, 10.965064544372943, 11.1985097081962, 74.65083865130778, -0.09206362210348118, 77.19910048370923, 39.32820741541077, 42.75324881952674
53, 173.56988507054805, 10.912753147894973, 57.569139050450254, 22.67522573321802, -52.04411038084321, 10.344240531068465, 100.0023008492268, 9.29692266766476
54, 51.10013467201965, 14.670233388121744, 32.184697968935566, 1.4012179954789268, -2.5356968881866213, 3.3819740779399456, 79.55772883900552, 82.37242554770184
55, 182.73615579909372, 10.25799579825758, 16.649055945995766, 44.508742920933294, -28.162512239504593, 42.74922191891982, 19.582539108593746, 23.844551685862854
56, 42.94720650646248, 14.906917900942672, 58.62540825142508, 11.001140187018457, -70.99781576082614, 10.626790202557297, 89.2057915284507, 65.79301944234987
57, 146.96098436471044, 15.672533858083453, 41.67269038944279, 76.88152264232369, -32.58571718024422, 35.592306897630806, 93.32842517185101, 28.438378703943915
58, 154.28913030978578, 20.50341075526805, 23.3957595161789, 81.47327678468507, -46.24125274637527, 51.57309217628211, 94.95997474108479, 46.82747886182087
59, 137.32137853173026, 24.168862010830267, 27.094184591173928, 1.9609989736800981, -46.6338075576134, 12.032103066699452, 99.70692620249936, 26.278755528907276
60, 172.34641172630896, 11.728439054952677, 2.1458499008471033, -0.1371195860687351, -18.619067456762195, 47.39164608860645, 58.081160688326236, 27.750996894644015
61, 32.05725113518291, 26.588674969717864, 16.379578656769997, 51.27949306728065, -13.328738412782528, 29.040582695283263, 18.989523348912858, 32.65579526914195
62, 152.50438389808178, 21.26671056606831, 39.334290755597436, 76.01177724644366, -81.49285252179706, 76.59686378336755, 47.13706740709829, 28.15065612432655
63, 84.6881944994464, 28.72358825682905, 0.1822974879170236, 82.69491472161535, -78.22573195012347, 21.627620546953043, 51.44701208888719, 62.09486762746854
64, 59.938504135662015, 23.920126488574535, 21.059110795574455, 35.46168033322315, -64.55844306293895, 76.49933785426971, 97.29634375519994, 40.11357562271886
65, 95.76853707623393, 11.154413192851278, 79.01834769554485, 19.631504548883377, 39.19493358505907, 36.623371492954554, 80.3061343588361, 36.90094015715074
66, 64.69118954196784, 16.003790077326258, 5.2188287949986325, 66.6476655532883, 7.174294958882998, 74.8339206266357, 79.89526113070447, 34.17950715734962
67, 189.801934577514, 26.347982999848746, 35.182696801677935, 2.875911461252713, 25.696625616109582, 33.56531279626882, 28.035620385088244, 4.41336513699953
68, 172.66723175317176, 27.565455095065023, 2.6825999578040416, 82.95967641508142, -86.13066062784611, 49.47391381153204, 26.970995054766444, 51.52597062521417
69, 128.51500287744352, 23.955975182865927, 63.333455835023265, 58.80506349921708, -21.892080071105042, 83.07464929842443, 61.0434759209915, 79.0326707776838
70, 100.00036184467181, 15.879359887758945, 44.67967230794678, 71.78434889951096, -21.468785311396132, 27.77300713651566, 35.40732700306063, 88.5092194447486
71, 65.28572551664328, 24.729558694985798, 77.54331352006417, 76.21771772538374, -58.98540854391065, 8.824574977362145, 70.99743902410287, 52.27711974428947
72, 106.53841434690982, 16.52325715103311, 26.0366656504754, 91.88072875809557, -80.93144446193784, 32.25585253217641, 27.5497445490815, 57.23272582214108
73, 122.9003017980961, 18.12839691389174, 78.62390181142547, 78.90562880577482, -3.4112751101081784, 57.64479338446558, 69.46264679889174, 51.38628546478976
74, 159.2139548058979, 11.544532427998407, 15.542802380654829, 1.8798661159475216, -40.337036748241715, 34.45430443373546, 55.46223866163879, 60.02656338538006
75, 68.76262366867184, 27.409198091949534, 58.33800037135458, 16.339890015800012, -78.2085723583432, 83.0578037434677, 42.102787215798365, 82.6550395316235
76, 168.700444111308, 24.33858698989359, 70.49182793856245, 7.079648582219952, -58.00701407736907, 26.871927260872205, 74.47839788286547, 75.4576868236659
77, 42.256564033426685, 25.115047093891782, 5.445942197080327, 2.29921515800582, -4.408822936083553, 65.09421624233154, 5.634305224026263, 22.39394013054625
78, 151.20075910523394, 22.46852178095394, 55.70678854238811, 12.46624896982855, -7.158375667959831, 41.55688393209346, 15.975246805435553, 13.00153657643983
79, 199.62111016720758, 23.980257612293897, 6.699180432485644, 84.07232266420361, 26.471437547013693, 80.53579589574528, 39.29533486666986, 65.1017228001041
80, 142.96551532188298, 26.100667151108073, 7.772341397512527, 10.868853164775448, 8.959701315915837, 34.39735382215161, 34.786057148534326, 53.27889146761481
81, 154.20695883292444, 21.216746326444586, 46.67670458041789, -2.9367967383075904, 32.50206664945929, 24.80392790136097, 14.749003167606315, 55.47841102828645
82, 184.08896554109845, 12.492126774783, 34.84159082759544, 9.557068423369374, -14.399421962188143, 70.48573835688397, 74.35381387441365, 18.245482347433242
83, 149.81637011160188, 18.51818638965438, 23.98549475636031, 87.3124094581851, -48.805730306361475, 50.345009164468756, 37.86997248246604, 47.31877508906397
84, 70.2838465038133, 16.235142811799598, 5.7109513276221655, 78.13917443804516, -34.19339214683926, 86.90061314832143, 77.45902176479349, 56.84655199029968
85, 11.136256085243192, 14.974879944069684, 72.58201059641642, 109.37216721149592, -61.63035172761036, 31.712166180871723, 78.9180326177788, 51.249317910986804
86, 193.160724564965, 11.107085673715439, 25.30024785846199, 77.91115782622066, -32.71506068059715, 79.51619278876498, 98.08801110785136, 86.44891168245826
87, 46.095429178225125, 28.712036002972088, 3.374459712238398, -11.894704131446876, -61.8104903585719, 74.61068226093717, 21.928601805311196, 74.59722233045268
88, 158.09949149120106, 16.480608286837374, 76.41143426371669, 6.3325827682775575, -56.41414015223437, 42.48990084146714, 69.17372595964797, 85.10084436762855
89, 132.65327306895173, 18.986335301671776, 27.40534696161975, 96.35989128499808, -45.29226350703629, 45.416922229764616, 7.7414123881289765, 83.03119800786759
90, 161.38754206715464, 17.109905256991176, 5.039277942896696, 28.03802176517261, -83.8556376752331, 83.26220978687836, 108.38088871214754, 57.220287230996675
91, 194.09489802828594, 21.356518307624835, 12.518163742349335, 84.3854393126394, 10.73007432257468, 12.466671003338755, 0.10140121550938908, 22.560508771319473
92, 103.53683872928237, 11.138796920946065, 33.08841792368385, 51.48701356346218, -41.138032148989545, 61.3564378107126, 71.39223792548154, 10.36830194286457
93, 107.4676884306487, 26.88385687907246, 83.42518727559253, 75.06763553929453, -35.53498456583978, 39.224164785476304, 61.161502864719, 51.439783245980294
94, 113.1693247810339, 25.43037999754312, 39.00287454805459, 69.47619797418729, -73.53325620212271, 75.37386700255333, 57.84204092505103, 68.16920252478143
95, 142.58752699038678, 16.95258280950604, 66.00670742587882, 25.65142340126812, 0.3671609794624544, 59.72908541189525, 17.403456185442263, 6.215481282274922
96, 68.35138040233701, 10.380111383034658, 53.24074349712594, 76.37896278589254, -74.62928702012701, 89.10148388297272, 84.25740700579135, 77.82691629135489
97, 96.70112580341848, 15.034326416545662, 89.98681460610152, 38.536333364219125, 15.397546288195912, 28.5525690880657, 43.757177643467074, 89.23972063948523
98, 52.01088002213535, 12.244514922541494, 19.744717404485723, 104.65050611990185, -36.715401920513045, 79.92696065728201, 63.18042429239968, 25.870934605099954
99, 111.78167569184423, 29.51141742098514, 47.753473272098155, 108.23606691362978, -7.135301580237594, 1.668300440089543, 54.13872230923071, 36.12936432870452
100, 10.187025334985192, 14.888982600672904, 76.2875050909368, 83.03151999086535, -24.4692201298478, 7.929677187725192, 19.909626656195, 57.44380382374323
101, 112.76591193696012, 23.619589492797154, 70.7037370864355, 16.65720832433948, 16.6978449704, 22.476654966380785, 79.54080854657516, 61.355544478284486
102, 154.5289557965551, 27.574805538613873, 8.10554720013119, -1.9682427886437477, -43.71959447211292, 5.641034443535099, 48.93119358744672, 34.67551415179008
103, 173.7333549650175, 28.525260706452805, 51.58465961474261, 16.69519216153193, -74.30999871857709, 2.8669542856517705, 95.57350037699867, 2.645196907743662
104, 170.58204649210487, 16.067565043630236, 87.57761305368514, 66.34886378155518, 27.93867489889315, 27.822484778647617, 21.882134806422048, 69.60438321985238
105, 183.9773553871792, 22.576553441291928, 60.548242933322186, 35.77144643183324, -22.14172232096385, 28.314324097556913, 36.446589682758976, 70.90044817239534
106, 107.13199318037805, 22.99649693774063, 74.12413165050985, 70.4147222580053, 43.330004916930115, 65.58859373884755, 11.151586792110052, 28.460396683016302
107, 43.368015778941604, 28.73101070489048, 51.08799300900646, 83.81543407426082, 1.0254064909489955, 51.49516700772844, 33.188315751247224, 84.3072592862558
108, 11.164660595532816, 12.645234827171233, 26.763037371106506, 4.363771598251759, 44.64881855077644, 72.36141548728521, 68.55038815646621, 57.8080634139069
109, 101.74904181933468, 22.639415119648127, 82.98420099722541, -7.611125316971168, -24.792002650785903, 6.456768222886123, 85.21290633330818, 28.271467121879265
110, 109.88763674824571, 24.375404000578733, 39.56173528985886, 32.38821840807055, -14.228792704546064, 71.06068787704682, 29.806897243874612, 87.24055344385796
111, 66.65835678398943, 28.475320849252505, 83.97093882383817, 45.631323581523176, -71.1640239173615, 69.36518219085032, 49.72258181942412, 48.645914712333415
112, 61.13200991021652, 17.16948334690204, 11.71262121946124, 7.675396934967421, 7.703599068898811, 64.05522209567229, 52.139909751339474, 14.155646554293561
113, 102.81889830907708, 29.552222162569052, 47.31285983231137, 105.22235198727239, -2.029963927339381, 69.70065178153637, 77.49429719060082, 89.06676795766838
114, 28.66073826398102, 29.815229040230204, 55.34940965616355, 60.64227345199467, -71.13645975336664, 48.60121413233614, 102.43654526135295, 29.202963933579728
115, 154.55515516925874, 18.017773343408635, 50.70011093848384, 1.7718603395375574, 26.711548259848712, 44.412936888738, 34.764330436276154, 8.864669261495509
116, 43.30199460804828, 17.76630279815503, 61.606620042500744, 15.060565324231609, 27.085960642127716, 8.155496377142217, 5.990570872709559, 2.278166498110545
117, 99.97535028572267, 16.956435970133683, 76.57752916300691, 32.58898270591718, -25.532777370477348, 5.556598805784665, 88.70743668037746, 75.25876248501844
118, 23.955784197627352, 17.757654721133193, 25.392448382537047, 22.67116399001877, 14.028911857912647, 41.481181482301714, 32.433816561967106, 48.25899488929865
119, 33.55590856534404, 29.066005375436387, 55.634913843673885, 29.55756443261054, -83.39980788573745, 5.2146959172475436, 55.17613448147678, 68.27178171473145
120, 199.0772835973848, 22.33460431522907, 26.839480509643437, 8.43013578534034, -48.05113372654296, 80.75540669990653, 79.12718473124636, 86.8541789812883
121, 60.85645355079514, 25.988106870124216, 77.424031324288, 90.06635370208194, -25.851602241274133, 17.47242499318578, 54.4774390810573, 73.79249372071533
122, 75.50388953540113, 25.72075520872297, 47.87924377375525, -11.42338329434045, 28.207655080712613, 85.6516834498641, 17.712024593130998, 0.759701526830403
123, 79.18327490040562, 24.677459460271578, 2.3953108092581834, 11.100288123328362, -13.014108262171645, 15.939839903599722, 56.666125163832255, 54.042653399668495
124, 141.06559832075627, 19.076376539281004, 36.65272084314247, 102.69001928647097, -64.9789661427219, 47.8979320394975, 83.66409850597479, 31.37982418925221
125, 135.3502694403921, 15.214670860751326, 37.414313510420776, 47.32105896653481, -68.9616204598799, 13.213719192129531, 31.043543785852012, 7.130853356894154
126, 143.01446659812993, 23.52317170966525, 55.9796542410639, -10.88778221953118, 20.93723115539187, 69.6688534278771, 15.395877983021702, 21.432944312438014
127, 35.95169826177698, 11.135964083013235, 83.59797642001229, 10.400099055392431, -40.91476422776964, 64.86826146204191, 0.28080703806538376, 47.70395593767681
128, 45.131408860424685, 19.36375988417649, 52.72285940007384, 29.32139859785131, -66.7577616875351, 1.9813436371868742, 4.769263966624785, 54.34814780514732
129, 132.60937806585494, 20.38597306057433, 46.04226897623178, 60.649288864053844, -58.60559576472134, 22.667531202455976, 16.514139083546695, 56.96579579499152
130, 30.14003741946011, 12.607414122251623, 33.72673158143062, 105.44789713748725, -45.629184869441936, 85.88185303154326, 56.087800613542676, 26.368274421399605
131, 160.58248974895963, 25.721775235228755, 38.42392437880794, 4.319177365989205, -66.76585053313875, 48.583607698155795, 15.719709242736775, 47.05121692794169
132, 46.85093494315376, 13.42333697635614, 14.997017258277465, 45.83355493686581, -25.27537942956829, 73.32918783555793, 45.357980349093296, 40.141484874211315
133, 159.31585301596746, 25.485428017129582, 85.6975928978696, 81.25262154402239, 37.826530794809194, 42.367743819629695, 105.98823344948526, 74.63901759798836
134, 130.78474275351675, 10.962478595110326, 88.90963848868601, 45.43355356065871, 14.335143652230895, 2.6150130052001215, 42.99531900493726, 63.22600259678248
135, 177.90522724043203, 28.59732875873323, 0.04060837692492991, 58.431813799391584, 2.2831051654930974, 18.183283995108216, 97.21044032389025, 8.724321968432765
136, 18.44603619119676, 13.547301689959458, 55.77651524513737, 50.70826704589684, -8.824880759538402, 43.5670192733525, 77.21393236829915, 54.298365574351905
137, 43.12826876843903, 29.381195153071356, 51.84189092615091, 11.380931165838994, -26.762400973042737, 46.920384463569896, 37.81901442736104, 77.16056989597703
138, 33.79372546906289, 22.799220906655407, 43.595575356025485, 94.38745765571426, -82.89360252996102, 59.037461246250245, 101.64549488514098, 20.36038368217279
139, 43.890242503337205, 20.442352864546145, 85.16504531879949, 105.16538737946418, 31.42463265983247, 10.636323011505137, 85.59075706828423, 40.2854598156989
140, 56.00644254260701, 22.51116582552872, 32.01167926707028, 45.76351871569948, 10.285879785479864, 79.72847647785912, 44.28593204204359, 11.133007820356015
141, 97.88491598162015, 26.412286011659432, 0.42747651427713634, -5.397007863575912, 9.503013612891536, 22.88479338230804, 41.784296392189034, 81.79894709691123
142, 194.14263684851633, 14.272969758606258, 63.881383235204396, 86.2388009851221, 13.864153394103155, 18.76362878224531, 2.70847460346809, 2.6980075564232764
143, 79.36272576071917, 21.679975992105586, 69.45059726719327, 34.422636559327984, -6.412582814089873, 51.759521559485016, 55.17102649100929, 20.091452367148086
144, 127.76775873735589, 20.914092885959953, 10.046600965294845, 9.652003314242805, 27.34217287280751, 2.9618639134265, 34.93497283182387, 13.065785282414405
145, 116.16507261938261, 24.66212420320536, 47.19105233980409, 105.5551770835251, -36.945531748446854, 64.06927490084342, 88.48876952914779, 2.9576170879984076
146, 74.8413357689165, 15.355094207011529, 22.975039237642708, 12.564141814182499, -1.7547995418537283, 33.363022085893355, 6.5182065417838695, 4.850510329935189
147, 122.89813736881202, 10.400675578938554, 0.242360846888966, 16.8590765603351, -3.4445290100619133, 7.794068907713657, 60.67463751768014, 49.13818947199605
148, 134.90068320000725, 21.47026263995175, 72.19880476164445, 87.84890292701574, 21.396482403183583, 57.51468843115447, 22.494622624674903, 20.40811702987327
149, 38.338475920640036, 23.88234836042796, 29.43341989973882, 75.81654486534929, -78.9686075959108, 1.2445526773444562, 13.854189535747564, 51.96909467078755
150, 160.84886289797106, 25.389208972122034, 82.8561335161427, 89.98679912373294, -33.44071237132084, 69.25346000639581, 39.71624762059744, 46.6212229207734
151, 29.579422366947178, 12.052157009130703, 12.579896687304812, 3.5134022261187248, -65.00669767451234, 83.56068917518476, 60.81893340069487, 34.08133395120322
152, 15.260388832318329, 22.159772293339937, 11.12900181290833, 66.80577252426957, -53.4380247328515, 82.06960218172343, 100.14785632315477, 84.13092228102809
153, 153.71314336059837, 29.993919928678572, 76.31594529574636, 3.5339156441227217, -53.73936981891503, 36.72098982096863, 80.0341901151601, 26.291977406921532
154, 78.22977109099195, 12.04034637462926, 57.25429609662616, 76.43312991000928, 18.149549154803694, 62.623080829263046, 46.62980582877144, 64.16614559691688
155, 183.26738222613758, 14.709771545510964, 47.97625318570888, 101.11873918994331, 34.966805909699374, 22.047988277645928, 69.18463827833081, 79.5857905704741
156, 22.31370607834635, 16.582165859836394, 35.83263625072853, 96.02460706024145, -64.0049155965537, 43.78772977254683, 70.69604475802608, 45.00678367890687
157, 31.37335011771287, 18.73961520619229, 59.1610127412667, -1.0881776870105249, -37.46877917309105, 16.279637242440227, 59.80427634668756, 16.580736998646948
158, 31.945553806680955, 12.595676917331073, 54.36195718039548, 36.36164589971432, -34.57339008811038, 43.65612209185166, 21.795081553366533, 49.19691295794486
159, 148.89548829614537, 23.87943395704056, 23.10676970953807, 10.101797483791174, 35.531563211419254, 42.23374033242515, 105.77861490329585, 19.842516103515138
160, 146.16855977464292, 27.997328500466672, 38.72406325681926, 73.710727319919, 18.830005139707634, 57.83734941485341, 106.01957271384148, 89.25774344030249
161, 49.26644520466217, 23.25966120227325, 7.0880144448785956, 86.84909777997615, -83.11384313479088, 81.11866611660393, 78.57143611237288, 25.12424897353869
162, 87.32146751619396, 18.95874287687503, 49.15868463033234, 92.90503334026552, -6.40584252857154, 83.4497272400281, 109.54160170424777, 18.82202770801155
163, 39.01823055318711, 22.167726789843787, 2.958573586272113, -11.258822730672907, 44.80889593225436, 31.690634628081416, 83.25312762240873, 15.262989691126945
164, 95.07895719099648, 20.707498254313585, 41.9780271507619, 100.52377871194868, -71.11604956365446, 14.640911160550806, 10.138409853756354, 83.2707218588072
165, 70.35150796842301, 26.069877999099088, 54.48884466003214, 102.64679226442578, -50.466166672481435, 21.694639819487506, 83.80712317654299, 23.070628071802094
166, 149.36060586991857, 25.272791356695954, 29.170522589184692, -11.916995482108126, 10.669155104485952, 87.2343858869175, 43.39565707944053, 30.689802487176767
167, 139.3514505436106, 24.363685892016548, 22.46884583616105, 28.136810485623776, -15.776617060657259, 5.020353164009349, 7.866073354969213, 8.137437917059225
168, 24.731720832607955, 12.49955457729897, 29.729748762486803, 109.58234344326253, -15.270815423750092, 14.950568927254366, 39.70604278813076, 71.01226528008458
169, 14.367870912548188, 23.063689345673772, 59.106851945696036, 73.34124069457192, -44.77153202166344, 79.32054005485517, 30.6275516649078, 52.330415073246556
170, 119.48517328890398, 12.179059829516452, 28.288608064780856, 106.7800508077937, 46.442479248551024, 5.16729879356128, 96.82600659126673, 38.59365361311831
171, 157.3498935925117, 15.846031778398133, 18.023486736144356, 75.3470583702559, 30.027698000552107, 36.656715419063424, 68.26853455945853, 52.95266431853717
172, 94.61634534855196, 10.053245477052656, 47.45934574104206, 57.22389569373803, 1.440807852043122, 72.35966390993543, 94.53083168531163, 65.26477163151759
173, 157.38155347691244, 25.976530513284, 33.09366606418301, 13.824415982092791, -46.22546326051928, 64.06259378501784, 0.6005128001165227, 87.29458077077172
174, 167.76844268978897, 11.056734653542048, 17.153649954580647, 3.5802501074683057, -49.741078718394476, 48.76145241603752, 56.56228763869711, 44.31121751447458
175, 79.44352317065301, 21.20477081212839, 88.77304341044514, 27.930429859196103, -9.70427945043403, 15.827473590321379, 99.65911133086865, 26.810747620189133
176, 98.47443909952597, 15.221505929483413, 32.487290663764746, 106.28397378082036, -49.57746362299618, 12.557328462591425, 48.417947245871225, 6.200846954535955
177, 167.02659658825783, 16.548743786797147, 2.0145032108727055, 101.2561448779028, -12.886441576345177, 79.25046559849346, 11.956859078017196, 26.344502276288793
178, 180.06988313432336, 13.843675938245726, 63.269278720218665, -1.7888766564855416, 10.973952359268736, 36.004978913026356, 90.100151212076, 59.553954657070875
179, 118.84491841514631, 21.080820804638552, 52.91271956468606, 6.884383267384095, 49.67451141032131, 26.343373617700223, 89.39099952175448, 16.38672328951928
180, 141.373208009496, 12.733051059856304, 9.878243024900138, 14.685801406184352, -55.60908844676807, 79.6418795138493, 79.50148565878236, 15.968984946028671
181, 30.93110722656045, 11.331432273163022, 77.94682140586346, 42.36991667372317, -5.413353244034212, 33.26022423927576, 43.747073344495675, 3.8364933524029308
182, 68.34717357019164, 12.978090315887862, 52.51318083169799, 108.74174452561164, -77.86547159761987, 67.15404382522061, 13.408843099184837, 87.53851885772283
183, 37.39014754031885, 16.004811896791153, 54.700500472021844, -9.013193247808852, 35.3250585693799, 14.711226203574771, 71.1783615082248, 65.915605731301
184, 157.20775813469396, 15.357895621835432, 56.71197825248511, 72.97393611970803, 23.229136383345505, 8.232367230560724, 3.3132426660974583, 5.271587724452015
185, 58.98386488455352, 16.076666234494784, 9.634635877765188, 13.339654375617506, 30.246395608297913, 70.1009434259024, 82.55022173632887, 44.986890211897965
186, 145.4517202708827, 18.44049757188213, 37.36651583460991, 85.7765707154058, -70.52547429135198, 23.364177663192837, 107.0917881669062, 58.44074037885247
187, 162.7975958576146, 23.136384964182806, 20.65534707346788, 53.27122576130033, -55.15237538845918, 39.87431574868839, 102.79017860711342, 5.37292109175457
188, 150.43931962221595, 23.923278820255238, 52.30395940586998, 81.10845437739873, 28.787665497848064, 83.14696463150342, 66.11787106124564, 71.85580329058659
189, 64.75766514956862, 10.364988386636089, 76.78534450812364, 58.909517031326146, -2.128391741086304, 62.03922895758977, 54.640962283315844, 31.638696495119408
190, 89.0213243931047, 20.60459070747947, 60.409052626330826, 8.087114434238984, 13.301200370029504, 80.69815122245762, 28.67223400991741, 22.868613245289414
191, 67.83394736597872, 24.789412697758518, 83.92193116558205, 99.52172892852987, -84.62213754660787, 40.58210724192143, 61.0612405680227, 56.497029408811144
192, 145.61853431768753, 26.438650096519332, 33.12030962672101, 43.345487426321405, -8.23328597408896, 73.02775141403879, 77.07895444130456, 16.61094124935707
193, 169.58853787284372, 16.44573146436131, 72.56780480704862, 88.0620579150217, 46.41073335429792, 61.516721094608144, 16.132001170126728, 14.491710838969835
194, 61.65917062803631, 24.583529300861496, 41.24209624520837, 93.54166343310283, -33.19597868891925, 67.0011705704005, 3.3193946690522766, 83.25428926623927
195, 47.83682810039394, 11.792861708110394, 15.773972984132978, 34.058017922089235, -71.96958143323275, 15.750278060294024, 80.23694967086493, 65.5607900393472
196, 169.20553218889097, 26.8001911318049, 52.53669298547788, 76.75703440675987, -46.63979881126868, 24.295535956628036, 26.906314660250835, 21.19399363619169
197, 63.855571084137644, 23.199244051207256, 47.64877548410269, 11.807595604156486, 27.79980546575547, 49.007843411509334, 73.38590439970267, 82.08689519038289
198, 48.30478177139437, 23.8680350964452, 87.7189835697169, 7.553565863033211, -53.98980741797353, 38.816109280707636, 68.8247118722818, 84.66072744394049
199, 157.3867914167288, 11.065569257019078, 75.33377586567252, 96.79532601768304, -0.022882025161905517, 66.73426200234732, 70.1665376733755, 25.125676167421513
200, 89.38358353664269, 14.301405624823005, 49.0037284345769, 41.322074328587554, 31.67478543430064, 32.351292064810224, 30.84672947602689, 67.6634828945205
201, 172.7181609374407, 13.897285126088772, 13.84586204867021, 73.53858618987387, 40.551748258866695, 53.48561706354835, 16.493694298700873, 1.3284705355323445
202, 159.71296243679024, 18.16692038371724, 22.74522791502313, 75.58383590709145, 39.4291317995729, 25.20497651897766, 46.1920801257533, 62.32363929540963
203, 23.478381774709263, 18.631343700368404, 17.526124823473715, 58.919980386564745, 21.35651192585169, 36.64385934105878, 34.44166153653967, 7.84353828400656
204, 190.2417595647299, 23.228316920127178, 24.086889993558973, 16.168650213780463, -72.9920534789524, 63.22187824424665, 89.44996094391362, 32.71690673702442
205, 110.00204447342769, 22.56905227777529, 31.89342816738572, 25.0866393347958, -46.944859872016934, 7.237087753656102, 88.69115196343535, 85.25154062463992
206, 33.07986768937782, 14.197451954779336, 5.7035854480165575, 79.03175799928205, -18.268919887416903, 12.358319566340935, 56.41127868099297, 15.969994911160118
207, 86.76539199472984, 24.508175192875836, 43.51715952440025, -0.9151094282599387, -4.5760228427233045, 27.21841530974625, 104.85189690833363, 42.99227038242851
208, 83.67954699715621, 24.421669273510876, 47.706310160949776, -3.198686146569439, 2.796722897435373, 38.19389804408328, 26.22478075100665, 80.74358064266131
209, 41.59431898328485, 11.429139842049036, 59.64198296922585, 4.459677220243595, -61.43887068807329, 70.47037405975345, 98.43553976051678, 14.01873506732043
210, 67.75491747324256, 24.457309464245633, 66.85564542123394, 58.257408405666396, -73.71923293861188, 21.84580100337699, 84.90837763392202, 62.52529703004626
211, 147.91833528580258, 28.075449481197406, 53.23453337609247, 12.43340393478471, -87.22397874130245, 6.687830053364316, 49.520378675063405, 44.008994576559324
212, 38.23706816333385, 13.038273150130218, 41.36807982679629, 73.42920968594123, -60.1081021566163, 67.00658382775059, 51.042665935145784, 74.6488186129909
213, 111.84005111807734, 25.115738144444215, 16.18623776661494, -9.620167636749745, 13.20707248034556, 77.51699205687714, 72.4626167432939, 20.526418106916275
214, 54.40407219741278, 15.541854494305127, 66.56372040086357, 32.120240538826536, -45.80156021866963, 32.30604398424848, 84.49384351879714, 39.54355693886336
215, 195.69052395188524, 12.175710298351405, 22.825709481460542, 84.19570197373177, -87.88659735607312, 59.71269875157122, 25.894002875569008, 22.267932693825607
216, 79.12140089844047, 24.740416322680467, 89.77720985089447, 59.71537195903558, 20.935376517432488, 69.46816712285532, 47.532860746585236, 69.81816415560272
217, 89.44989653293308, 28.099261524190272, 42.020759213380146, 24.068640042005413, -11.944002513205929, 78.6473765971772, 99.2430650715081, 67.05840406933098
218, 75.32657537983346, 22.409061108081968, 1.5105174226048623, 86.96806637594622, 4.137672553869891, 47.38778332460992, 106.57454097724192, 72.4195094451125
219, 46.420222170136995, 22.370884249656925, 80.88721953640821, 21.3223959070938, 1.4628977607004856, 9.341637419613615, 72.28528632583689, 79.78674130882138
220, 178.09587684051266, 21.18851555012652, 4.586982471385524, 81.4037908131762, -49.51787209768372, 30.473861335460082, 84.17381235156535, 22.37446217086882
221, 118.05245686119814, 14.35924240912778, 37.56494712429232, 95.02172132595689, -24.32171730087674, 85.79150782020442, 66.88563000137333, 38.575262586744444
222, 114.27156688400895, 29.70813722206622, 49.27908637807002, 95.16651675343878, -10.094736580618543, 24.768102372780792, 58.39250695469978, 47.01630373100327
223, 107.45751328849855, 23.200274004039372, 45.653198256759794, 56.32185599140783, -56.82722505096582, 77.64210276676911, 89.47046546187632, 51.447991998860985
224, 188.13856835861202, 24.49522698101208, 47.65082836167401, 38.18000423769929, -38.06398490401902, 52.5584340808766, 73.55984022244968, 77.73383461626379
225, 185.7074806049516, 23.820647889231694, 14.20274710118729, -6.2873595108041105, -13.866163424817316, 44.029417899613385, 32.62620348927554, 38.74397623436843
226, 90.4642889168678, 26.735098845616815, 12.345302969365555, 33.66024053808821, -0.04571118435374899, 78.83868019880904, 87.49448723161484, 26.651705920945552
227, 128.22580598477987, 23.089975917760107, 27.305374574935893, 57.68197765797489, -54.191168996923395, 42.36864099627103, 10.714273567118385, 80.73507522763421
228, 65.86157574440097, 10.812601301225879, 53.861266931303334, 17.100211084140074, 2.2215363707563394, 42.50365980934621, 46.34867122415387, 84.91198900585634
229, 112.14405235793849, 25.291650323790076, 23.84056268770946, -7.197605654748237, -77.36279786329673, 70.35634243513229, 53.95283901714221, 22.32707805376252
230, 172.13788914239808, 23.916501055106686, 66.97326078518059, -2.748975493653562, 5.756258536826934, 80.42252204982837, 65.22575819080399, 13.641111062798204
231, 103.77986186401236, 13.859607677870954, 10.364265473365302, 106.82822459376573, -85.3784216318505, 18.01620864587578, 0.9134030736895715, 54.77548857564193
232, 41.21684502754746, 29.08266409529387, 81.94735879763998, 11.15903119104044, 38.223869250185516, 68.45718545484416, 84.24602056303813, 86.67870951450053
233, 155.3889939901262, 17.11937035009796, 56.15960120604201, 12.17061893674524, -30.65901209525321, 26.19920219524298, 25.715015942542962, 30.462873898130553
234, 174.2704186681878, 12.381412404709259, 66.37109552641489, -2.601805862758896, 22.55638814391043, 64.06669618904282, 95.95749194975302, 28.336303716344815
235, 165.1888419921013, 14.763771995226724, 62.34161420409579, 90.89170048600035, -11.350011036165697, 79.23536287587848, 64.08617207637863, 3.4093059223177695
236, 135.42622166946137, 12.900724856669326, 46.718570298439644, 17.723353305372733, -34.39915221247921, 23.995316980194595, 40.95245107393909, 43.823101213899726
237, 99.83640253307267, 21.24336692100762, 42.73165053654347, 42.48759070469795, 48.70186927584044, 52.66990327918792, 44.31989532705972, 58.26195108117231
238, 183.41078503051114, 27.405023358842257, 80.45459811634588, 80.96023385648124, 22.460436496854143, 56.711993632648294, 53.249885051745494, 35.802045087113605
239, 154.6796770714522, 22.935349398442234, 57.83247055242277, 50.96756139805491, 48.543599965979666, 25.529538999630937, 85.77153359902131, 70.02513614943855
240, 49.75836650798981, 15.934019461460656, 57.87187164792493, 54.48553473827582, -86.32150448674696, 40.50716601550025, 18.64131309227599, 2.953207927216146
241, 65.85242561926387, 23.998989640981844, 84.27042273020403, 62.147594366755335, 46.148730063569054, 52.61831303926268, 0.30799115688411205, 18.925450319448043
242, 10.04180392489284, 20.308849226190972, 67.35376874884717, 6.852208628670844, 35.31201256380375, 53.48580294785806, 54.67463552893337, 7.010872104437596
243, 124.442727795635, 18.387872563299446, 16.59207691792966, 57.19151274592543, 34.862346135019735, 10.414680266116354, 100.52525338971212, 61.07790238636234
244, 169.4750359295133, 12.977812235626585, 32.12132540602941, 76.81277247451763, 3.4875128419668613, 85.37006784159978, 90.31406574949841, 16.37162533092588
245, 142.0323523896399, 26.810112197407364, 9.026382361356406, 105.50169878679971, -48.94007965126329, 23.993529953868766, 106.61539509400838, 17.887332193043257
246, 111.05178808816181, 13.80949124175407, 22.241830645186795, 72.16687702853365, 23.564730229168774, 19.56906067362277, 41.11710980723039, 89.76494433774886
247, 183.72648869345068, 11.312294272245655, 33.31935978391944, 5.102430335452586, 29.109254801324624, 64.63787312402357, 4.306063330000081, 84.83346496418446
248, 36.451201141425486, 16.030343366329635, 82.30094860264194, 101.89742982749775, 9.787175522419147, 69.01189846791075, 15.902992364739195, 36.852658467975715
249, 108.17043834816536, 29.3684219970502, 47.959039420410946, 100.99462919895035, -74.36997764288186, 60.86882316544693, 73.88645763899729, 55.08154369536942
250, 125.23458711049732, 17.860683792142808, 9.50378942917039, -7.3183773099158005, -67.49196436860764, 80.55837756462044, 108.53816190906421, 8.286223154445468
251, 13.731378460051765, 28.490212722805932, 44.4054538775053, 83.43258791003188, -52.3104432225244, 70.78082757816135, 61.882841295979176, 13.950015842325334
252, 43.97737261653102, 27.855681630484042, 17.51115989164839, 102.90903067982228, -16.798223735317876, 44.38352806405182, 43.779238795020696, 17.68121198713587
253, 95.83413571359243, 10.547295387940725, 40.089640949812406, 56.19198909972987, -47.03840179857965, 28.613462222000756, 59.2691019073349, 51.39341115429992
254, 100.26110064466458, 17.771981799443033, 24.869512016892937, 28.538184936708, -67.16320914448637, 24.996708464370734, 18.46253985184407, 11.033563233617093
255, 189.39713705524682, 13.730219600354435, 51.229679781078055, 32.70767361129839, -52.97217137953525, 67.05031865135761, 64.00613458462416, 89.04819835217289
256, 122.70923889979652, 22.235489011445573, 57.8313352042147, -7.950069200708648, -5.913896996617723, 4.99663425878445, 84.33406619290405, 21.576175246331992
257, 61.172211079183185, 21.118484076399525, 21.104931500945117, 38.80238947067902, -5.641319887085245, 76.1278968831952, 62.27101966095699, 39.91128765440421
258, 80.96558401860581, 24.786047670066278, 83.4362239287795, 65.37950323096196, -21.498654988663603, 78.6019934246137, 52.02531822713237, 63.15039567054658
259, 78.61829811702906, 13.753029168999158, 70.89618981708472, 83.18343953205449, -23.14857778262923, 20.379570568445605, 95.2494518810204, 48.691255222022114
260, 63.194738591825065, 12.137381108947615, 60.48809042173337, 90.54893148922578, -10.02404509326226, 22.332698595548237, 100.39732661216333, 54.29527991788431
261, 106.40877075445695, 19.216358248667518, 40.35041464089929, 53.471551541039176, -85.50399677758618, 63.79333756782226, 82.26428001060873, 83.7454766199384
262, 173.1261192966305, 20.46455252023155, 1.9322434801467916, 22.942539611208915, 29.240529904460256, 17.53173585099243, 93.41988927193012, 77.51205280171487
263, 27.33380733652121, 13.153061901531409, 83.14683433988317, -1.012349344855135, 12.142220555396534, 50.61289130801644, 52.544812432018055, 13.447620203332386
264, 197.78588083499054, 14.90536881169961, 59.04353011886899, 77.01599266253865, -58.61799058890472, 17.240960971745903, 21.593702272391052, 46.61500825654021
265, 136.04308890854927, 10.135627201371673, 11.782986827757497, 51.89327738830941, 4.547258695171806, 46.24810421672792, 7.195905326294939, 57.430193089387785
266, 72.99065198964645, 22.378681651208623, 53.611100390403614, 23.702496495403615, 17.731654595355575, 1.9414635632319566, 31.552077493533165, 1.052292581049965
267, 146.40307484207614, 29.15734111078734, 56.74626743538628, 12.340483305285728, -76.07315528977702, 82.90756925379564, 78.63891658313217, 69.19649629383125
268, 167.29071019101664, 21.401621924976382, 67.47601888915567, 105.52322779919018, -31.537813604343604, 5.227010483781762, 68.10491763099708, 55.873104678512526
269, 187.65060606162234, 19.088019135406743, 12.947455736423436, -9.889431791861787, -62.21147058997774, 62.815825359526166, 66.30297503562448, 80.35922663930502
270, 58.365775212306076, 15.796610065219074, 68.80988727866168, 22.154364165182308, 28.693007993186427, 15.520218567369948, 22.880739128359476, 55.50528680739661
271, 114.37780295766507, 15.268409488082984, 70.27758669866897, 107.20120646171613, -37.773631975763124, 46.20207899265306, 7.924664929545539, 20.74093893585297
272, 97.0724254556029, 10.1115507923128, 20.442014192096924, 56.36221348022559, 49.18287924380251, 44.62007722107954, 36.70655708816652, 68.36715343133133
273, 69.06308670733199, 27.021721019473123, 37.257664950592265, 38.492087812023414, -3.523918964021192, 69.00978094505955, 68.87798094165133, 79.01899199971491
274, 106.28693415432399, 22.925361600518073, 11.127833525720588, 9.536480119378126, -67.3806818544707, 82.01547383330092, 24.702534377137095, 60.02890538897043
275, 156.7797325309593, 15.178846558941078, 53.57398984720264, 1.5357424036098575, -45.81323323440847, 56.45355773103513, 1.6362103252221405, 17.937904873363124
276, 180.2979527619593, 14.906631480201076, 25.366853529728587, 53.55707583150807, -21.79436790099797, 66.02599865211938, 60.99804936633178, 75.72443739792728
277, 132.09219568049755, 18.59189524171085, 36.90339679363666, 95.93678158331407, 42.23124907948883, 40.033538958070125, 90.1990305836612, 84.6490249277737
278, 124.17788950758045, 15.452049073231848, 21.312407015508338, 99.46728727623402, 29.74298189050107, 88.11167319927982, 65.96132988928022, 52.431057187870415
279, 13.417291024870254, 26.12227012880759, 11.491616946677135, 41.4716677726611, -12.691280987088902, 11.267091256577654, 14.454318103465999, 4.362352361267343
280, 162.76648602576356, 22.97721857935451, 76.38394874244541, 3.9012746956868565, -83.82628407594139, 74.96952058060432, 31.42544916442497, 44.6941439107637
281, 22.68094653658024, 17.876342720822272, 33.30718795783306, 40.72253253517969, 33.67536358079214, 64.06542114234891, 96.14962835036584, 73.59635211419572
282, 44.386317827837104, 28.83927839455469, 0.13242442042774805, 22.190299729415493, 22.598444706005438, 78.69323435389586, 96.82963874844901, 84.71213785185185
283, 117.73675630287498, 28.027208296405558, 81.92825761466524, 63.37565593661631, -2.5673189865009363, 15.164393045955944, 73.04117729420055, 54.77530190259603
284, 92.97367956222926, 28.41918004767052, 66.22537328685334, 49.014215934322415, -8.531067096423287, 89.71489314589071, 69.93947785519798, 33.09271401575516
285, 155.68986470103536, 16.2226061071479, 30.266794156427338, 88.4947292323521, -79.63386663449867, 24.5476178503544, 29.753907256556445, 22.06696102993248
286, 174.18907774316725, 20.634479524947146, 84.32289012185191, 97.3446856533673, 48.04943237040371, 85.45692432148232, 58.341291619210956, 21.32604086240684
287, 106.61433059006414, 26.182120953278584, 1.5677175959959089, 70.49126594656812, -20.663353325648757, 71.63239360062602, 75.41526740993775, 30.656905685802684
288, 195.3877943091158, 24.651304833556335, 24.236386031400187, 43.630965652309406, -0.27252448770578047, 89.3448857135384, 96.55935697188626, 10.310041128222775
289, 173.4291778228589, 18.663696699062598, 17.30625539935476, 65.32252798119814, -77.61351216645915, 56.40702857758782, 23.981789594428545, 77.27095208930483
290, 128.20698102209872, 29.53731047140647, 79.89507203352404, 55.98687368496807, -86.73467914887455, 14.77839569824846, 68.4306562897659, 59.82861481391632
291, 133.05960706541418, 26.56131932767447, 88.97042319662533, 12.346094304517923, -68.34414140920983, 41.752763829905966, 68.2100599919471, 88.32777349405825
292, 122.30857144945143, 25.200075067542542, 63.328721617648405, 24.38633084074074, -36.78625416208749, 43.275037544427555, 94.51438003145171, 46.98364727508204
293, 56.093003529256436, 11.994688576137207, 79.0180650219546, 11.016599975879705, -83.8983008121967, 1.2370215450561295, 41.03167166030953, 65.78154595678784
294, 146.15396361044364, 15.786568265280996, 76.3977401195125, 49.138613740247095, 24.145238108919017, 24.715498138787712, 26.99131860335716, 65.1027001400471
295, 193.42789844818682, 10.16211511008491, 45.085399354759936, 74.2704240049712, -75.12344775749537, 15.376586226250708, 32.93772882871243, 16.737424667136462
296, 41.135438342727106, 11.174471674204485, 86.07491244640187, 70.45281825604387, -62.48059255805785, 79.69468814265608, 60.59983056512052, 10.151295013794138
297, 163.44693759829065, 29.571527397604243, 54.968113353191626, 45.745354742144, -79.16231940923609, 34.18439618862022, 28.354260770915733, 37.21935155176628
298, 137.93845501730868, 19.71788825513808, 57.81250618496699, 13.6686239729667, 46.77407407176989, 15.26698798671724, 59.06214187569734, 75.55443483497417
299, 95.25336225547623, 22.071949692261292, 66.96935893022118, 9.497982379736545, -25.008208505789653, 88.74757204782793, 34.08608429815647, 19.97504605313487
300, 56.1333212759813, 16.969201598330528, 14.956140744772844, 86.84918379457058, -80.73757182533191, 40.06905524209346, 66.73587845064941, 60.996913459324155
301, 110.91201285597616, 28.202333056881336, 24.315016168366167, 107.54138654423029, 40.32111195840515, 73.40759136827342, 37.554553544304305, 5.978611584027195
302, 114.6444819220909, 18.09075613155305, 76.09168650122251, 67.8119822740262, 11.397289519184541, 19.372576139617095, 32.412679858246165, 53.155107135936
303, 83.35080549675543, 16.992372372201668, 76.34561052916239, 20.25923740156807, -50.182257902188844, 86.63069787483279, 42.285781909277425, 74.65317771917401
304, 40.54332341596889, 10.78612547692989, 47.64151300953881, 31.729468227820327, -2.1700836501300818, 47.59611388448654, 14.361768315125872, 88.70618428703024
305, 106.0397065277275, 29.916729074199463, 13.012612305371388, -10.602451286204497, 11.998447317171397, 8.287647935255812, 68.47060611107685, 39.84048656560853
306, 69.61484610475503, 26.4873019048982, 38.130106724779125, 30.199510401406144, 1.4221764537557675, 60.46259623771854, 22.181101521080112, 9.550239712311575
307, 181.81992945593112, 12.60896110205896, 0.01390910707762316, 108.03008992690653, -71.79420595879883, 55.90385085529331, 5.005218268083482, 81.67628794217596
308, 167.07839200032114, 11.9904193383381, 17.092601852557536, 81.6459834012145, -22.93189222717774, 57.943939144905784, 57.59378354460273, 69.92983562573151
309, 71.35666221409787, 25.673213648841255, 83.41266610752332, 6.727923932596666, -20.18614073735263, 69.28219354778778, 68.0106825159143, 52.74322439935023
310, 133.63461065970085, 20.77313138625129, 21.071604337947466, 10.305643314155505, 24.22396368572808, 18.52811529354652, 16.658250814320443, 12.669059063126044
311, 169.14155703554457, 20.64691032189664, 29.152211379310778, -2.199326594040704, -16.89102506950782, 80.51726779259465, 30.5082920405889, 59.39840973608459
312, 131.6517159644544, 14.582300480805351, 53.53120608514937, 85.21450370807231, 20.006078304433785, 66.14061104823726, 95.35665822273141, 65.49908065111946
313, 55.98005536384267, 29.10925789884145, 8.738983023345774, 10.96579841309023, 44.70909621411953, 67.99741539061102, 84.2986329069555, 23.55338309525796
314, 174.0886098603702, 24.133567969525366, 45.486306865129656, 29.935127377862454, -26.427918461706064, 16.95764129189285, 99.39822132845089, 67.54728144107223
315, 166.43279030734584, 14.855544464280271, 82.08542964458114, 9.049092359711711, -51.125093677048, 33.153626109509155, 75.62722030707802, 40.223163467117296
316, 43.623968333516736, 12.574281929245066, 61.12325201328694, 33.66245095177057, 47.97536039452109, 83.26952773245952, 27.28951132759193, 56.71944488769484
317, 60.34867383873966, 14.706325446421268, 20.39604800097421, 51.660177976339256, -15.32349303608497, 30.58028585738495, 21.760324694939676, 50.393473131030554
318, 178.11802928404703, 19.041389648105888, 76.47990649616085, 9.135317651374137, 29.345476704739426, 30.552639821498285, 15.027782312136921, 1.7987414337284513
319, 108.50246722991432, 26.794374352462114, 43.94648968046338, 82.59792623562869, -75.66940565283126, 81.50350325116737, 67.91163799759357, 83.01884156352762
320, 88.5671211536151, 11.30137856609488, 52.15467672904899, 81.04330119491848, 40.614010958445554, 4.268211797633504, 59.654888207538754, 2.729418760994533
321, 32.645282811047636, 12.303860227226345, 0.04147500066146281, 69.56438781210298, 13.508965594837264, 71.22101700441063, 37.403983029997505, 15.240363229954664
322, 120.23246593569586, 23.416695908192413, 75.6249035133562, 95.9931666192522, 27.19028640518739, 17.01663953337775, 95.39630422348812, 35.49145467574159
323, 25.709551569505884, 11.46308197566465, 84.92618193355123, 27.575758187957423, 5.200457356184913, 53.71344788748632, 65.60356182520312, 72.4015885397986
324, 36.56471550389027, 15.627648556262736, 50.296673380541, 33.74690709736746, -28.096256879060974, 2.593832238162416, 99.43662995998596, 59.53963177979566
325, 46.4678930854355, 24.555966859850436, 80.09001994274139, 29.533431189535037, -10.502614110627592, 46.24425339563369, 32.401253927993054, 80.70327630630231
326, 124.5685853159094, 25.86998795548206, 23.76698648863447, -10.901753251306106, 37.258370824140485, 35.67484076463263, 103.84119854140283, 24.092115098416265
327, 20.962957849540377, 16.39348601183159, 29.032464573652273, 90.30321132454101, -85.30186203356689, 0.12132293853025057, 27.27114103180877, 41.378671521237656
328, 27.232965669217393, 16.74908737572902, 83.84055691413033, -2.8609558714232257, -3.763945279012362, 71.13024236029526, 67.69861073924353, 27.061206817351742
329, 150.6712521083876, 26.431265517863242, 32.109483528666054, 64.48161633643913, -44.81674669945213, 82.590828814239, 32.346913534667074, 82.36470061111383
330, 155.80210686263763, 29.51937286621881, 33.74093234235108, 12.310610293890072, 5.221142190619446, 62.703064001240506, 32.94750300872629, 83.99307867699041
331, 10.115406875021884, 27.634920439637952, 20.946768492057174, 104.68595372819698, -57.244045578779236, 11.238809171654275, 49.956845183504036, 35.78220467861745
332, 181.33356152780516, 26.66749730883442, 72.24578197127393, 69.3325517158043, -44.83677276285089, 48.23083266048599, 90.42218231454348, 76.3734264245825
333, 162.32049426371776, 17.267629385706385, 7.400817059302564, 20.982381082844572, 40.86413940483738, 22.645112991824615, 40.23209530340811, 72.03687235612011
334, 57.85775517164735, 13.02345732788253, 62.399722830806525, 109.33781565178089, 8.560165771032146, 32.09389636186208, 42.058425298329205, 33.39615783296952
335, 136.1521223081943, 21.401559885502685, 15.982248796249666, 50.79622781619848, -75.01654332803437, 45.45271364153875, 67.91691291766435, 31.17974840204742
336, 196.18129281257762, 27.332553679894495, 63.11335939854637, 94.05067885837342, -74.35231578570699, 14.63079433433712, 75.17247917842845, 81.64014218059512
337, 17.0992379610906, 29.546057749436176, 27.765630989207303, 75.3016698193029, 22.939626226835088, 52.13218047448397, 78.35001482019985, 84.06038240912994
338, 107.34878360054569, 11.193743185595551, 76.69803475130514, 48.126362818409184, -46.26130248788716, 1.318408646817666, 74.23725901957431, 44.251712620271604
339, 71.2615289375832, 29.051176342928628, 81.33434662080818, 3.7215944939297074, -73.1057288161622, 79.46977096652842, 56.62033686008974, 64.81350080370702
340, 31.80126574372322, 26.22489409783139, 79.31971780749325, 9.77190722731385, -64.24976407912845, 88.30680144707804, 78.16882596302688, 75.33415507824732
341, 152.62125716894823, 23.56447829832493, 61.36880140191531, 82.33464865295181, -68.50810332377651, 40.1504653970379, 8.344183336778082, 7.297469986469725
342, 173.04408055940453, 12.66303252088128, 79.5635247579889, 39.54544724560322, -55.673514625017425, 15.535050016742952, 42.989170897691615, 17.706178223239593
343, 48.226406279775965, 29.207713419342515, 43.42900411152294, 52.72628927137582, -15.465077791303925, 67.87731329347272, 53.393761865655506, 17.662136246288362
344, 58.57169524070623, 24.315239552086748, 70.22612061115537, 16.957300003095305, -17.02279980232585, 63.337894785832155, 83.08049746815176, 60.51655284809399
345, 124.65885181012464, 23.181106924592427, 39.197539394402135, -8.019233463851528, -70.2649042835593, 3.3048503956463335, 32.44566543071351, 49.1621474399216
346, 85.8242027751718, 17.71810866001843, 17.186571743544338, 34.47618261871909, -32.84200704585595, 30.16927988317173, 69.65531939434231, 32.801179306514896
347, 32.90181605759169, 25.658169943998967, 35.439153807606175, 33.912248447215, 30.588151716181304, 0.6591558648396156, 78.73581412788434, 6.814723426843566
348, 76.45352172352774, 17.53231692198623, 58.38119363470194, 72.47229410108682, -9.811088582212108, 70.61702026267477, 68.0049615828387, 36.35666433580984
349, 119.01205344421601, 26.81509370314195, 15.030175296204796, -7.607924528836919, -13.994410192522722, 55.99727498555637, 88.48722438988405, 33.64459275839955
350, 98.30488955219784, 23.872495690410034, 69.00193306324813, 12.963185827947374, -67.12742876579323, 86.23640041357847, 80.42583102189934, 32.31042978982737
351, 118.95448925876909, 11.953368447349867, 81.01088261132391, 100.19972437831781, -51.16039734767678, 7.2998903334583645, 89.50599746591297, 1.087280449494954
352, 71.10994375268743, 16.812782921902908, 76.42907272036996, 74.6486320673221, 28.1219787760554, 13.191608286967343, 98.1667518469489, 38.21163309755515
353, 15.579783551741853, 29.447875301087407, 8.662704205867172, 88.78535499822877, -87.07865704379779, 18.88133457017279, 81.49312335977324, 2.8363720782559
354, 130.0958689531935, 19.58781932679524, 35.51117697189771, 78.31626907112276, -44.77641205838323, 9.511300272245846, 32.71561496683616, 31.191747205260558
355, 186.94712386550833, 24.782054380710782, 29.279069234779996, 8.336298371518971, -38.07142505816313, 21.9110335453312, 0.47926264996956625, 66.26320560661718
356, 87.8636534922616, 28.060744777781924, 65.31687853342942, 103.31235898776863, -43.2729992236233, 10.063630011397628, 54.576654404436795, 61.099558635414546
357, 122.27985762952697, 22.176127227410618, 53.16293284430108, 82.04632086932678, 44.37666684930983, 9.593519398976854, 10.620411254277366, 25.27978670001772
358, 121.7910775106124, 26.720445469164208, 23.43604666602784, 62.1843695591383, -78.30151205100623, 18.021817808550843, 52.42023853142382, 55.456566448842224
359, 28.283953785441252, 17.49974417201072, 88.23175574440755, 63.70694417836694, 14.840892964820597, 31.156155458815654, 91.62364236435883, 73.1475931326359
360, 194.711685355443, 12.081868832772715, 41.38140927880575, 1.7016867394428168, 46.03418726085829, 89.52018427232582, 83.31336029678968, 42.47825474735763
361, 79.87441719840561, 25.741095065191956, 51.38398944067808, 16.683562425264398, -82.93953266168383, 53.19646579895289, 82.9087148960956, 21.601961970872363
362, 102.1417337705999, 17.113081736093882, 74.75035665241336, 88.22392385055713, 11.77308407007368, 58.884626826772454, 80.30881996314322, 32.88088282528121
363, 165.1538567538473, 18.006964571323838, 23.28351866943845, 13.003831565130842, 20.04065625173105, 11.493327965844266, 39.66752205572902, 40.25222560672393
364, 137.3287495359277, 18.9960919419256, 61.63846197874822, 77.8899904018942, -16.712712680178715, 13.546204116150356, 88.34692584353674, 79.09825796341747
365, 49.58055740439489, 14.034197500262895, 33.80713532743155, 12.634306368068591, 44.719304715282085, 50.26200743843688, 52.72922402070853, 6.415813627100973
366, 147.8903182007479, 16.79320516364596, 79.56211836113961, 77.67173618042777, 0.545359281078703, 81.75203429451486, 67.11485291189611, 63.421206733923576
367, 113.40472571209604, 19.25777772527911, 3.150099754699174, 14.755285068051256, -57.67255533328889, 45.02831283657236, 47.62482882060627, 35.359018858847165
368, 146.50665513350324, 15.586519617583342, 16.411407377756767, -0.8501314712842518, -68.62329429623335, 28.170709390413737, 28.280685696738725, 66.69411173148211
369, 81.27472806519071, 24.68908196748916, 9.88974121219233, 11.474873052740293, -83.43406554057069, 77.43697304804847, 11.102873504478268, 25.282763462004826
370, 15.127285350069023, 13.51468079534543, 50.46722580562932, 32.82716058144049, -85.51145181498157, 84.48576602456194, 82.2399914202602, 41.464844218682956
371, 124.49741798911126, 28.859764626797023, 84.11952694816728, 61.878247320111285, -84.02753234345755, 1.8605349780085474, 85.53069486052206, 11.521569033055682
372, 185.09992957999458, 21.881831574419735, 70.21726676892924, 97.31895424030616, -23.527318519464416, 84.06508616393053, 43.99097881623056, 38.01319592711988
373, 33.25137821861888, 15.709800773968695, 22.74464966210438, 13.11960770047174, -38.2532647275198, 30.058601909234564, 56.97834754611757, 87.61328237937295
374, 66.11022675218689, 21.453096684320336, 20.72029647978743, 7.563696377586527, -47.77131255797151, 78.69081677070767, 26.429557820006494, 39.97645572751623
375, 86.44890207098538, 20.483830261537115, 16.728760063783458, 38.89775300337116, -19.823077906791152, 62.99425081226702, 31.660017632249602, 63.824154276811285
376, 33.5470804214099, 19.007283292435087, 61.163650291255834, 37.722812019224904, -17.460500361879095, 18.939757319878655, 11.206166944765789, 40.29185587346386
377, 83.14039755782527, 23.035523348536998, 57.6758880612553, 58.55327827677512, -56.33380764423446, 77.80825143849789, 67.27113515245776, 35.73293594403465
378, 194.0729697200539, 19.887383768319253, 30.36674381641697, 14.958753876440525, -72.10480916005501, 0.6677251232018866, 44.95961142476852, 36.14614136657763
379, 149.55310221080688, 12.386217924797524, 56.417640258346616, 107.26619786441748, -48.739172364194836, 41.898064326312785, 88.0089936958958, 4.137053547401926
380, 36.95957838066434, 16.94879267192541, 52.22335943705236, 36.704047148288176, 35.117234423726515, 47.5735269475631, 88.6122277269376, 31.787589609472995
381, 154.37697348859172, 12.12968332958081, 77.63505922272995, 58.06885021444622, -9.465531242244369, 78.81798082065802, 108.5208234638997, 65.84146806087519
382, 73.81276513047676, 23.820719105305955, 29.06112878966414, 42.43134558174104, -45.57710123699736, 43.83524929664487, 88.6052391429922, 68.25292741827649
383, 125.31334490939197, 25.285941732714306, 21.987517272933573, 7.8768546329918685, -26.30243321628806, 16.4525350446276, 16.699247392902226, 19.525191834393986
384, 165.34747042114577, 29.945048670110143, 20.9930029805577, 12.859434247585169, -6.3490082136315635, 12.756789061523916, 107.09422763085627, 58.76595057015062
385, 81.3891836072719, 23.38966922883081, 58.36944773336296, 28.157764494137716, -20.458879241639632, 64.84640640299139, 74.41934537942484, 26.00517316359974
386, 87.62121144391136, 19.20167049654743, 48.89730038986836, 45.761707064101536, -75.84915556900157, 78.32447121369994, 12.172654071439592, 56.63161260129121
387, 140.38877676318455, 24.00027530331679, 4.60556738169441, 53.83442321921257, -52.53278978184022, 22.580078904083702, 18.985126367601403, 77.79720988394226
388, 130.36890859889456, 20.595673816030256, 39.09876399915757, 55.89165240636777, -41.293101023426054, 11.763987091399631, 108.49403950680211, 71.50772824049277
389, 43.48289408297249, 24.44986042502171, 68.74687310681666, -6.501125478546922, -26.86106553679352, 69.95273005947875, 78.82570052108765, 88.55090022606288
390, 35.851804249849295, 23.702169878591803, 42.68491761067899, 45.380775173653205, -63.25552786008734, 3.0410463655848896, 85.59362692256775, 35.58704879642925
391, 197.9944077656587, 19.437884569520023, 19.74123871785844, 87.44677440623921, -13.860362353649109, 24.475855058485756, 37.27317150132941, 1.812875094308157
392, 25.257389743101953, 19.93449503130606, 62.67688469749218, 41.799693753128466, -38.579551032317745, 2.6664809863024463, 24.040738695623077, 75.00684727566468
393, 120.35108715529859, 29.515331084221486, 39.10951482999199, 22.66376188117556, 49.30590310277219, 30.251567765138844, 10.62215236802328, 17.110592568365636
394, 17.794672320673406, 27.197073546975105, 68.940925599114, 4.116173488396729, -20.778749823434694, 58.74429915781099, 35.55816933632001, 7.287044037476132
395, 109.5729816081086, 27.78686641895806, 79.39692382882473, 96.9364202014913, -2.901163595959815, 69.36131401382265, 54.10450207801832, 74.07411811915219
396, 21.120434162436247, 14.390847053326745, 10.776851747782347, 101.13141331468351, 3.577107317686668, 73.07151804013839, 32.92714776421797, 7.468348833488289
397, 159.2679816829387, 27.322271435658415, 87.83083511753851, 52.67167603108187, -38.99468765968522, 28.568721998182866, 108.66181678715526, 21.110258923999876
398, 119.74550685210103, 10.998654924472318, 54.13594926149498, 21.99127393288083, 17.78591740908969, 16.035200594884195, 27.767448038080925, 74.7372191942956
399, 55.902768202536926, 13.725622832254011, 77.29628549144381, 51.680744487423546, -71.65031044548331, 24.91211627972855, 92.08554565244451, 18.680364866716914
400, 30.100225879901693, 22.005270763573144, 8.118138593988101, 42.54961515691183, -16.178054670635063, 64.58715906574693, 56.710441337747696, 37.64827453525421
401, 172.7044391267517, 14.000454279478493, 27.77017299620867, 2.891803347238696, -8.986344447172868, 27.13042243623083, 5.576293786256558, 88.18270676289106
402, 55.742190159438344, 11.32575643652364, 54.87612359747151, 9.554989796949325, -77.2266005244798, 38.83228553050424, 2.3670614590177532, 14.84226523466807
403, 176.52499864636843, 28.13091803698452, 35.874446199758495, 6.4145915650018255, -68.42407577516326, 71.70501623301845, 94.03387742432871, 35.79119425541219
404, 62.62665239030691, 27.620536900570936, 76.50942919146885, 15.178564845261239, -87.03996279618485, 34.047999226683764, 47.072025715772156, 33.35044155177413
405, 29.333181337535212, 19.56519854728662, 78.37210098618617, 65.3752339844508, 32.79875306379644, 35.73960352118809, 41.11345531583749, 37.16098646649645
406, 36.72138418298057, 23.36018390985935, 33.212682374969745, 62.977295837111754, -61.70745278644535, 27.32216878245233, 94.48536193300261, 32.01064843267619
407, 127.47164048049751, 13.30262688769649, 3.6437317966677787, 92.4332339959073, -79.6581742863192, 24.331371026392823, 39.51350694982869, 14.146854630188054
408, 198.41337448591597, 26.936207291302843, 17.67438587144162, 92.73528920769542, -66.19997617616875, 56.402467152760764, 95.87313703719609, 51.22473922012973
409, 185.85087843684087, 17.516727064931978, 6.8068761783893255, -3.689706045654147, 48.404009836759144, 6.06005940085073, 52.57607377118697, 72.50600199755142
410, 107.01733942779947, 19.12135091638897, 55.21966159001721, 12.679221163273045, -41.00177112588006, 44.20821336262582, 7.826375574974085, 32.52828858252778
411, 60.404515310301306, 27.75929926284274, 81.51621677935866, 91.45388240265629, -5.731709566818182, 12.592406730444893, 26.385682238732944, 84.79090506096334
412, 37.94530337695532, 28.86563975576547, 25.245380793798397, 67.80368863337831, -19.867416638043906, 83.44963407583907, 80.75466519414047, 34.478165516455526
413, 93.44400491923899, 26.570390361131185, 54.29239417251634, 109.48144008625046, -49.13627225059398, 3.151935659677906, 42.378459873965475, 12.971371410938296
414, 46.07847955503334, 13.941775028801178, 2.114259836014055, 62.22639382011228, -60.994272447177686, 18.435005723043467, 80.68196686157309, 51.358595759156664
415, 127.46937551483396, 14.0726942081022, 57.362431044727046, 43.53279259649785, 7.291271941569207, 22.65983471992919, 88.44398910767026, 26.249601338783
416, 93.68607689511273, 19.76554889747104, 77.80931863238922, 105.41664103102563, -13.717422061594066, 36.69823737213359, 55.059170902680805, 58.46420290798546
417, 178.77029615525618, 10.822192010155076, 19.273260290875587, 22.734905260414912, -52.492542140543776, 19.335231849366533, 52.88568887610182, 67.6010163137464
418, 102.56341852392009, 16.784978789896382, 69.62134689578272, 42.00261644844737, 14.380330362360526, 67.50300356948158, 79.67492259988174, 83.18353460557074
419, 59.72845625384347, 10.005212764933685, 82.99870192168494, -2.987975959304871, -20.049321700442235, 68.41618512958733, 87.43753762074626, 44.06212490762024
420, 143.2056325502013, 17.514702353524008, 7.739748303685498, -6.3938692673937165, 38.84009291767168, 52.40911333505265, 80.13926223794157, 79.65346480893143
421, 134.4896381236654, 28.434866013795386, 56.66524895721615, 71.6912087257667, 4.114456178561269, 8.429308171733275, 8.261539217536281, 28.74764903260729
422, 132.9944786497324, 20.411920386627187, 89.2566509333358, 50.1269922657057, -68.77580102531999, 85.03299999940698, 89.94665182795804, 70.69409949898397
423, 86.03558790870122, 15.575056262072945, 50.36793069398214, 101.0794066265864, 25.77415078924109, 9.065724566380998, 9.02202918237397, 74.64606483691281
424, 192.75236460634122, 21.07871778159241, 0.9147866865649734, 83.7722609680232, 16.804356140181593, 40.93546135915139, 24.23982346099642, 83.35674759556888
425, 187.80738209002985, 20.895570724301564, 35.81935785971786, 53.19463473094206, -3.1845667543775993, 25.43752439015161, 62.385901947354306, 38.378207015849284
426, 86.29960550410433, 17.650071128717677, 35.58922142339782, 87.30187027568368, 8.72803041821642, 47.23127116070275, 79.6208261751877, 52.072300041758226
427, 74.77393988371323, 28.285396863378566, 26.196207012584946, 42.73483376546924, 30.609264895404934, 8.769244649519246, 26.69119923480357, 66.73740377716489
428, 119.99606627723598, 10.49692644266412, 4.412737224803122, 51.345300764431805, 2.1597198937806894, 21.97949526425478, 75.93922839296972, 24.38086030232306
429, 94.77689960536084, 13.412155667081734, 17.464491785848587, 0.9291751421350031, -59.472018513830754, 13.774394328704958, 103.80783662713333, 24.588069282928334
430, 38.39501613913751, 13.546986251540162, 31.64798872284314, -8.582564778416005, 2.146694191190562, 19.95024186227171, 36.82541656671274, 72.03350468894834
431, 158.13614253247863, 19.526226810274867, 84.30569043607866, 2.344199331635009, -84.22938007629878, 11.991806002804195, 81.93702817208343, 23.74035102488369
432, 29.027253048862626, 19.00973026037581, 89.79183884988922, 4.979789220640154, 37.37841231003655, 63.644188387530185, 50.29562674951016, 64.86582316496985
433, 120.17930570088754, 21.181099535176976, 32.52314899648437, 18.431135607496092, -88.29685596302716, 42.9524840047206, 26.486768384111137, 28.06637648597646
434, 172.77637374291947, 24.427955633885354, 71.0211729044415, 85.85938349641103, -76.23610117655363, 18.822570871032863, 87.02040937004291, 63.23195649112628
435, 192.56838683037103, 19.18566529720362, 59.61455931367017, 85.31537202802764, -14.66325035424886, 64.28294594969985, 90.6428341515089, 57.90734528001723
436, 123.96652857090723, 22.74047307558568, 36.5903753685639, 61.69446384447275, -86.1923294695254, 67.79212076433647, 106.8790967824941, 4.967300780064251
437, 49.756936901242675, 11.431812663114309, 89.79676875067778, 43.06879862436465, 25.810160165106243, 70.87748451783887, 57.24372263656189, 15.04077798611723
438, 19.888356025985132, 13.686108303072885, 73.96577317268107, 85.08103500990381, -7.4378909999309, 7.103326070750791, 109.89107875031335, 2.147812082356367
439, 48.44885881019249, 17.701626543553346, 13.952163439016786, 27.48121964982568, -78.71954487123034, 21.95666815082103, 48.99530585310344, 21.00577505427975
440, 128.71602546469032, 27.953047795038184, 30.125180475587754, 17.352971798571637, -71.6263436593885, 57.971265784838074, 109.76016613478703, 2.943268288081237
441, 143.46754215926353, 28.126082330649783, 12.063332643511236, 17.09864772622782, 47.822347026838685, 22.136491369554804, 79.62461503303311, 80.72904455899572
442, 144.78592695574125, 29.60010338230927, 53.66025415343075, 106.23303138630612, -53.9357999097977, 0.9132995846962066, 37.50663825427165, 4.998508877708141
443, 69.7454591763385, 19.75234140825753, 2.246587291661468, 94.46744322316522, -45.72886944111254, 23.583803799738888, 28.643198906043505, 18.278984912652415
444, 84.45303182366835, 24.898997229608195, 60.401831842577586, 35.366330136582434, -46.507915951514185, 81.28947923058013, 13.564046750252343, 12.728793939135475
445, 27.24236909078767, 17.854817498766334, 65.42425745618469, -10.504014815842925, -24.255215861831644, 12.287359814851522, 58.41690610155645, 26.918107134668634
446, 85.58804538189185, 24.17919874508035, 10.328530661516934, 44.238441107951424, 40.195349122604775, 30.118481968777793, 45.525356980067706, 57.15121050637203
447, 117.72460043034269, 20.812564334850286, 80.92563621911647, 52.60869827036976, -31.2493445421701, 45.62964418597753, 59.25164788265198, 76.5870617447269
448, 174.92538844014712, 29.136281108498554, 1.3595452558189458, 79.68660460699381, -83.43275138813014, 26.793297903536384, 67.5337784318649, 20.177179073704675
449, 176.6253826449192, 27.200185782188466, 54.79280949490108, 97.67648406065646, -81.59264079622486, 68.04262483931323, 13.05867975089588, 1.4154696779631992
450, 89.97631637618774, 25.40618046730561, 66.17527166683438, 51.7042994146231, -50.343109151969344, 40.74762480494003, 100.576518130646, 74.37204519385263
451, 68.52196172920509, 11.9932355769489, 88.47699507741993, 15.510007972069168, -54.008561095188426, 74.0088683693764, 26.480534486876554, 5.8858490621283
452, 108.46934957749325, 18.18436345563959, 6.452970058998221, 38.79790475159302, 34.286345773082886, 76.97999534412759, 99.56402971579807, 65.78416530960553
453, 161.79860074764593, 13.817104709717094, 62.365372032608114, 77.75432771936978, -52.520788258445656, 70.8246944031353, 69.40297142336351, 11.835482713654551
454, 26.236055320055524, 26.70030999650227, 45.46409498156299, 17.388591532820197, -14.45808518108521, 83.01294690927728, 40.057448238195754, 8.241657793821652
455, 62.65633529536369, 14.835462158316385, 53.22543660079136, 59.267073381815926, -11.324016541514382, 89.36846044176828, 91.37816556206917, 73.72915819988704
456, 193.39157326182408, 15.4129270634862, 80.95900027494297, 12.516687062098637, -15.397925422247184, 33.67458490102896, 42.380025955466145, 29.450452183944293
457, 134.61543215210517, 14.670220461337385, 41.805850624843586, 80.92161614929547, 1.4122320737097738, 36.840277453037885, 91.41060234515915, 80.36455379571063
458, 77.6381469891905, 16.73968773419871, 33.80631277982864, 48.68084886445942, 9.290768191931207, 73.08593170788234, 74.14224064262629, 3.7258929581111766
459, 63.068807378378416, 24.068564668754433, 12.389934491729345, 16.19220159814219, 49.4273403816681, 3.9278955229556485, 78.80082255123482, 1.8606015496820216
460, 133.89077135823388, 20.605439506444917, 3.0016025517584244, 50.612209551218754, 17.23061719136051, 36.025052824843456, 92.3463032192868, 89.35203919948987
461, 53.861342378327066, 26.21119935480516, 88.21192126719816, 68.73182736814783, -52.42126257042239, 10.395011293704895, 61.29583647681255, 76.59975766216074
462, 179.8073750192965, 17.842714181300778, 6.936385368807991, 30.959045449771246, -28.75531032163327, 79.35480721583852, 58.125071397118155, 79.92653817027686
463, 174.9855892651944, 13.487242151529822, 21.075055726209143, 41.06743552323944, 0.8472744217522886, 64.33125945306166, 35.80727338968731, 63.05020923698846
464, 46.82327474218896, 18.61219762084429, 63.22257173210837, 23.030175893032332, 32.22895332076427, 51.014824770916064, 22.98647109222003, 59.627336484755986
465, 76.88764574157227, 11.366563142952874, 17.636621563365466, 69.74763194326786, 15.1756427694785, 64.02057814074436, 41.95575757360967, 28.35871935033908
466, 107.56285969777984, 24.582282946611674, 53.14055555923652, 23.73835611794271, -54.8816764579655, 10.225421409610568, 39.134611693082206, 58.99675815828936
467, 111.44959711089615, 29.341957406526074, 75.70783701061168, 31.195827498788702, -27.416912394393236, 4.9258564142696715, 10.085543948219735, 76.28673412705372
468, 152.6127575681833, 14.158659232734577, 52.7269503481766, 44.147192941705896, -72.61324036744793, 82.2568012601909, 38.54473040361989, 28.268776259316834
469, 103.00498608173145, 20.742339085876896, 18.00076724084299, 77.01633291617885, -0.29196339168024116, 18.303342472002978, 1.2217431719709515, 89.85446791546137
470, 101.30132357961655, 24.82870409477514, 70.27651197459603, 20.195293506472396, 7.757866250930846, 83.19855010473631, 67.97358277238044, 69.62232094004835
471, 24.37512092390031, 10.042224531287145, 33.240688057996046, 8.28924701872112, -23.6607408020391, 31.06689286588401, 81.93725341543312, 51.06438393697209
472, 174.1246662829629, 12.060175654033682, 86.98726335985893, 65.5957685431008, -82.20894503459581, 60.54367806508363, 41.88689197308739, 14.065306572405738
473, 110.36713813460813, 11.551972811139956, 18.711921067075128, 95.86173414422974, -45.492252706438435, 76.79263144174946, 92.9973689089981, 3.0227025396290252
474, 129.0630497186777, 12.83562877217555, 61.51991863428126, -4.209429537768222, 45.15815679668529, 30.406190430791007, 80.93998391477713, 82.35197389955657
475, 36.91832846794712, 29.93761699734627, 62.817067583529216, 58.35500903012982, -53.51696058371195, 58.360367154452135, 13.348253959768385, 88.88547284319998
476, 96.72631377519009, 24.309182218062528, 19.02675831863785, 28.56990454577194, -39.65752696965472, 53.338732308338344, 40.5623760346892, 53.004604870836246
477, 70.19143806150933, 18.53507481282196, 40.29889622990748, 69.67602924834154, 22.055310708950785, 54.5352614087263, 55.69626793712636, 72.54568961918669
478, 118.36053302553312, 17.465979660652383, 67.6963843212889, -5.5088922967047385, -27.02137184249422, 39.71557553375379, 68.5627418238343, 73.4770914995367
479, 178.7311506871728, 24.30441193672141, 54.52822140286585, 41.949237546210625, -49.84161165171441, 30.55233624327543, 91.57895223203585, 36.79979608833748
480, 149.9434623814647, 26.643599851686947, 71.74741653223809, 103.41996601693405, -64.90879890287553, 62.13095221246094, 85.00620654865264, 75.40473210760976
481, 182.9980162099463, 20.071023766621572, 13.415500024867676, 93.60260380260634, 17.816157605470348, 11.442222448942088, 32.75736634584908, 47.67759079163183
482, 182.55438154137377, 24.833168450095528, 61.12000282378029, 80.74977555627723, 11.635199901891, 14.648685482205755, 14.725063541342445, 9.307521097405967
483, 25.00339864175821, 27.79866876931981, 62.58253163800609, 95.61137343584645, 4.267314806796294, 25.03127623727727, 61.556112667081905, 3.642500805743113
484, 57.982378925221994, 12.671633554216653, 83.21841438254327, 25.318349764497775, -31.089793334859536, 48.96991109223838, 86.27724376172101, 45.77915943121527
485, 134.63318257476737, 13.3929918408707, 64.68692082949447, 73.55890222810558, -20.82588631867752, 13.509569476670782, 46.45474051905368, 17.562086745604265
486, 32.97426346823096, 14.89789946330065, 20.065095622784934, 29.431084779261603, 1.3330706949601279, 24.23554700701257, 2.928274387651444, 8.660830331072518
487, 30.74877772258941, 25.89305847012851, 32.445816123483496, 66.00440407425336, -83.56962477102215, 1.341548382794706, 17.059440134662733, 68.03255865748325
488, 74.745146568423, 21.111214545428453, 22.972449979397368, 99.5080266199805, 2.8032954277827287, 31.487660713141764, 6.278194258347791, 2.976852292065435
489, 191.99124924321137, 10.308970918136191, 28.690605594006215, 29.511184711890817, -1.4009831767143908, 55.26206435463757, 56.3120674002365, 66.88370358021733
490, 28.484284593009544, 29.858442684536012, 64.01748917102105, 29.090649444956206, 9.778384174064369, 24.42166039272272, 14.736349553304454, 80.46477598936332
491, 53.24420103437251, 20.75906387307367, 50.88979268003857, 49.43116930913942, 39.34973969670156, 68.86331753512736, 16.94602547854486, 24.57763654888568
492, 199.49188931149797, 26.67889576828044, 2.50027151205497, 93.85389881807177, 10.919634862743452, 79.37003171115735, 29.64225381032433, 22.988243960360293
493, 49.142725515304505, 22.431766519570978, 2.03792480711965, 69.28717679942135, 25.958505916059494, 18.919119810791777, 5.036950035536657, 16.246927068711205
494, 141.43856508642122, 29.376397144218124, 47.29003679726646, -2.0299132442210386, -7.795751882947172, 82.4497743590206, 4.888764642890995, 37.76266220581369
495, 75.34065623257064, 15.513943208740088, 24.321518208532773, 78.53103067665313, -57.420218895395855, 24.232240931752546, 99.1500165131807, 22.596952504577736
496, 173.0560873502441, 26.807695929641877, 65.43162745980473, 7.3775030395162595, 29.18998508339193, 57.201407286903056, 80.457496012185, 81.63344259585202
497, 114.61064630217794, 23.245714076072233, 58.12169710929555, 7.158363611816671, -80.38245336491956, 16.45923500706231, 34.827123827070764, 25.635272347594253
498, 169.76819619511886, 13.08187607991151, 49.780950691000776, 2.435707597314229, 14.066405649074326, 80.4769437522208, 55.638597228572905, 53.666760735533764
499, 128.24777524656025, 10.656666923228808, 4.382421561221701, 45.405467674943765, -33.03516210709869, 28.398744722305914, 93.23446555469927, 71.21016995191025
500, 47.071560777053065, 17.054869334164337, 61.79594727144711, 4.3483118973133195, 43.75654438930215, 62.611036746639115, 39.9574175234297, 2.0332522424964496
501, 62.30611409888878, 12.749367443410238, 37.914619294749656, 104.48748382664128, -0.06614571344842089, 66.09306735246759, 75.11359251045273, 83.20219039358459
502, 146.75936295022328, 12.981256785173505, 27.32102126442006, 49.28917324760972, -20.18160548205648, 24.202822991232313, 88.67646010633507, 76.87270815723608
503, 182.57492088852322, 23.920153343725644, 62.76389862966555, 42.744925789173124, -32.93237367709301, 39.97166378479276, 75.3838039984922, 61.6351890025577
504, 164.4251287402129, 27.604270901630205, 87.71534085749073, 17.612862391061846, -10.797374371044981, 48.823360356366855, 106.84219741072882, 70.167196161346
505, 37.54665802562418, 17.232003107018485, 12.185337548080238, 52.470172963654434, -40.52965489965279, 16.73585666026354, 46.00115388914066, 59.22301464424935
506, 194.41902144641523, 18.126884313562268, 39.67460517711093, 17.724687350010154, -5.635256198565712, 59.56133627493216, 89.69496064944228, 54.53635854238711
507, 104.1694100033051, 17.28806521096758, 31.241783701173787, 20.23479739525515, -6.869223359297123, 11.682768237342655, 13.180317382351264, 7.818507364790339
508, 39.04776458749613, 12.254082093415409, 42.30600476630118, 72.52785793119722, -38.815448403206645, 77.75349735765228, 24.195722628562947, 76.59795716213644
509, 159.08769279230756, 17.34846673954471, 85.4358863543294, 8.010719188798888, 27.035155748030334, 84.46108753038932, 109.46984880167345, 33.507729583430375
510, 176.40113698454257, 16.42669040972015, 7.371965962978553, 78.23148096879763, -38.62716238918843, 31.7393970702509, 75.40557724077472, 19.430904105890615
511, 192.22706316761088, 13.918980368685867, 64.5419364359547, 63.93351042214698, -60.716373571760805, 24.167291663454975, 88.25912690126235, 88.19279306024242
512, 53.950787499677766, 29.392812191143744, 75.3774193862815, 66.0559316906297, 20.2017838372779, 21.22626369524061, 79.29920526110061, 68.3800572461492
513, 94.68393446535048, 15.576828235480564, 20.58294346606149, 75.65741836438008, -73.34232978547108, 67.30700014366444, 15.191711840881263, 13.299688644639085
514, 155.4173068556561, 28.562795172722772, 31.877493099555878, 77.8163660877622, 20.977252651569913, 22.829148319845633, 64.7553558916095, 7.953497500239209
515, 83.95477270430862, 25.954088640668804, 57.70238349264457, 100.0509991037968, -88.2171493445911, 18.56685636174313, 70.66831481709684, 8.242211502175053
516, 40.29201586242088, 19.09009571243299, 6.628108877934374, 82.92288235864623, 8.178998940673226, 61.79648831920341, 70.40822101745485, 60.24274278692984
517, 75.09105731447049, 26.968932433738306, 86.12584613744421, 48.715037303146815, -57.07581027019793, 38.39772575842223, 72.84002520490444, 45.71730437584022
518, 95.31554110046851, 24.83166676396636, 67.6861533229691, -4.294186338757356, -81.07672208813176, 42.79643590675456, 22.624875939749593, 40.6310492073582
519, 111.09339503847241, 27.82810124881786, 55.14980572992145, -7.006742698554623, 29.265890137515488, 81.73958849530453, 80.56767129883748, 20.651822654353417
520, 98.99139950793032, 27.621586242828144, 16.554205318242513, 13.056081691377418, -67.40380817017251, 14.041112003294828, 52.43112643626224, 84.18678819335655
521, 60.909454653705865, 11.721503392325165, 17.291451269095308, 50.04659734110866, -25.061940063245245, 19.352526026132253, 28.864022009921467, 53.07326859877468
522, 51.72806066617355, 21.112801713463014, 32.43065054637225, 105.84351525201053, 42.70637484965124, 37.721129455670706, 61.98161039108488, 52.39603405608978
523, 199.33706920049195, 13.495291940895818, 84.05064499666092, 69.73646172899842, 48.639560601411965, 4.460145459292432, 1.9575097840831026, 83.46271249026408
524, 71.7696729284815, 25.480345744279347, 44.54944428498058, 108.55709689644284, -60.56536752299442, 64.02110318154955, 59.21207886796517, 18.956819272898326
525, 79.069117349429, 17.761188598229722, 87.18578588525656, 84.5036501896879, 32.493068369571816, 41.72139033223826, 76.40750759295072, 13.27452818693388
526, 92.49773712923309, 28.720794459960835, 80.39125134492916, 60.11355252568398, -30.96435605704086, 84.12950025199238, 8.599051998476893, 27.976875963423144
527, 128.23767789416414, 24.385510724391427, 27.40850173184226, 22.156741066638645, 29.940393077752006, 52.31982917297498, 2.936269392382518, 30.263989824123044
528, 186.06819685416895, 23.239900932944444, 88.79695104694494, 13.642748055725935, -43.73057389394538, 32.603692609799914, 21.978286816650552, 70.94946387807678
529, 85.5048035630317, 12.903117392562276, 30.47218385894511, 85.30231898262643, -45.14519081946865, 8.155614450683341, 0.8507828079313628, 66.58818539981272
530, 68.12847446908096, 22.286872118509564, 21.758723668806184, 3.897454883100167, 27.30209430627181, 9.908360810634763, 39.11136682115894, 82.20298807389713
531, 142.74345727812812, 17.77074987771348, 11.77534801066434, 97.00939409811367, -12.128845530008547, 88.08381914020711, 90.23641928090771, 19.098942937140635
532, 69.45828660105775, 17.30213301121747, 82.53748561168514, 104.63879817510863, -57.97832799290323, 34.34285631253755, 95.55490366037039, 61.457343435215975
533, 96.20354428731044, 21.831402044326076, 4.775072004181804, 107.02566756244937, -52.46538965791605, 26.51789434837983, 59.19012089035224, 75.54669050027016
534, 163.89064373477797, 12.209248219468563, 38.511582336964466, 99.22580308389311, -54.60304731338107, 60.67365038140453, 57.12359550753613, 8.892429814637591
535, 164.72288619191215, 18.53221887152284, 78.1113570398288, 92.31011185052508, -42.04659844997941, 39.77695211734198, 2.0188001631282013, 77.93339578763413
536, 185.90539858813045, 22.067517825204362, 71.49200224780365, 60.5759929290938, -38.033594609834594, 0.48826030580284235, 77.0334153960746, 48.110724892158586
537, 184.36809079843448, 15.922915193650134, 61.46836071739007, 16.80884041970003, -11.111532454378318, 40.014791604972864, 70.87979016089692, 0.7840901622456498
538, 159.01248501807228, 21.004472143006936, 46.45817245348084, 68.777808279134, 27.65040124533061, 35.77022094763348, 55.30008507250456, 59.811371520935104
539, 159.8743253353328, 12.793568787484224, 29.26891852989193, 88.41878904600415, 15.932706067933852, 3.825158696076189, 64.61226132983845, 31.31239886642393
540, 62.51162687597604, 27.02835749348526, 51.152495433998126, 14.106983771088936, 25.678075761538665, 39.98122029449958, 103.4429977166215, 14.677308867696198
541, 68.36778364064057, 19.002396455479868, 37.80913493290609, 96.95275476220294, -17.59627196156839, 8.628543737549974, 41.07860681686964, 11.406342714511513
542, 79.46839568069893, 29.61791606543567, 27.449823235592973, -5.745930130742126, 10.879906654346485, 35.099101263707276, 21.309511155090036, 57.92706138694634
543, 159.73585360127333, 14.378525450023647, 24.17885979714812, 49.46826082178734, 47.500360476520456, 47.30254167526126, 90.40712328613667, 6.489780744463095
544, 104.79871478671905, 11.028558897094642, 71.21619827876482, 81.28665085039415, -24.522741113805992, 87.5547998902625, 9.541967772423206, 73.81041477415724
545, 125.53416555373656, 12.750577993516547, 36.25583817102755, -9.193526795512131, 45.39917048068699, 10.70543008304959, 32.7188061028904, 52.775063115480826
546, 11.159998859304046, 27.988157771136166, 85.29297531317418, 65.46191056417818, -48.204495566044784, 45.91685943971118, 35.245423230655284, 79.53103081449179
547, 155.17034503743866, 20.26937115550664, 3.0260800797694953, 40.72593358144227, 30.62039831927727, 51.73139988431659, 31.987782163540512, 77.54357995832403
548, 61.532703825411865, 19.56741255570859, 66.22789081334703, 91.9801411315272, -85.3079708987786, 75.15082358983508, 14.011382931668013, 55.56024720842111
549, 113.28350732646776, 20.944660986103514, 9.460977316083195, 66.89319489828037, -83.64549503779755, 88.59038247683213, 72.92702255694763, 57.209312298605845
550, 146.94981638845763, 20.613153346469183, 0.33080919930884356, 5.403735480863656, 15.020665037867982, 81.67818552163654, 100.00549261582746, 83.86266718051273
551, 44.31878626574687, 14.563411164915738, 3.3080957816612506, 17.780616395718532, -25.116379728293467, 43.33972792631437, 10.985748617612888, 87.81935655420905
552, 156.30351357459196, 29.468102556942057, 50.36727043495519, 93.79402021890172, 19.44636802939377, 4.8046327554381225, 26.843500427730685, 82.97961271789728
553, 93.12385594091808, 19.170499801836144, 60.5142849622144, 108.87825196100367, -32.248846803259624, 48.3567997889788, 19.447430624626723, 52.46124034046089
554, 25.328506368144723, 11.019619083993755, 32.46518066191709, 35.81807351941979, 30.149507930424264, 1.306158812362763, 52.16821101294559, 88.68303259825893
555, 125.65766817172776, 18.815019960480658, 0.13257140801450018, 57.037155444520536, -81.11529644374964, 39.2778378689459, 95.5293338494861, 42.779525068268214
556, 179.88172094819387, 23.18295533535907, 36.386763405144734, 31.641426423184008, -46.620480949255295, 38.14964897884172, 50.26608497350869, 71.8611973638335
557, 69.49166170702554, 25.009422811017274, 3.4205538131473148, 80.48250378404452, -77.26167992252319, 46.99322127292677, 76.19121163127885, 87.38935581118793
558, 138.05823175899258, 21.78917122127506, 39.25944497634891, -4.90035604753623, -22.28318894001192, 49.69600356372704, 94.25746982939154, 69.7834140942557
559, 36.38603670207597, 16.289203368109042, 87.38161896008084, -4.6032929396293625, -55.59222822387798, 48.83328260109275, 97.43544336365778, 31.774900143667438
560, 197.8183336845647, 18.995007992890873, 2.5349606467825856, 23.910778032992994, -11.955798474511923, 87.70706640477988, 96.16258888357714, 73.74474540200652
561, 21.2972358981864, 13.504996098223394, 20.08374455314601, 64.48935284992739, -10.195488781436694, 25.616559183826244, 34.31867633701282, 63.43874278238084
562, 65.17283193510755, 25.179031074490606, 5.6526057012524005, 55.09870963820359, -72.17836243327746, 37.801453794591914, 37.48432636128852, 39.01731880284534
563, 58.53358525977863, 13.366126808813979, 49.28167574748377, 2.565666297184551, -68.9460219936001, 85.95961072967539, 50.85415919975177, 78.2810486274751
564, 71.80309246069152, 15.95011359423071, 13.80840910030976, -2.5158227562563233, -85.44726780921908, 20.1062282514724, 38.19804881605048, 41.27060478446779
565, 159.87070571559713, 11.678707576311531, 51.417368385417575, 47.85793992566769, 19.413380700023964, 19.73405549897621, 78.63226450530553, 5.804341625349213
566, 176.46638057210095, 24.820627106430848, 46.20817155753713, 74.63275602771968, 11.495969151707643, 69.86243901959804, 36.52277038443582, 74.6453241639952
567, 55.78922454649587, 23.831730418928622, 9.499980091712787, 103.21681131140922, -58.97207785939422, 76.2868740640513, 62.54700486692964, 77.26840611875252
568, 168.64495039244292, 10.66846301711144, 64.63210981301219, 49.06546088427316, 8.51127955517012, 52.831424391644596, 9.803194753319005, 30.002711437325917
569, 162.73038632016647, 21.94679090050461, 62.46183091988222, 86.26971196410604, -4.687733881267704, 75.33420914692516, 4.208115082518095, 18.599817825393323
570, 100.94238001568053, 20.777182819095632, 7.1299726861714285, 100.54335203840733, 38.17119235407, 58.26346822062678, 56.80601065165167, 40.36108597348818
571, 94.61746024113584, 27.898637170450577, 50.643221954908725, 86.04838353054608, 22.80992468536222, 28.771946293309053, 24.56248194515368, 9.839282503580268
572, 87.72793587246198, 20.817201981026933, 85.79333531561677, 19.028663625586017, 6.08419043142726, 75.50393247241081, 87.24029114148729, 6.186280973370767
573, 180.4387955004024, 24.792060987675637, 40.60773183149545, 69.42539497276951, 13.138268645649278, 60.050848602758954, 102.73575707693989, 45.430784096825896
574, 10.9248585546559, 13.603399229584074, 76.26170246754474, 17.471804515138043, -89.86864803579198, 66.46526761883884, 79.9225336911868, 56.3181326389787
575, 33.18340570863903, 17.315348424051443, 78.53001009732155, 33.5466945634261, 11.010050985242955, 24.161020316410895, 0.518230845870643, 83.53970818180548
576, 198.3578382275704, 12.570118556830534, 85.29337988486598, 63.40891535753272, 17.803096857171525, 81.87532608799525, 76.4037749863282, 87.55180772725238
577, 124.98852831051606, 28.594193161558785, 88.63841555588083, 15.71753274315552, 6.333959057517163, 39.09968973886545, 58.28082882692038, 13.255810510113982
578, 75.17017943376763, 17.133517858446844, 73.77295266310779, 72.9077103525702, -55.21747769166751, 26.976376750436625, 73.82157651170219, 37.88777914132501
579, 45.14671788027829, 17.16023609683468, 78.10302191205145, -8.751880106093964, -2.132182084800817, 48.640076927947305, 9.126018383006011, 33.71019954165377
580, 118.5985937942843, 20.087120315850434, 12.535499685127549, 12.873452875289196, -74.63798802026034, 25.201886022154703, 39.34792489349518, 19.213005693017145
581, 117.07894187991613, 28.582717444430628, 68.79040166474246, -9.58263703825545, -37.36468699072908, 21.80918120989265, 33.189691195613676, 3.576810325085548
582, 84.56337713312786, 20.56185971366137, 74.2861971263126, 37.61389958685729, -27.740385452632594, 47.099952036266885, 53.55391821422584, 31.35421241098861
583, 192.84352351827152, 26.09021908926018, 34.667216859494495, 15.193514217804314, -49.73851903709933, 1.5238518702281834, 37.05278011520831, 83.08396609016629
584, 174.59542799356672, 21.469951305674925, 27.620786435530615, 1.0202454962763206, 30.789879454591258, 50.071348064683846, 32.15907128709235, 45.055281104255386
585, 193.63738983267132, 19.388653174799114, 83.60328591496678, 11.817691474577352, -45.309038264088805, 55.437834665764115, 90.31466274116609, 56.055594640531645
586, 134.91147514597986, 28.68553826485362, 75.00357930906524, 78.38022180823123, -16.879987429872283, 32.11292187831175, 20.839414912803814, 62.78150331537987
587, 47.476273947069906, 10.899525514264138, 73.64148744334041, 16.93639124816965, 39.412563833569266, 23.650014416378184, 40.13121173425192, 18.519500382662773
588, 55.02556501943499, 25.09287814518218, 15.064820678277053, -0.6006796710547988, 13.359414213832778, 64.26371680012753, 58.05478272780351, 31.95089168451848
589, 101.96986187923807, 19.36312006319714, 36.9474296739859, 61.73244931795016, -41.65360797312868, 48.09966997744184, 23.965434224234695, 19.145231974461563
590, 191.57824576983327, 13.330373310168397, 70.32175398783639, 69.98846715119033, 43.190379188929626, 40.18910600448234, 21.763982448463373, 6.0837070114534955
591, 138.6564704915044, 13.384502545920647, 89.9735180242381, 35.83363281847872, 37.97294732358209, 83.13445561081896, 105.25497478239654, 24.19688298185207
592, 84.37800990345814, 14.235559436754803, 43.209766040675746, 79.7934561990515, -22.799624099079665, 21.56264409832257, 24.97958115853613, 12.806769695451896
593, 160.63773291793947, 24.800953589577283, 79.7018829398852, 8.955967073234863, -29.356411268025305, 8.47614665810979, 100.89714797168975, 19.948323017863913
594, 54.54985936409183, 11.555629688884492, 50.06573422483645, 88.78993500826844, -6.153521265623638, 76.82586441369857, 107.14613950784504, 33.86453165232491
595, 150.21064462153214, 26.953545146200423, 7.6397125766728315, 31.560296592648335, -65.918523252699, 38.18146005820256, 75.46503627027086, 26.30108752880134
596, 55.38232114332955, 28.673981270078357, 60.18027817528966, 43.24061488378251, -10.445580151850208, 87.74678934470485, 54.29771755328971, 82.31955293020219
597, 130.6848726064518, 27.58844224058907, 13.815425244670884, 4.882484806305541, 26.307377035117213, 67.72799414870988, 107.68410998818406, 21.224486284130457
598, 31.937979795241215, 15.915408924583776, 87.59785324478462, 69.54366887906492, -71.21923338379057, 42.77503834317477, 22.759176126691028, 54.84901786975853
599, 39.492111011730515, 13.333648785031416, 65.10855737721931, 65.44501644834928, -40.55935203089829, 50.92549301344245, 41.04316963090345, 62.75263847314281
600, 75.31436359342788, 22.57026005648259, 78.23326155738741, 84.91559717902209, 8.920719825539663, 11.486635014931535, 89.75556520371892, 70.32470432341188
601, 40.31504132545146, 17.19938450219957, 53.14545887416342, 88.21530966269438, 7.692652188530758, 15.192420958336765, 83.91501904847097, 69.78400701911924
602, 63.941671269700194, 15.052855293164452, 9.089207051438846, 97.44468865380688, -6.689725137645937, 83.90972030520379, 39.633929531812356, 27.183668777262024
603, 174.71521143832445, 27.22131159502912, 14.380151139291854, 72.30925735258936, -44.7412391176597, 16.35595289349544, 72.32324355609778, 78.94492572703197
604, 170.24543816515683, 16.495634011415532, 72.1144008884985, -11.83684050424601, 35.736157203714804, 75.43142844108053, 105.90250829734599, 63.357604823954475
605, 61.03015725409544, 16.982528813640045, 76.9998963777468, -7.26759283482899, -44.10669480146992, 65.07710341212434, 36.34476459310741, 18.05767036241364
606, 180.78206504114928, 15.981921801146061, 6.939035836802201, 78.75984769238872, -8.933291047031929, 71.21785288530482, 12.548719260250374, 42.48768483027613
607, 167.42626872096344, 18.443740347265575, 50.96848697639468, -10.593316230158992, -40.801730708897225, 64.72807281922142, 70.0872300796995, 53.19208037812692
608, 27.790934338412427, 12.054297847656652, 87.67871191122423, 72.99061370972083, 2.637507616125049, 34.070550011633735, 72.5564145857105, 89.83175816364344
609, 177.46490242207554, 14.37628159912058, 71.16005814113572, 90.31551825949434, -81.25152254375493, 38.73271418960947, 69.76828273480169, 79.66756268068113
610, 31.53619816360354, 29.1493819472519, 70.95044762161866, 36.34169827394487, 27.665351353882414, 76.44723318969359, 15.535248818513143, 42.69903792238126
611, 178.0917008082586, 19.39921332408282, 72.80481165270598, 82.28671325103461, 45.043262463513, 63.91183622733662, 66.7966641240494, 6.85029772619294
612, 99.93910125816743, 10.767562959773434, 11.175829713132357, 69.39272799533227, 0.9435927738766025, 48.28187184601681, 30.494906621397945, 67.90335534758819
613, 65.35265761212787, 19.877417309793934, 61.42860760528058, 107.56128452542929, 28.86628070202501, 26.086207651877096, 73.16716589588867, 86.83438449027669
614, 104.21970114373968, 22.894595509903006, 51.11430126053208, 71.30417956330167, -57.700499496874144, 77.3951609898735, 82.6310737130915, 59.377402301339075
615, 198.54601126809658, 19.241718453064685, 32.57411896472691, 105.96067685422375, -45.64413855564772, 75.93126861345141, 24.45521083155984, 56.03132273048847
616, 32.54330095845732, 10.112522901515902, 66.83197621297693, 82.09562845100625, -80.16788769898297, 78.8635675078168, 85.93782616194981, 26.983019056062126
617, 79.60086781006525, 21.558203518382893, 76.8055171201699, 8.696637648106634, -73.70364239750776, 48.50841608289892, 98.15733500535757, 1.2591476384247302
618, 87.1466419191049, 20.011943582293483, 31.088387086960203, -11.811321579471935, -16.713862058563166, 43.613517326786855, 72.38447719400514, 87.58471973989069
619, 47.74751866316313, 27.231716085746683, 41.55262037741531, 90.27556056492058, -73.96185145021894, 49.08184564826548, 63.133471574959025, 51.91536522395776
620, 138.96978301504853, 23.12553981254824, 52.08872452844761, 14.810329290679435, -56.87420746728869, 63.24795850143611, 57.07320666572229, 33.621575750594914
621, 80.42724664410767, 14.799399748603978, 17.544074231434436, 79.7259184010992, -0.029679489769307565, 71.59815033170659, 50.79527680760072, 6.580909544567594
622, 179.43417533186624, 13.497148197823511, 4.630837902363739, 79.54783118314182, -2.939153146639228, 31.528218177445325, 1.3985237181017782, 77.9943158889547
623, 75.35108880927584, 17.144989721270175, 39.16984321024264, 90.1162310562015, 3.321697742173157, 3.223309364699639, 33.8896414784483, 74.0397185197233
624, 199.82412458630756, 26.707401164329426, 78.6947731095119, 104.5968341115544, 27.076175698837158, 17.319420624150652, 56.130000006621295, 17.27128564810009
625, 123.83408832571203, 15.955137767908683, 25.69950388302591, 109.42814144659661, 17.661001037690852, 50.75213182610469, 0.15267140638215437, 87.89527364854855
626, 185.17709332214267, 16.79413060043735, 64.55118469870503, 39.90448704952829, -72.69968154522228, 30.134226372853107, 76.21866092508242, 14.075467290137675
627, 55.40047643544897, 16.74693119410684, 16.876325093186516, 101.5105267561934, -87.71528607730372, 66.01438409318244, 47.801825233532526, 68.13508884416137
